; generated by PrusaSlicer 2.5.0+win64 on 2023-03-07 at 17:48:22 UTC

; 

; external perimeters extrusion width = 0.45mm
; perimeters extrusion width = 0.45mm
; infill extrusion width = 0.45mm
; solid infill extrusion width = 0.45mm
; top infill extrusion width = 0.40mm
; first layer extrusion width = 0.42mm

; external perimeters extrusion width = 0.45mm
; perimeters extrusion width = 0.45mm
; infill extrusion width = 0.45mm
; solid infill extrusion width = 0.45mm
; top infill extrusion width = 0.40mm
; first layer extrusion width = 0.42mm

; external perimeters extrusion width = 0.45mm
; perimeters extrusion width = 0.45mm
; infill extrusion width = 0.45mm
; solid infill extrusion width = 0.45mm
; top infill extrusion width = 0.40mm
; first layer extrusion width = 0.42mm

M73 P0 R13
M107
;TYPE:Custom
M862.3 P "MK2.5S" ; printer model check
M862.1 P0.4 ; nozzle diameter check
M115 U3.10.0 ; tell printer latest fw version
G90 ; use absolute coordinates
M83  ; extruder relative mode
M104 S230 ; set extruder temp
M140 S85 ; set bed temp
M190 S85 ; wait for bed temp
M109 S230 ; wait for extruder temp
G28 W ; home all without mesh bed level
G80 ; mesh bed leveling
G1 Y-3.0 F1000.0 ; go outside print area
G92 E0.0
G1 X60.0 E9.0 F1000.0 ; intro line
G1 X100.0 E12.5 F1000.0 ; intro line
G92 E0.0
G21 ; set units to millimeters
G90 ; use absolute coordinates
M83 ; use relative distances for extrusion
M900 K0.08 ; Filament gcode LA 1.5
M900 K45 ; Filament gcode LA 1.0
M107
;LAYER_CHANGE
;Z:0.2
;HEIGHT:0.2
;BEFORE_LAYER_CHANGE
G92 E0.0
;0.2


G1 E-1.4 F2100
G1 Z.2 F10800
;AFTER_LAYER_CHANGE
;0.2
G1 Z.4
G1 X47.064 Y49.852
G1 Z.2
M73 P0 R12
G1 E1.4 F2100
M204 S1000
;TYPE:Skirt/Brim
;WIDTH:0.42
G1 F1200
G1 X48.146 Y49.066 E.04193
G1 X48.862 Y48.697 E.02524
G1 X49.875 Y48.336 E.03373
G1 X51.192 Y48.108 E.04193
G1 X52.065 Y48.093 E.02736
G1 X53.586 Y48.336 E.04829
G1 X54.599 Y48.697 E.03372
G1 X55.763 Y49.355 E.04193
G1 X56.576 Y50.016 E.03284
G1 X155.976 Y149.889 E4.41806
G1 X156.908 Y151.198 E.05039
M73 P1 R12
G1 X157.355 Y152.177 E.03373
G1 X157.695 Y153.47 E.04193
G1 X157.772 Y155.062 E.04998
G1 X157.619 Y156.14 E.03413
G1 X157.205 Y157.412 E.04193
G1 X156.409 Y158.793 E.04998
G1 X155.698 Y159.617 E.03413
G1 X154.434 Y160.61 E.05039
G1 X153.234 Y161.2 E.04193
G1 X152.202 Y161.503 E.03373
G1 X150.873 Y161.655 E.04193
G1 X149.273 Y161.503 E.05039
G1 X148.241 Y161.2 E.03373
G1 X147.041 Y160.61 E.04193
G1 X146.171 Y159.978 E.03373
G1 X96.704 Y110.469 E2.19438
G1 X46.69 Y60.069 E2.22626
M73 P2 R12
G1 X46.066 Y59.333 E.03027
G1 X45.375 Y58.188 E.04193
G1 X45.069 Y57.444 E.02524
G1 X44.795 Y56.403 E.03373
G1 X44.682 Y55.11 E.04071
G1 X44.734 Y54.268 E.02646
G1 X44.879 Y53.476 E.02524
G1 X45.211 Y52.453 E.03372
G1 X45.56 Y51.728 E.02524
G1 X46.315 Y50.624 E.04193
G1 X47.023 Y49.895 E.03185
; printing object SusanSpacerWithShaft.STL id:0 copy 0
;WIPE_START
G1 F8640
G1 X48.146 Y49.066 E-.32243
G1 X48.862 Y48.697 E-.18586
G1 X49.875 Y48.336 E-.24838
G1 X51.192 Y48.108 E-.30878
G1 X52.065 Y48.093 E-.20151
G1 X52.335 Y48.136 E-.06304
;WIPE_END
G1 E-.07 F2100
G1 Z.4 F10800
G1 X150.503 Y150.728
G1 Z.2
M73 P3 R12
G1 E1.4 F2100
;TYPE:Perimeter
;WIDTH:0.419999
G1 F1200
G1 X151.16 Y150.766 E.02065
G1 X151.666 Y150.839 E.01602
G1 X152.251 Y151.027 E.01926
G1 X152.842 Y151.347 E.02109
G1 X153.366 Y151.744 E.0206
G1 X153.812 Y152.24 E.02094
G1 X154.175 Y152.793 E.02074
G1 X154.429 Y153.41 E.0209
G1 X154.585 Y154.054 E.02078
G1 X154.616 Y154.717 E.0208
G1 X154.61 Y154.94 E.007
G1 X154.49 Y155.595 E.02087
G1 X154.273 Y156.222 E.02081
G1 X153.94 Y156.798 E.02087
G1 X153.525 Y157.316 E.02082
G1 X153.018 Y157.747 E.02086
G1 X152.453 Y158.095 E.02082
G1 X151.83 Y158.33 E.02086
G1 X151.181 Y158.468 E.02082
G1 X150.516 Y158.481 E.02086
G1 X149.857 Y158.393 E.02082
G1 X149.227 Y158.181 E.02086
G1 X148.636 Y157.877 E.02082
G1 X148.113 Y157.465 E.02086
G1 X147.66 Y156.981 E.02082
G1 X147.305 Y156.417 E.02087
G1 X147.041 Y155.808 E.02081
G1 X146.897 Y155.158 E.02088
G1 X146.853 Y154.496 E.02081
G1 X146.935 Y153.835 E.02089
G1 X147.116 Y153.197 E.02079
G1 X147.416 Y152.601 E.02092
G1 X147.8 Y152.062 E.02076
G1 X148.286 Y151.6 E.02101
G1 X148.826 Y151.223 E.02067
G1 X149.422 Y150.957 E.02046
G1 X149.908 Y150.816 E.01584
G1 X150.443 Y150.737 E.01698
G1 X150.492 Y150.35 F10800
;TYPE:External perimeter
G1 F1200
G1 X151.47 Y150.407 E.03072
G1 X152.121 Y150.58 E.02112
G1 X152.597 Y150.777 E.01614
G1 X153.046 Y151.03 E.01617
G1 X153.621 Y151.465 E.02262
G1 X154.111 Y152.01 E.02296
G1 X154.509 Y152.617 E.02277
G1 X154.787 Y153.293 E.02292
G1 X154.959 Y154 E.02281
G1 X154.993 Y154.727 E.02282
G1 X154.952 Y155.214 E.01532
G1 X154.793 Y155.925 E.02283
G1 X154.503 Y156.595 E.02289
G1 X154.115 Y157.211 E.02284
G1 X153.616 Y157.744 E.02289
G1 X153.043 Y158.195 E.02284
G1 X152.394 Y158.529 E.02289
G1 X151.704 Y158.761 E.02285
G1 X150.98 Y158.858 E.02289
G1 X150.252 Y158.844 E.02285
G1 X149.538 Y158.692 E.02289
G1 X148.856 Y158.434 E.02285
G1 X148.235 Y158.051 E.02289
G1 X147.68 Y157.579 E.02285
G1 X147.223 Y157.01 E.02289
G1 X146.859 Y156.379 E.02284
G1 X146.62 Y155.689 E.0229
G1 X146.489 Y154.972 E.02284
G1 X146.496 Y154.242 E.02291
G1 X146.613 Y153.523 E.02282
G1 X146.866 Y152.837 E.02293
G1 X147.218 Y152.2 E.0228
G1 X147.687 Y151.637 E.02299
G1 X148.231 Y151.157 E.02274
G1 X148.852 Y150.79 E.02262
G1 X149.327 Y150.59 E.01616
G1 X149.822 Y150.449 E.01613
G1 X150.433 Y150.359 E.01935
G1 X150.702 Y150.69 F10800
;WIPE_START
G1 F8640
G1 X151.47 Y150.407 E-.2398
G1 X152.121 Y150.58 E-.1555
G1 X152.597 Y150.777 E-.11889
G1 X153.046 Y151.03 E-.11907
G1 X153.621 Y151.465 E-.16659
G1 X154.111 Y152.01 E-.16912
G1 X154.509 Y152.617 E-.16767
G1 X154.787 Y153.293 E-.1688
G1 X154.812 Y153.397 E-.02455
;WIPE_END
G1 E-.07 F2100
G1 Z.4 F10800
G1 X154.082 Y152.861
G1 Z.2
G1 E1.4 F2100
;TYPE:Solid infill
;WIDTH:0.421948
G1 F1200
G1 X153.167 Y151.947 E.04076
G1 X152.856 Y151.692 E.01269
G1 X152.51 Y151.47 E.01297
G1 X152.14 Y151.288 E.01297
G1 X151.879 Y151.195 E.00873
G1 X154.149 Y153.465 E.10116
G1 X154.223 Y153.691 E.00751
G1 X154.31 Y154.162 E.01508
G1 X151.2 Y151.052 E.13861
G1 X150.632 Y151.019 E.01796
G1 X154.333 Y154.721 E.165
G1 X154.328 Y154.916 E.00613
G1 X154.286 Y155.209 E.00935
G1 X150.132 Y151.056 E.18513
G1 X149.699 Y151.158 E.01404
G1 X154.185 Y155.644 E.19995
G1 X154.041 Y156.037 E.01318
G1 X149.306 Y151.302 E.21105
G1 X148.949 Y151.48 E.0126
G1 X153.862 Y156.394 E.219
G1 X153.652 Y156.719 E.01221
G1 X148.622 Y151.69 E.22415
G1 X148.327 Y151.931 E.01201
G1 X153.411 Y157.015 E.2266
G1 X153.143 Y157.283 E.01195
G1 X148.06 Y152.2 E.22653
G1 X147.822 Y152.497 E.01202
G1 X152.846 Y157.522 E.22395
G1 X152.52 Y157.732 E.01222
G1 X147.612 Y152.824 E.21876
G1 X147.434 Y153.182 E.0126
M73 P4 R12
G1 X152.163 Y157.911 E.21077
G1 X151.77 Y158.054 E.01318
G1 X147.291 Y153.574 E.19964
G1 X147.188 Y154.008 E.01405
G1 X151.335 Y158.155 E.18481
G1 X151.148 Y158.187 E.00596
G1 X150.848 Y158.204 E.00947
G1 X147.137 Y154.493 E.16543
G1 X147.148 Y154.916 E.01333
G1 X147.168 Y155.06 E.00461
G1 X150.288 Y158.18 E.13907
G1 X149.922 Y158.117 E.01174
G1 X149.592 Y158.02 E.01082
G1 X147.322 Y155.75 E.10118
G1 X147.46 Y156.104 E.01197
G1 X147.652 Y156.468 E.01297
G1 X147.884 Y156.808 E.01297
G1 X148.148 Y157.112 E.01268
G1 X148.973 Y157.937 E.03679
; stop printing object SusanSpacerWithShaft.STL id:0 copy 0
;LAYER_CHANGE
;Z:0.4
;HEIGHT:0.2
;BEFORE_LAYER_CHANGE
G92 E0.0
;0.4


;WIPE_START
G1 F8640
G1 X148.148 Y157.112 E-.26955
G1 X147.884 Y156.808 E-.09287
G1 X147.652 Y156.468 E-.095
G1 X147.46 Y156.104 E-.095
G1 X147.322 Y155.75 E-.08771
G1 X149.435 Y157.863 E-.68986
;WIPE_END
G1 E-.07 F2100
G1 Z.4 F10800
;AFTER_LAYER_CHANGE
;0.4
G1 Z.6
G1 X147.881 Y161.023
G1 Z.4
G1 E1.4 F2100
;TYPE:Skirt/Brim
;WIDTH:0.42
G1 F2146
G1 X147.041 Y160.61 E.02934
G1 X146.171 Y159.978 E.03373
G1 X96.704 Y110.469 E2.19438
G1 X46.69 Y60.069 E2.22626
G1 X46.066 Y59.333 E.03027
G1 X45.375 Y58.188 E.04193
G1 X45.069 Y57.444 E.02524
G1 X44.795 Y56.403 E.03373
G1 X44.682 Y55.11 E.04071
G1 X44.734 Y54.268 E.02646
G1 X44.879 Y53.476 E.02524
G1 X45.211 Y52.453 E.03372
G1 X45.56 Y51.728 E.02524
G1 X46.315 Y50.624 E.04193
G1 X47.064 Y49.852 E.03373
G1 X48.146 Y49.066 E.04193
G1 X48.862 Y48.697 E.02524
G1 X49.875 Y48.336 E.03373
G1 X51.192 Y48.108 E.04193
G1 X52.065 Y48.093 E.02736
G1 X53.586 Y48.336 E.04829
G1 X54.599 Y48.697 E.03372
G1 X55.763 Y49.355 E.04193
G1 X56.576 Y50.016 E.03284
G1 X155.976 Y149.889 E4.41806
G1 X156.908 Y151.198 E.05039
M73 P5 R12
G1 X157.355 Y152.177 E.03373
G1 X157.695 Y153.47 E.04193
G1 X157.772 Y155.062 E.04998
G1 X157.619 Y156.14 E.03413
G1 X157.205 Y157.412 E.04193
G1 X156.409 Y158.793 E.04998
G1 X155.698 Y159.617 E.03413
G1 X154.434 Y160.61 E.05039
G1 X153.234 Y161.2 E.04193
G1 X152.202 Y161.503 E.03373
G1 X150.873 Y161.655 E.04193
G1 X149.273 Y161.503 E.05039
G1 X148.241 Y161.2 E.03373
G1 X147.935 Y161.049 E.01071
; printing object SusanSpacerWithShaft.STL id:0 copy 0
;WIPE_START
G1 F8640
G1 X147.041 Y160.61 E-.22992
G1 X146.171 Y159.978 E-.24838
G1 X143.564 Y157.368 E-.8517
;WIPE_END
G1 E-.07 F2100
G1 Z.6 F10800
G1 X148.969 Y158.222
G1 Z.4
G1 E1.4 F2100
M204 S800
;TYPE:Perimeter
;WIDTH:0.449999
G1 F1500
G1 X148.552 Y158.007 E.01587
G1 X148.009 Y157.58 E.02342
G1 X147.537 Y157.075 E.02337
G1 X147.168 Y156.49 E.02343
G1 X146.894 Y155.856 E.02337
G1 X146.743 Y155.18 E.02344
G1 X146.697 Y154.492 E.02336
G1 X146.783 Y153.804 E.02345
G1 X146.971 Y153.141 E.02334
G1 X147.283 Y152.521 E.02349
G1 X147.683 Y151.96 E.02331
G1 X148.188 Y151.48 E.02359
G1 X148.75 Y151.088 E.0232
G1 X149.37 Y150.811 E.02297
G1 X149.876 Y150.665 E.01783
G1 X150.49 Y150.574 E.02102
G1 X151.178 Y150.613 E.02333
G1 X151.704 Y150.689 E.01797
G1 X152.311 Y150.884 E.0216
G1 X152.926 Y151.217 E.02368
G1 X153.471 Y151.629 E.02312
G1 X153.935 Y152.146 E.02351
G1 X154.312 Y152.721 E.02328
G1 X154.576 Y153.362 E.02346
G1 X154.738 Y154.032 E.02333
G1 X154.771 Y154.721 E.02335
G1 X154.765 Y154.953 E.00786
G1 X154.64 Y155.634 E.02343
G1 X154.414 Y156.286 E.02336
G1 X154.068 Y156.886 E.02343
G1 X153.636 Y157.424 E.02337
G1 X153.109 Y157.872 E.02342
G1 X152.521 Y158.234 E.02337
G1 X151.874 Y158.479 E.02342
G1 X151.198 Y158.623 E.02337
G1 X150.507 Y158.636 E.02342
G1 X149.822 Y158.544 E.02338
G1 X149.166 Y158.324 E.02342
G1 X149.023 Y158.25 E.00547
M204 S1000
G1 X148.774 Y158.6 F10800
M204 S800
;TYPE:External perimeter
G1 F1500
G1 X148.332 Y158.35 E.0172
G1 X147.921 Y158.052 E.0172
G1 X147.547 Y157.708 E.0172
G1 X147.214 Y157.324 E.0172
G1 X146.927 Y156.905 E.0172
G1 X146.69 Y156.456 E.0172
G1 X146.506 Y155.982 E.0172
G1 X146.377 Y155.491 E.0172
G1 X146.304 Y154.988 E.0172
G1 X146.29 Y154.48 E.0172
G1 X146.333 Y153.974 E.0172
G1 X146.434 Y153.476 E.0172
G1 X146.591 Y152.993 E.0172
G1 X146.802 Y152.531 E.0172
G1 X147.065 Y152.096 E.0172
G1 X147.375 Y151.693 E.0172
G1 X147.729 Y151.329 E.0172
G1 X148.122 Y151.007 E.0172
G1 X148.55 Y150.733 E.0172
G1 X149.006 Y150.509 E.0172
G1 X149.484 Y150.338 E.0172
G1 X149.979 Y150.223 E.0172
G1 X150.478 Y150.165 E.01701
G1 X151.502 Y150.224 E.03472
G1 X152.18 Y150.405 E.02376
G1 X152.709 Y150.626 E.0194
G1 X153.146 Y150.874 E.01701
G1 X153.554 Y151.172 E.01709
G1 X153.926 Y151.514 E.01712
G1 X154.258 Y151.897 E.01714
G1 X154.543 Y152.315 E.01715
G1 X154.78 Y152.764 E.01715
G1 X154.963 Y153.236 E.01716
G1 X155.092 Y153.727 E.01716
G1 X155.164 Y154.228 E.01716
G1 X155.171 Y154.988 E.02571
G1 X155.099 Y155.491 E.0172
G1 X154.97 Y155.982 E.0172
G1 X154.785 Y156.456 E.0172
G1 X154.548 Y156.905 E.0172
G1 X154.261 Y157.324 E.0172
G1 X153.929 Y157.708 E.0172
G1 X153.554 Y158.052 E.0172
G1 X153.143 Y158.35 E.0172
G1 X152.701 Y158.6 E.0172
G1 X152.233 Y158.798 E.0172
G1 X151.746 Y158.941 E.0172
G1 X151.245 Y159.028 E.0172
G1 X150.738 Y159.057 E.0172
G1 X150.23 Y159.028 E.0172
G1 X149.73 Y158.941 E.0172
G1 X149.242 Y158.798 E.0172
G1 X148.83 Y158.624 E.01517
M204 S1000
G1 X148.748 Y158.201 F10800
;WIPE_START
G1 F8640
G1 X148.332 Y158.35 E-.13108
G1 X147.921 Y158.052 E-.11731
G1 X147.547 Y157.708 E-.11731
G1 X147.214 Y157.324 E-.1173
G1 X146.927 Y156.905 E-.11731
G1 X146.69 Y156.456 E-.11731
G1 X146.506 Y155.982 E-.11731
G1 X146.377 Y155.491 E-.11731
G1 X146.304 Y154.988 E-.11731
G1 X146.29 Y154.48 E-.11731
G1 X146.333 Y153.974 E-.11731
G1 X146.356 Y153.864 E-.02582
;WIPE_END
G1 E-.07 F2100
G1 Z.6 F10800
G1 X154.209 Y156.415
G1 Z.4
G1 E1.4 F2100
M204 S2000
;TYPE:Solid infill
;WIDTH:0.45744
G1 F2146
G1 X153.103 Y157.499 E.0534
G1 X152.758 Y157.75 E.0147
G1 X152.386 Y157.96 E.0147
G1 X151.877 Y158.16 E.01887
G1 X154.297 Y155.74 E.11796
G1 X154.399 Y155.349 E.01394
G1 X154.449 Y155.001 E.01211
G1 X151.13 Y158.321 E.16181
G1 X150.738 Y158.343 E.01354
G1 X150.533 Y158.332 E.00707
G1 X154.464 Y154.401 E.19161
G1 X154.436 Y154.076 E.01125
G1 X154.396 Y153.882 E.00682
G1 X150.011 Y158.267 E.21375
G1 X149.547 Y158.145 E.01655
G1 X154.273 Y153.419 E.23039
G1 X154.105 Y153.001 E.01552
G1 X149.129 Y157.977 E.24254
G1 X148.751 Y157.769 E.01488
M73 P6 R12
G1 X153.897 Y152.623 E.25084
G1 X153.653 Y152.28 E.01449
G1 X148.408 Y157.525 E.25567
G1 X148.099 Y157.248 E.01431
G1 X153.377 Y151.971 E.25725
G1 X153.067 Y151.694 E.01431
G1 X147.822 Y156.939 E.25565
G1 X147.579 Y156.596 E.01449
G1 X152.724 Y151.45 E.25082
G1 X152.575 Y151.354 E.00613
G1 X152.347 Y151.242 E.00877
G1 X147.37 Y156.218 E.24257
G1 X147.2 Y155.802 E.01549
G1 X151.93 Y151.072 E.23055
G1 X151.468 Y150.948 E.01648
G1 X147.075 Y155.341 E.21416
G1 X147.012 Y154.818 E.01817
G1 X150.925 Y150.905 E.19074
G1 X150.499 Y150.88 E.01473
G1 X150.346 Y150.898 E.0053
G1 X147.028 Y154.216 E.16175
G1 X147.124 Y153.657 E.01954
G1 X147.184 Y153.473 E.00668
G1 X149.607 Y151.05 E.1181
G1 X149.283 Y151.166 E.01184
G1 X148.901 Y151.354 E.0147
G1 X148.542 Y151.585 E.0147
G1 X148.239 Y151.832 E.01348
G1 X147.253 Y152.818 E.04807
M204 S1000
; stop printing object SusanSpacerWithShaft.STL id:0 copy 0
;LAYER_CHANGE
;Z:0.6
;HEIGHT:0.2
;BEFORE_LAYER_CHANGE
G92 E0.0
;0.6


;WIPE_START
G1 F8640
G1 X148.239 Y151.832 E-.32205
G1 X148.542 Y151.585 E-.09032
G1 X148.901 Y151.354 E-.09849
G1 X149.283 Y151.166 E-.09851
G1 X149.607 Y151.05 E-.07935
G1 X147.643 Y153.014 E-.64128
;WIPE_END
G1 E-.07 F2100
G1 Z.6 F10800
;AFTER_LAYER_CHANGE
;0.6
G1 Z.8
G1 X143.425 Y157.229
G1 Z.6
G1 E1.4 F2100
;TYPE:Skirt/Brim
;WIDTH:0.42
G1 F2181
G1 X96.704 Y110.469 E2.07255
G1 X46.69 Y60.069 E2.22626
G1 X46.066 Y59.333 E.03027
G1 X45.375 Y58.188 E.04193
G1 X45.069 Y57.444 E.02524
G1 X44.795 Y56.403 E.03373
G1 X44.682 Y55.11 E.04071
G1 X44.734 Y54.268 E.02646
G1 X44.879 Y53.476 E.02524
G1 X45.211 Y52.453 E.03372
G1 X45.56 Y51.728 E.02524
G1 X46.315 Y50.624 E.04193
G1 X47.064 Y49.852 E.03373
G1 X48.146 Y49.066 E.04193
G1 X48.862 Y48.697 E.02524
G1 X49.875 Y48.336 E.03373
G1 X51.192 Y48.108 E.04193
G1 X52.065 Y48.093 E.02736
G1 X53.586 Y48.336 E.04829
G1 X54.599 Y48.697 E.03372
G1 X55.763 Y49.355 E.04193
G1 X56.576 Y50.016 E.03284
G1 X155.976 Y149.889 E4.41806
G1 X156.908 Y151.198 E.05039
M73 P7 R12
G1 X157.355 Y152.177 E.03373
G1 X157.695 Y153.47 E.04193
G1 X157.772 Y155.062 E.04998
G1 X157.619 Y156.14 E.03413
G1 X157.205 Y157.412 E.04193
G1 X156.409 Y158.793 E.04998
G1 X155.698 Y159.617 E.03413
G1 X154.434 Y160.61 E.05039
G1 X153.234 Y161.2 E.04193
G1 X152.202 Y161.503 E.03373
G1 X150.873 Y161.655 E.04193
G1 X149.273 Y161.503 E.05039
G1 X148.241 Y161.2 E.03373
G1 X147.041 Y160.61 E.04193
G1 X146.171 Y159.978 E.03373
G1 X143.467 Y157.271 E.11994
; printing object SusanSpacerWithShaft.STL id:0 copy 0
;WIPE_START
G1 F8640
G1 X139.396 Y153.197 E-1.33
;WIPE_END
G1 E-.07 F2100
G1 Z.8 F10800
G1 X146.979 Y156.053
G1 Z.6
G1 E1.4 F2100
M204 S800
;TYPE:Perimeter
;WIDTH:0.449999
G1 F1500
G1 X146.894 Y155.856 E.00725
G1 X146.743 Y155.18 E.02344
G1 X146.697 Y154.492 E.02336
G1 X146.784 Y153.8 E.0236
G1 X146.971 Y153.141 E.0232
G1 X147.282 Y152.53 E.02319
G1 X147.683 Y151.96 E.02359
G1 X148.188 Y151.48 E.02359
G1 X148.75 Y151.088 E.0232
G1 X149.37 Y150.811 E.02297
G1 X149.876 Y150.665 E.01783
G1 X150.49 Y150.574 E.02102
