; generated by PrusaSlicer 2.5.0+win64 on 2023-03-07 at 18:42:11 UTC

; 

; external perimeters extrusion width = 0.45mm
; perimeters extrusion width = 0.45mm
; infill extrusion width = 0.45mm
; solid infill extrusion width = 0.45mm
; top infill extrusion width = 0.40mm
; first layer extrusion width = 0.42mm

; external perimeters extrusion width = 0.45mm
; perimeters extrusion width = 0.45mm
; infill extrusion width = 0.45mm
; solid infill extrusion width = 0.45mm
; top infill extrusion width = 0.40mm
; first layer extrusion width = 0.42mm

; external perimeters extrusion width = 0.45mm
; perimeters extrusion width = 0.45mm
; infill extrusion width = 0.45mm
; solid infill extrusion width = 0.45mm
; top infill extrusion width = 0.40mm
; first layer extrusion width = 0.42mm

; external perimeters extrusion width = 0.45mm
; perimeters extrusion width = 0.45mm
; infill extrusion width = 0.45mm
; solid infill extrusion width = 0.45mm
; top infill extrusion width = 0.40mm
; first layer extrusion width = 0.42mm

; external perimeters extrusion width = 0.45mm
; perimeters extrusion width = 0.45mm
; infill extrusion width = 0.45mm
; solid infill extrusion width = 0.45mm
; top infill extrusion width = 0.40mm
; first layer extrusion width = 0.42mm

; external perimeters extrusion width = 0.45mm
; perimeters extrusion width = 0.45mm
; infill extrusion width = 0.45mm
; solid infill extrusion width = 0.45mm
; top infill extrusion width = 0.40mm
; first layer extrusion width = 0.42mm

M73 P0 R23
M107
;TYPE:Custom
M862.3 P "MK2.5S" ; printer model check
M862.1 P0.4 ; nozzle diameter check
M115 U3.10.0 ; tell printer latest fw version
G90 ; use absolute coordinates
M83  ; extruder relative mode
M104 S235 ; set extruder temp
M140 S90 ; set bed temp
M190 S90 ; wait for bed temp
M109 S235 ; wait for extruder temp
G28 W ; home all without mesh bed level
G80 ; mesh bed leveling
G1 Y-3.0 F1000.0 ; go outside print area
G92 E0.0
G1 X60.0 E9.0 F1000.0 ; intro line
G1 X100.0 E12.5 F1000.0 ; intro line
G92 E0.0
G21 ; set units to millimeters
G90 ; use absolute coordinates
M83 ; use relative distances for extrusion
M900 K0.08 ; Filament gcode LA 1.5
M900 K45 ; Filament gcode LA 1.0
M107
;LAYER_CHANGE
;Z:0.2
;HEIGHT:0.2
;BEFORE_LAYER_CHANGE
G92 E0.0
;0.2


G1 E-1.4 F2100
G1 Z.2 F10800
;AFTER_LAYER_CHANGE
;0.2
G1 Z.4
G1 X47.605 Y95.44
G1 Z.2
G1 E1.4 F2100
M204 S1000
;TYPE:Skirt/Brim
;WIDTH:0.42
G1 F900
G1 X48.618 Y95.079 E.03373
G1 X50.139 Y94.836 E.04828
G1 X185.419 Y93.628 E4.24177
G1 X186.419 Y93.711 E.03148
M73 P1 R23
G1 X187.206 Y93.878 E.02523
G1 X187.969 Y94.134 E.02524
G1 X188.935 Y94.609 E.03373
G1 X190.007 Y95.387 E.04153
G1 X190.589 Y95.961 E.02563
G1 X191.245 Y96.813 E.03373
G1 X191.648 Y97.51 E.02524
G1 X220.798 Y166.526 E2.34906
G1 X221.177 Y167.964 E.04662
G1 X221.247 Y169.437 E.04625
G1 X221.113 Y170.467 E.03256
G1 X220.655 Y171.894 E.04699
G1 X220.051 Y172.984 E.03909
G1 X219.084 Y174.13 E.04699
G1 X217.902 Y175.042 E.04681
G1 X216.55 Y175.687 E.04699
G1 X215.576 Y175.953 E.03163
G1 X214.197 Y176.088 E.04345
G1 X94.053 Y175.441 E3.7671
G1 X92.717 Y175.308 E.04209
M73 P2 R23
G1 X91.279 Y174.864 E.04717
G1 X90.607 Y174.531 E.02353
G1 X89.775 Y173.982 E.03126
G1 X88.857 Y173.139 E.03909
G1 X88.252 Y172.379 E.03044
G1 X44.482 Y105.597 E2.50356
G1 X44.006 Y104.684 E.03228
G1 X43.729 Y103.929 E.02524
G1 X43.44 Y102.348 E.05039
G1 X43.478 Y101.011 E.04193
G1 X43.857 Y99.449 E.05039
G1 X44.572 Y98.024 E.04999
G1 X45.236 Y97.162 E.03412
G1 X46.221 Y96.258 E.04193
G1 X47.553 Y95.471 E.04851
; printing object SusanSpacerM4Bolt.STL id:0 copy 0
;WIPE_START
G1 F8640
G1 X48.618 Y95.079 E-.26199
G1 X50.139 Y94.836 E-.35558
G1 X53.224 Y94.809 E-.71243
;WIPE_END
G1 E-.07 F2100
G1 Z.4 F10800
G1 X213.585 Y165.201
G1 Z.2
G1 E1.4 F2100
;TYPE:Perimeter
;WIDTH:0.419999
G1 F900
G1 X214.211 Y165.15 E.01969
G1 X214.805 Y165.198 E.01871
G1 X215.256 Y165.294 E.01443
G1 X215.751 Y165.473 E.01651
G1 X216.359 Y165.797 E.02161
G1 X216.759 Y166.107 E.01587
G1 X217.162 Y166.515 E.01798
G1 X217.528 Y167.017 E.01948
G1 X217.787 Y167.529 E.01798
G1 X217.99 Y168.138 E.02012
G1 X218.095 Y168.957 E.0259
G1 X218.081 Y169.37 E.01297
G1 X218.001 Y169.873 E.01595
G1 X217.836 Y170.422 E.01798
G1 X217.588 Y170.956 E.01847
G1 X217.245 Y171.456 E.01899
G1 X216.823 Y171.912 E.01949
G1 X216.369 Y172.262 E.01798
G1 X215.794 Y172.585 E.02068
G1 X215.29 Y172.765 E.01678
G1 X214.623 Y172.901 E.02133
G1 X214.109 Y172.918 E.01615
G1 X213.538 Y172.859 E.01798
G1 X212.936 Y172.706 E.01948
G1 X212.411 Y172.476 E.01798
G1 X211.874 Y172.141 E.01985
G1 X211.453 Y171.768 E.01762
G1 X211.017 Y171.25 E.02124
G1 X210.754 Y170.804 E.01622
G1 X210.497 Y170.181 E.02113
G1 X210.379 Y169.673 E.01634
G1 X210.329 Y169.102 E.01798
G1 X210.365 Y168.482 E.01948
G1 X210.492 Y167.923 E.01798
G1 X210.726 Y167.316 E.02041
G1 X211.004 Y166.848 E.01706
G1 X211.425 Y166.325 E.02105
G1 X211.818 Y165.978 E.01642
G1 X212.397 Y165.6 E.02169
G1 X212.857 Y165.396 E.01578
G1 X213.527 Y165.216 E.02173
G1 X213.529 Y164.827 F10800
;TYPE:External perimeter
G1 F900
G1 X214.211 Y164.772 E.02143
G1 X214.836 Y164.822 E.01966
G1 X215.374 Y164.936 E.01725
G1 X216.136 Y165.234 E.02566
G1 X216.603 Y165.509 E.01699
G1 X217.015 Y165.83 E.01637
G1 X217.564 Y166.403 E.02489
G1 X217.858 Y166.834 E.01636
G1 X218.134 Y167.382 E.01924
G1 X218.304 Y167.864 E.01603
G1 X218.429 Y168.427 E.01807
G1 X218.472 Y168.967 E.01699
G1 X218.455 Y169.42 E.01422
G1 X218.368 Y169.962 E.01721
G1 X218.139 Y170.694 E.02405
G1 X217.907 Y171.156 E.01618
G1 X217.419 Y171.845 E.02647
G1 X217.064 Y172.202 E.01581
G1 X216.412 Y172.686 E.02546
G1 X215.931 Y172.936 E.01699
G1 X215.154 Y173.193 E.02566
G1 X214.619 Y173.279 E.01699
G1 X214.089 Y173.294 E.01665
G1 X213.309 Y173.204 E.02461
G1 X212.799 Y173.057 E.01664
G1 X212.084 Y172.731 E.02462
G1 X211.633 Y172.431 E.01699
G1 X211.183 Y172.031 E.01888
G1 X210.84 Y171.639 E.01634
G1 X210.53 Y171.183 E.01728
G1 X210.301 Y170.734 E.01581
G1 X210.117 Y170.225 E.01699
G1 X210.006 Y169.724 E.01609
G1 X209.947 Y168.923 E.02517
G1 X209.994 Y168.412 E.01608
G1 X210.186 Y167.632 E.02518
G1 X210.396 Y167.133 E.01699
G1 X210.83 Y166.439 E.02566
G1 X211.187 Y166.031 E.01699
G1 X211.593 Y165.676 E.01693
G1 X212.244 Y165.252 E.02433
G1 X212.739 Y165.038 E.01692
G1 X213.471 Y164.842 E.02377
G1 X213.782 Y165.137 F10800
;WIPE_START
G1 F8640
G1 X214.211 Y164.772 E-.17148
G1 X214.836 Y164.822 E-.14478
G1 X215.374 Y164.936 E-.12704
G1 X216.136 Y165.234 E-.18895
G1 X216.603 Y165.509 E-.12512
G1 X217.015 Y165.83 E-.12055
G1 X217.564 Y166.403 E-.18331
G1 X217.858 Y166.834 E-.1205
G1 X218.134 Y167.382 E-.14167
G1 X218.144 Y167.409 E-.00661
;WIPE_END
G1 E-.07 F2100
G1 Z.4 F10800
G1 X213.496 Y166.145
G1 Z.2
G1 E1.4 F2100
;TYPE:Perimeter
G1 F900
G1 X214.133 Y166.053 E.02017
G1 X214.719 Y166.104 E.01843
G1 X215.286 Y166.251 E.01838
G1 X215.773 Y166.492 E.01704
G1 X216.143 Y166.76 E.01434
G1 X216.551 Y167.19 E.01858
G1 X216.903 Y167.75 E.02072
G1 X217.087 Y168.231 E.01617
G1 X217.19 Y168.962 E.02315
G1 X217.15 Y169.562 E.01886
G1 X217.022 Y170.047 E.01571
G1 X216.825 Y170.475 E.01477
G1 X216.456 Y170.996 E.02002
M73 P3 R23
G1 X215.972 Y171.447 E.02072
G1 X215.546 Y171.709 E.0157
G1 X215.07 Y171.896 E.01604
G1 X214.541 Y172 E.01691
G1 X214.167 Y172.022 E.01174
G1 X213.587 Y171.952 E.0183
G1 X212.959 Y171.746 E.02072
G1 X212.504 Y171.489 E.0164
G1 X212.108 Y171.158 E.01617
G1 X211.778 Y170.765 E.01608
G1 X211.566 Y170.425 E.01257
G1 X211.358 Y169.908 E.01747
G1 X211.27 Y169.562 E.01118
G1 X211.23 Y168.962 E.01886
G1 X211.315 Y168.307 E.02072
G1 X211.493 Y167.802 E.01678
G1 X211.727 Y167.377 E.01522
G1 X212.063 Y166.966 E.01664
G1 X212.344 Y166.705 E.01202
G1 X212.828 Y166.395 E.01802
G1 X213.437 Y166.155 E.02054
G1 X213.556 Y166.512 F10800
;TYPE:External perimeter
G1 F900
G1 X214.177 Y166.428 E.01963
G1 X214.677 Y166.479 E.01577
G1 X215.172 Y166.61 E.01607
G1 X215.631 Y166.853 E.01628
G1 X216.096 Y167.238 E.01891
G1 X216.408 Y167.628 E.01568
G1 X216.659 Y168.152 E.01821
G1 X216.731 Y168.359 E.00686
G1 X216.813 Y168.977 E.01955
G1 X216.775 Y169.519 E.01705
G1 X216.617 Y170.032 E.01684
G1 X216.321 Y170.566 E.01915
G1 X216.01 Y170.927 E.01493
G1 X215.529 Y171.281 E.01872
G1 X215.011 Y171.52 E.01788
G1 X214.512 Y171.624 E.016
G1 X213.909 Y171.624 E.01891
G1 X213.415 Y171.523 E.01581
G1 X212.891 Y171.281 E.01807
G1 X212.411 Y170.927 E.01872
G1 X212.095 Y170.56 E.01518
G1 X211.803 Y170.032 E.01891
G1 X211.65 Y169.548 E.01594
G1 X211.607 Y168.977 E.01795
G1 X211.686 Y168.379 E.01891
G1 X211.855 Y167.924 E.0152
G1 X212.169 Y167.419 E.01867
G1 X212.538 Y167.032 E.01677
G1 X212.995 Y166.733 E.01711
G1 X213.501 Y166.534 E.01703
G1 X213.665 Y166.128 F10800
;WIPE_START
G1 F8640
G1 X214.177 Y166.428 E-.15804
G1 X214.677 Y166.479 E-.11611
G1 X215.172 Y166.61 E-.11837
G1 X215.631 Y166.853 E-.1199
G1 X216.096 Y167.238 E-.13926
G1 X216.408 Y167.628 E-.11548
G1 X216.659 Y168.152 E-.13407
G1 X216.731 Y168.359 E-.0505
G1 X216.813 Y168.977 E-.14398
G1 X216.775 Y169.519 E-.12555
G1 X216.636 Y169.969 E-.10874
;WIPE_END
G1 E-.07 F2100
G1 Z.4 F10800
G1 X217.534 Y167.265
G1 Z.2
G1 E1.4 F2100
;TYPE:Solid infill
;WIDTH:0.421992
G1 F900
G1 X216.51 Y166.262 E.04517
G1 X216.202 Y166.033 E.01209
G1 X215.872 Y165.839 E.01209
G1 X215.522 Y165.68 E.01209
G1 X215.358 Y165.626 E.00545
G1 X217.876 Y168.144 E.11225
G1 X217.083 Y167.887 F10800
G1 F900
G1 X217.784 Y168.588 E.03126
G1 X217.812 Y168.94 E.01114
G1 X217.807 Y169.147 E.00651
G1 X217.467 Y168.807 E.01517
G1 X217.478 Y169.103 E.00936
G1 X217.455 Y169.331 E.00723
G1 X217.76 Y169.636 E.01359
G1 X217.661 Y170.073 E.01412
G1 X217.381 Y169.794 E.01247
G1 X217.261 Y170.209 E.01363
G1 X217.517 Y170.465 E.01141
G1 X217.338 Y170.822 E.01259
G1 X217.091 Y170.575 E.01099
G1 X216.886 Y170.906 E.01227
G1 X217.127 Y171.148 E.01077
G1 X216.888 Y171.444 E.01202
G1 X216.645 Y171.202 E.01081
G1 X216.496 Y171.375 E.00721
G1 X216.379 Y171.472 E.00478
G1 X216.62 Y171.713 E.01074
G1 X216.324 Y171.952 E.01201
G1 X216.086 Y171.714 E.01062
G1 X215.747 Y171.912 E.01236
G1 X215.998 Y172.163 E.01119
G1 X215.64 Y172.341 E.0126
G1 X215.38 Y172.081 E.01161
G1 X215.167 Y172.163 E.00719
G1 X214.972 Y172.209 E.00631
G1 X215.247 Y172.484 E.01223
G1 X214.972 Y172.559 E.00898
G1 X214.811 Y172.584 E.00512
G1 X214.508 Y172.281 E.01353
G1 X214.21 Y172.307 E.00942
G1 X213.978 Y172.287 E.00736
G1 X214.325 Y172.634 E.01548
G1 X213.764 Y172.609 E.01768
G1 X213.062 Y171.907 E.03133
;WIPE_START
G1 F8640
G1 X213.764 Y172.609 E-.22948
G1 X214.325 Y172.634 E-.12954
G1 X213.978 Y172.287 E-.11341
G1 X214.21 Y172.307 E-.05391
G1 X214.508 Y172.281 E-.06902
G1 X214.811 Y172.584 E-.09915
G1 X214.972 Y172.559 E-.03751
G1 X215.247 Y172.484 E-.0658
G1 X214.972 Y172.209 E-.08957
G1 X215.167 Y172.163 E-.04624
G1 X215.38 Y172.081 E-.05265
G1 X215.64 Y172.341 E-.08504
G1 X215.998 Y172.163 E-.0923
G1 X215.747 Y171.912 E-.08196
G1 X216.063 Y171.728 E-.08444
;WIPE_END
G1 E-.07 F2100
G1 Z.4 F10800
G1 X215.356 Y166.159
G1 Z.2
G1 E1.4 F2100
G1 F900
G1 X214.667 Y165.471 E.03069
G1 X214.231 Y165.436 E.01378
G1 X214.105 Y165.445 E.00398
G1 X214.461 Y165.801 E.01585
G1 X214.137 Y165.769 E.01026
G1 X213.919 Y165.795 E.00692
G1 X213.609 Y165.485 E.01383
G1 X213.176 Y165.588 E.01402
G1 X213.447 Y165.859 E.01206
G1 X213.041 Y165.989 E.01344
G1 X212.784 Y165.732 E.01145
G1 X212.426 Y165.911 E.01259
G1 X212.673 Y166.157 E.011
G1 X212.541 Y166.223 E.00465
G1 X212.342 Y166.362 E.00766
G1 X212.1 Y166.121 E.01075
G1 X211.804 Y166.36 E.01202
G1 X212.045 Y166.601 E.01073
G1 X211.768 Y166.861 E.01195
G1 X211.536 Y166.628 E.01037
G1 X211.376 Y166.811 E.00766
G1 X211.296 Y166.925 E.00437
G1 X211.538 Y167.167 E.01079
G1 X211.443 Y167.294 E.005
G1 X211.336 Y167.501 E.00735
G1 X211.09 Y167.254 E.011
G1 X210.907 Y167.608 E.01254
G1 X211.164 Y167.864 E.01144
G1 X211.061 Y168.152 E.0096
G1 X211.037 Y168.274 E.00392
G1 X210.764 Y168.001 E.01216
G1 X210.662 Y168.435 E.01405
G1 X210.963 Y168.735 E.01341
G1 X210.941 Y169.152 E.01315
G1 X210.954 Y169.263 E.00351
G1 X210.61 Y168.919 E.01534
G1 X210.618 Y169.324 E.01278
G1 X210.64 Y169.485 E.00511
G1 X211.331 Y170.176 E.03083
G1 X210.55 Y169.931 F10800
G1 F900
G1 X213.075 Y172.456 E.11258
G1 X212.721 Y172.318 E.01199
G1 X212.381 Y172.141 E.01209
G1 X212.061 Y171.929 E.01209
G1 X211.773 Y171.69 E.0118
G1 X210.873 Y170.79 E.04012
; stop printing object SusanSpacerM4Bolt.STL id:0 copy 0
;LAYER_CHANGE
;Z:0.4
;HEIGHT:0.2
;BEFORE_LAYER_CHANGE
G92 E0.0
;0.4


;WIPE_START
G1 F8640
G1 X211.773 Y171.69 E-.29388
G1 X212.061 Y171.929 E-.08646
G1 X212.381 Y172.141 E-.08857
G1 X212.721 Y172.318 E-.08857
G1 X213.075 Y172.456 E-.08782
G1 X210.978 Y170.36 E-.6847
;WIPE_END
G1 E-.07 F2100
G1 Z.4 F10800
;AFTER_LAYER_CHANGE
;0.4
G1 Z.6
G1 X210.948 Y176.071
G1 Z.4
G1 E1.4 F2100
;TYPE:Skirt/Brim
;WIDTH:0.42
G1 F2834
G1 X94.053 Y175.441 E3.66521
G1 X92.717 Y175.308 E.04209
G1 X91.279 Y174.864 E.04717
G1 X90.607 Y174.531 E.02353
G1 X89.775 Y173.982 E.03126
G1 X88.857 Y173.139 E.03909
G1 X88.252 Y172.379 E.03044
G1 X44.482 Y105.597 E2.50356
G1 X44.006 Y104.684 E.03228
G1 X43.729 Y103.929 E.02524
G1 X43.44 Y102.348 E.05039
G1 X43.478 Y101.011 E.04193
G1 X43.857 Y99.449 E.05039
G1 X44.572 Y98.024 E.04999
G1 X45.236 Y97.162 E.03412
G1 X46.221 Y96.258 E.04193
G1 X47.605 Y95.44 E.05039
G1 X48.618 Y95.079 E.03373
G1 X50.139 Y94.836 E.04828
G1 X185.419 Y93.628 E4.24177
G1 X186.419 Y93.711 E.03148
M73 P3 R22
G1 X187.206 Y93.878 E.02523
G1 X187.969 Y94.134 E.02524
G1 X188.935 Y94.609 E.03373
G1 X190.007 Y95.387 E.04153
G1 X190.589 Y95.961 E.02563
G1 X191.245 Y96.813 E.03373
G1 X191.648 Y97.51 E.02524
G1 X220.798 Y166.526 E2.34906
G1 X221.177 Y167.964 E.04662
M73 P4 R22
G1 X221.247 Y169.437 E.04625
G1 X221.113 Y170.467 E.03256
G1 X220.655 Y171.894 E.04699
G1 X220.051 Y172.984 E.03909
G1 X219.084 Y174.13 E.04699
G1 X217.902 Y175.042 E.04681
G1 X216.55 Y175.687 E.04699
G1 X215.576 Y175.953 E.03163
G1 X214.197 Y176.088 E.04345
G1 X211.008 Y176.071 E.10001
; printing object SusanSpacerM4Bolt.STL id:0 copy 0
;WIPE_START
G1 F8640
G1 X205.248 Y176.04 E-1.33
;WIPE_END
G1 E-.07 F2100
G1 Z.6 F10800
G1 X211.772 Y172.258
G1 Z.4
G1 E1.4 F2100
M204 S800
;TYPE:Perimeter
;WIDTH:0.449999
G1 F1500
G1 X211.168 Y171.698 E.02786
G1 X210.857 Y171.288 E.01742
G1 X210.5 Y170.637 E.02512
G1 X210.332 Y170.172 E.01675
G1 X210.224 Y169.679 E.01709
G1 X210.17 Y168.961 E.02436
G1 X210.215 Y168.438 E.01777
G1 X210.375 Y167.774 E.02311
G1 X210.591 Y167.24 E.0195
G1 X210.916 Y166.728 E.02051
G1 X211.362 Y166.172 E.02413
G1 X211.813 Y165.789 E.02003
G1 X212.346 Y165.45 E.02141
G1 X212.823 Y165.244 E.01758
G1 X213.558 Y165.048 E.02576
G1 X214.227 Y164.996 E.02269
G1 X214.821 Y165.044 E.02017
G1 X215.304 Y165.147 E.01674
G1 X215.829 Y165.338 E.01889
G1 X216.471 Y165.687 E.02473
G1 X216.875 Y166.004 E.01739
G1 X217.389 Y166.54 E.02515
G1 X217.671 Y166.955 E.01698
G1 X218.022 Y167.696 E.02775
G1 X218.206 Y168.444 E.02607
G1 X218.25 Y168.961 E.01756
G1 X218.235 Y169.391 E.01456
G1 X218.148 Y169.924 E.01829
G1 X217.934 Y170.608 E.02425
G1 X217.694 Y171.078 E.01788
G1 X217.404 Y171.504 E.01741
G1 X217.052 Y171.904 E.01805
G1 X216.648 Y172.258 E.01816
G1 X216.233 Y172.534 E.01687
G1 X215.785 Y172.755 E.01693
G1 X215.096 Y172.979 E.02452
G1 X214.607 Y173.057 E.01675
G1 X214.085 Y173.072 E.01769
G1 X213.356 Y172.987 E.02485
G1 X212.865 Y172.844 E.01728
G1 X212.326 Y172.606 E.01997
G1 X211.823 Y172.29 E.02012
M204 S1000
G1 X211.512 Y172.571 F10800
M204 S800
;TYPE:External perimeter
G1 F1500
G1 X210.899 Y172.005 E.02824
G1 X210.569 Y171.594 E.01785
G1 X210.294 Y171.143 E.01787
G1 X209.997 Y170.452 E.02546
G1 X209.85 Y169.913 E.01891
G1 X209.775 Y169.391 E.01785
G1 X209.766 Y168.864 E.01785
G1 X209.815 Y168.363 E.01705
G1 X209.985 Y167.657 E.02458
G1 X210.187 Y167.141 E.01875
G1 X210.435 Y166.681 E.01769
G1 X210.976 Y165.992 E.02964
G1 X211.37 Y165.611 E.01856
G1 X211.797 Y165.301 E.01787
G1 X212.461 Y164.951 E.02539
G1 X212.988 Y164.76 E.01898
G1 X213.499 Y164.644 E.01775
G1 X214.227 Y164.588 E.02472
G1 X214.92 Y164.644 E.02353
