; generated by PrusaSlicer 2.5.0+win64 on 2023-03-09 at 15:38:39 UTC

; 

; external perimeters extrusion width = 0.45mm
; perimeters extrusion width = 0.45mm
; infill extrusion width = 0.45mm
; solid infill extrusion width = 0.45mm
; top infill extrusion width = 0.40mm
; support material extrusion width = 0.35mm
; first layer extrusion width = 0.42mm

; external perimeters extrusion width = 0.45mm
; perimeters extrusion width = 0.45mm
; infill extrusion width = 0.45mm
; solid infill extrusion width = 0.45mm
; top infill extrusion width = 0.40mm
; support material extrusion width = 0.35mm
; first layer extrusion width = 0.42mm

; external perimeters extrusion width = 0.45mm
; perimeters extrusion width = 0.45mm
; infill extrusion width = 0.45mm
; solid infill extrusion width = 0.45mm
; top infill extrusion width = 0.40mm
; support material extrusion width = 0.35mm
; first layer extrusion width = 0.42mm

; external perimeters extrusion width = 0.45mm
; perimeters extrusion width = 0.45mm
; infill extrusion width = 0.45mm
; solid infill extrusion width = 0.45mm
; top infill extrusion width = 0.40mm
; support material extrusion width = 0.35mm
; first layer extrusion width = 0.42mm

; external perimeters extrusion width = 0.45mm
; perimeters extrusion width = 0.45mm
; infill extrusion width = 0.45mm
; solid infill extrusion width = 0.45mm
; top infill extrusion width = 0.40mm
; support material extrusion width = 0.35mm
; first layer extrusion width = 0.42mm

; external perimeters extrusion width = 0.45mm
; perimeters extrusion width = 0.45mm
; infill extrusion width = 0.45mm
; solid infill extrusion width = 0.45mm
; top infill extrusion width = 0.40mm
; support material extrusion width = 0.35mm
; first layer extrusion width = 0.42mm

M73 P0 R18
M107
;TYPE:Custom
M862.3 P "MK2.5S" ; printer model check
M862.1 P0.4 ; nozzle diameter check
M115 U3.10.0 ; tell printer latest fw version
G90 ; use absolute coordinates
M83  ; extruder relative mode
M104 S240 ; set extruder temp
M140 S95 ; set bed temp
M190 S95 ; wait for bed temp
M109 S240 ; wait for extruder temp
G28 W ; home all without mesh bed level
G80 ; mesh bed leveling
G1 Y-3.0 F1000.0 ; go outside print area
G92 E0.0
G1 X60.0 E9.0 F1000.0 ; intro line
G1 X100.0 E12.5 F1000.0 ; intro line
G92 E0.0
G21 ; set units to millimeters
G90 ; use absolute coordinates
M83 ; use relative distances for extrusion
M900 K0.08 ; Filament gcode LA 1.5
M900 K45 ; Filament gcode LA 1.0
M107
;LAYER_CHANGE
;Z:0.25
;HEIGHT:0.25
;BEFORE_LAYER_CHANGE
G92 E0.0
;0.25


G1 E-1.4 F2100
G1 Z.2 F10800
G1 Z.25
;AFTER_LAYER_CHANGE
;0.25
G1 Z.45
G1 X104.244 Y92.818
G1 Z.25
M73 P0 R17
G1 E1.4 F2100
M204 S1000
;TYPE:Skirt/Brim
;WIDTH:0.42
G1 F600
G1 X105.405 Y91.711 E.0611
G1 X106.308 Y91.131 E.04087
G1 X107.036 Y90.79 E.0306
G1 X108.318 Y90.414 E.05088
G1 X109.317 Y90.292 E.0383
G1 X140.349 Y90.284 E1.18162
G1 X141.592 Y90.397 E.04756
G1 X142.794 Y90.724 E.04744
G1 X144.123 Y91.384 E.05648
M73 P1 R17
G1 X144.938 Y91.987 E.0386
G1 X145.807 Y92.88 E.04744
G1 X146.623 Y94.134 E.05698
G1 X147.012 Y95.056 E.0381
G1 X147.308 Y96.266 E.04744
G1 X147.388 Y97.201 E.03571
G1 X147.354 Y113.362 E.61539
G1 X147.051 Y114.827 E.05698
G1 X146.444 Y116.195 E.05698
G1 X145.562 Y117.404 E.05698
G1 X144.445 Y118.4 E.05698
G1 X143.371 Y119.032 E.04744
G1 X142.44 Y119.396 E.0381
G1 X141.222 Y119.66 E.04743
G1 X140.475 Y119.713 E.02853
G1 X109.516 Y119.712 E1.17882
G1 X107.926 Y119.499 E.0611
G1 X106.425 Y118.931 E.0611
G1 X105.092 Y118.038 E.0611
G1 X103.996 Y116.865 E.0611
G1 X103.306 Y115.721 E.05087
G1 X103 Y114.978 E.03061
G1 X102.781 Y114.205 E.0306
G1 X102.628 Y113.143 E.04086
G1 X102.621 Y96.989 E.61509
G1 X102.811 Y95.666 E.05088
G1 X103.364 Y94.16 E.0611
G1 X104.211 Y92.869 E.05882
; printing object SusanSpacerWithShaft.STL id:4 copy 0
;WIPE_START
G1 F8640
G1 X105.405 Y91.711 E-.38403
G1 X106.308 Y91.131 E-.24782
G1 X107.036 Y90.79 E-.18557
G1 X108.318 Y90.414 E-.30855
G1 X109.196 Y90.307 E-.20404
;WIPE_END
G1 E-.07 F2100
G1 Z.45 F10800
G1 X106.444 Y95.141
G1 Z.25
G1 E1.4 F2100
;TYPE:Perimeter
;WIDTH:0.419999
G1 F600
G1 X106.706 Y94.773 E.0172
G1 X107.192 Y94.309 E.02559
G1 X107.735 Y93.931 E.02517
G1 X108.332 Y93.664 E.02492
G1 X108.819 Y93.524 E.01928
G1 X109.416 Y93.435 E.023
G1 X110.074 Y93.473 E.02509
G1 X110.582 Y93.547 E.01953
G1 X111.168 Y93.735 E.02346
G1 X111.762 Y94.056 E.02568
G1 X112.287 Y94.454 E.02508
G1 X112.735 Y94.951 E.0255
M73 P2 R17
G1 X113.098 Y95.506 E.02526
G1 X113.352 Y96.124 E.02545
G1 X113.509 Y96.77 E.02531
G1 X113.541 Y97.435 E.02533
G1 X113.534 Y97.659 E.00852
G1 X113.414 Y98.315 E.02542
G1 X113.196 Y98.944 E.02534
G1 X112.863 Y99.522 E.02541
G1 X112.446 Y100.041 E.02535
G1 X111.938 Y100.473 E.02541
G1 X111.371 Y100.823 E.02535
G1 X110.747 Y101.059 E.0254
G1 X110.096 Y101.197 E.02535
G1 X109.429 Y101.21 E.0254
G1 X108.769 Y101.121 E.02536
G1 X108.136 Y100.909 E.0254
G1 X107.544 Y100.604 E.02536
G1 X107.02 Y100.191 E.02541
G1 X106.565 Y99.705 E.02535
G1 X106.21 Y99.14 E.02541
G1 X105.945 Y98.529 E.02535
G1 X105.8 Y97.878 E.02542
G1 X105.755 Y97.214 E.02534
G1 X105.838 Y96.551 E.02544
G1 X106.019 Y95.911 E.02532
G1 X106.32 Y95.314 E.02544
G1 X106.409 Y95.189 E.00584
G1 X106.131 Y94.918 F10800
;TYPE:External perimeter
G1 F600
G1 X106.601 Y94.355 E.02792
G1 X107.145 Y93.875 E.02762
G1 X107.766 Y93.508 E.02747
G1 X108.241 Y93.308 E.01963
G1 X108.736 Y93.167 E.01959
G1 X109.406 Y93.068 E.02579
G1 X110.384 Y93.124 E.03729
G1 X111.034 Y93.298 E.02565
G1 X111.51 Y93.495 E.0196
G1 X111.96 Y93.748 E.01963
G1 X112.535 Y94.183 E.02747
G1 X113.025 Y94.728 E.02789
G1 X113.423 Y95.335 E.02765
G1 X113.701 Y96.011 E.02784
G1 X113.872 Y96.718 E.0277
G1 X113.907 Y97.445 E.02772
G1 X113.865 Y97.932 E.0186
G1 X113.707 Y98.643 E.02773
G1 X113.416 Y99.313 E.0278
G1 X113.028 Y99.929 E.02774
G1 X112.529 Y100.462 E.0278
G1 X111.957 Y100.912 E.02774
G1 X111.308 Y101.247 E.02779
G1 X110.617 Y101.479 E.02775
G1 X109.894 Y101.575 E.02779
G1 X109.165 Y101.562 E.02774
G1 X108.451 Y101.41 E.02779
G1 X107.77 Y101.152 E.02774
G1 X107.148 Y100.769 E.0278
G1 X106.593 Y100.297 E.02774
G1 X106.136 Y99.727 E.0278
G1 X105.772 Y99.096 E.02774
G1 X105.534 Y98.406 E.02781
G1 X105.403 Y97.69 E.02773
G1 X105.41 Y96.959 E.02782
G1 X105.527 Y96.241 E.02772
G1 X105.779 Y95.556 E.02779
G1 X106.102 Y94.971 E.02547
G1 X106.53 Y94.951 F10800
;WIPE_START
G1 F8640
G1 X106.601 Y94.355 E-.18293
G1 X107.145 Y93.875 E-.16746
G1 X107.766 Y93.508 E-.16659
G1 X108.241 Y93.308 E-.11902
G1 X108.736 Y93.167 E-.11879
G1 X109.406 Y93.068 E-.1564
G1 X110.384 Y93.124 E-.22613
G1 X111.034 Y93.298 E-.15555
G1 X111.183 Y93.36 E-.0371
;WIPE_END
G1 E-.07 F2100
G1 Z.45 F10800
G1 X111.411 Y93.977
G1 Z.25
G1 E1.4 F2100
;TYPE:Solid infill
;WIDTH:0.434021
G1 F600
G1 X112.394 Y94.959 E.05493
G1 X112.641 Y95.28 E.01603
G1 X112.855 Y95.635 E.01635
G1 X113.027 Y96.011 E.01635
G1 X113.084 Y96.188 E.00735
G1 X110.787 Y93.891 E.12843
G1 X110.292 Y93.761 E.02024
G1 X110.109 Y93.751 E.00723
G1 X113.243 Y96.885 E.17522
G1 X113.272 Y97.222 E.01337
G1 X113.266 Y97.445 E.00884
G1 X109.538 Y93.718 E.2084
G1 X109.424 Y93.711 E.00452
G1 X109.038 Y93.755 E.01536
G1 X113.217 Y97.934 E.23366
G1 X113.116 Y98.371 E.01771
G1 X108.604 Y93.859 E.25225
G1 X108.21 Y94.004 E.01657
G1 X112.971 Y98.765 E.26619
G1 X112.792 Y99.123 E.01584
G1 X107.852 Y94.183 E.27619
G1 X107.524 Y94.393 E.01539
G1 X112.58 Y99.449 E.28266
G1 X112.339 Y99.746 E.01512
G1 X107.228 Y94.635 E.28574
G1 X106.96 Y94.905 E.01504
G1 X112.069 Y100.014 E.28565
M73 P3 R17
G1 X111.772 Y100.254 E.01512
G1 X106.721 Y95.203 E.2824
G1 X106.51 Y95.531 E.01539
G1 X111.445 Y100.465 E.27588
G1 X111.086 Y100.645 E.01585
G1 X106.331 Y95.89 E.26584
G1 X106.187 Y96.284 E.01658
G1 X110.692 Y100.788 E.25186
G1 X110.472 Y100.853 E.00907
G1 X110.256 Y100.89 E.00866
G1 X106.084 Y96.719 E.23323
G1 X106.032 Y97.205 E.01931
G1 X109.768 Y100.941 E.20888
G1 X109.208 Y100.918 E.02216
G1 X106.062 Y97.773 E.17588
G1 X106.101 Y98.044 E.01085
G1 X106.213 Y98.461 E.01707
G1 X108.511 Y100.759 E.12847
G1 X108.053 Y100.576 E.01949
G1 X107.693 Y100.372 E.01635
G1 X107.358 Y100.129 E.01635
G1 X106.311 Y99.098 E.0581
; stop printing object SusanSpacerWithShaft.STL id:4 copy 0
; printing object SusanSpacerWithShaft.STL id:3 copy 0
;WIPE_START
G1 F8640
G1 X107.358 Y100.129 E-.33935
G1 X107.693 Y100.372 E-.09549
G1 X108.053 Y100.576 E-.0955
G1 X108.511 Y100.759 E-.11384
G1 X106.41 Y98.659 E-.68582
;WIPE_END
G1 E-.07 F2100
G1 Z.45 F10800
G1 X121.134 Y97.664
G1 Z.25
G1 E1.4 F2100
;TYPE:Perimeter
;WIDTH:0.419999
G1 F600
G1 X121.104 Y97.214 E.0172
G1 X121.187 Y96.551 E.02544
G1 X121.368 Y95.911 E.02532
G1 X121.669 Y95.314 E.02544
G1 X122.054 Y94.773 E.02532
G1 X122.541 Y94.309 E.02559
G1 X123.083 Y93.931 E.02517
G1 X123.681 Y93.664 E.02492
G1 X124.167 Y93.524 E.01928
G1 X124.765 Y93.435 E.023
G1 X125.423 Y93.473 E.02509
G1 X125.93 Y93.547 E.01953
G1 X126.517 Y93.735 E.02346
G1 X127.11 Y94.056 E.02568
G1 X127.635 Y94.454 E.02508
G1 X128.083 Y94.951 E.0255
G1 X128.447 Y95.506 E.02526
G1 X128.701 Y96.124 E.02545
G1 X128.858 Y96.77 E.02531
G1 X128.889 Y97.435 E.02533
G1 X128.883 Y97.659 E.00852
G1 X128.763 Y98.315 E.02542
G1 X128.545 Y98.944 E.02534
G1 X128.211 Y99.522 E.02541
G1 X127.795 Y100.041 E.02535
G1 X127.286 Y100.473 E.02541
G1 X126.72 Y100.823 E.02535
G1 X126.096 Y101.059 E.0254
G1 X125.444 Y101.197 E.02535
G1 X124.777 Y101.21 E.0254
G1 X124.117 Y101.121 E.02536
G1 X123.485 Y100.909 E.0254
G1 X122.893 Y100.604 E.02536
G1 X122.368 Y100.191 E.02541
G1 X121.914 Y99.705 E.02535
G1 X121.558 Y99.14 E.02541
G1 X121.293 Y98.529 E.02535
G1 X121.148 Y97.878 E.02542
G1 X121.138 Y97.724 E.00585
G1 X120.751 Y97.69 F10800
;TYPE:External perimeter
G1 F600
G1 X120.758 Y96.959 E.02782
G1 X120.876 Y96.241 E.02772
G1 X121.128 Y95.556 E.02779
G1 X121.48 Y94.918 E.02775
G1 X121.95 Y94.355 E.02792
G1 X122.493 Y93.875 E.02762
G1 X123.114 Y93.508 E.02747
G1 X123.59 Y93.308 E.01963
G1 X124.084 Y93.167 E.01959
G1 X124.754 Y93.068 E.02579
G1 X125.732 Y93.124 E.03729
G1 X126.383 Y93.298 E.02565
G1 X126.859 Y93.495 E.0196
G1 X127.308 Y93.748 E.01963
G1 X127.883 Y94.183 E.02747
G1 X128.373 Y94.728 E.02789
G1 X128.771 Y95.335 E.02765
G1 X129.049 Y96.011 E.02784
G1 X129.221 Y96.718 E.0277
G1 X129.256 Y97.445 E.02772
G1 X129.214 Y97.932 E.0186
G1 X129.056 Y98.643 E.02773
G1 X128.765 Y99.313 E.0278
G1 X128.377 Y99.929 E.02774
G1 X127.878 Y100.462 E.0278
G1 X127.305 Y100.912 E.02774
G1 X126.657 Y101.247 E.02779
G1 X125.966 Y101.479 E.02775
M73 P4 R17
G1 X125.242 Y101.575 E.02779
G1 X124.514 Y101.562 E.02774
G1 X123.8 Y101.41 E.02779
G1 X123.118 Y101.152 E.02774
G1 X122.497 Y100.769 E.0278
G1 X121.942 Y100.297 E.02774
G1 X121.485 Y99.727 E.0278
G1 X121.121 Y99.096 E.02774
G1 X120.882 Y98.406 E.02781
G1 X120.762 Y97.749 E.02545
G1 X121.081 Y97.463 F10800
;WIPE_START
G1 F8640
G1 X120.758 Y96.959 E-.18232
G1 X120.876 Y96.241 E-.16809
G1 X121.128 Y95.556 E-.16852
G1 X121.48 Y94.918 E-.16827
G1 X121.95 Y94.355 E-.16931
G1 X122.493 Y93.875 E-.16746
G1 X123.114 Y93.508 E-.16659
G1 X123.59 Y93.308 E-.11902
G1 X123.675 Y93.284 E-.02041
;WIPE_END
G1 E-.07 F2100
G1 Z.45 F10800
G1 X126.76 Y93.977
G1 Z.25
G1 E1.4 F2100
;TYPE:Solid infill
;WIDTH:0.434021
G1 F600
G1 X127.742 Y94.959 E.05493
G1 X127.99 Y95.28 E.01603
G1 X128.203 Y95.635 E.01635
G1 X128.375 Y96.011 E.01635
G1 X128.433 Y96.188 E.00735
G1 X126.136 Y93.891 E.12843
G1 X125.64 Y93.761 E.02024
G1 X125.458 Y93.751 E.00723
G1 X128.592 Y96.885 E.17522
G1 X128.621 Y97.222 E.01337
G1 X128.614 Y97.445 E.00884
G1 X124.887 Y93.718 E.2084
G1 X124.773 Y93.711 E.00452
G1 X124.387 Y93.755 E.01536
G1 X128.566 Y97.934 E.23366
G1 X128.464 Y98.371 E.01771
G1 X123.952 Y93.859 E.25225
G1 X123.559 Y94.004 E.01657
G1 X128.32 Y98.765 E.26619
G1 X128.14 Y99.123 E.01584
G1 X123.2 Y94.183 E.27619
G1 X122.873 Y94.393 E.01539
G1 X127.928 Y99.449 E.28266
G1 X127.687 Y99.746 E.01512
G1 X122.577 Y94.635 E.28574
G1 X122.309 Y94.905 E.01504
G1 X127.418 Y100.014 E.28565
G1 X127.12 Y100.254 E.01512
G1 X122.069 Y95.203 E.2824
G1 X121.859 Y95.531 E.01539
G1 X126.793 Y100.465 E.27588
G1 X126.435 Y100.645 E.01585
G1 X121.68 Y95.89 E.26584
G1 X121.536 Y96.284 E.01658
G1 X126.04 Y100.788 E.25186
G1 X125.82 Y100.853 E.00907
M73 P5 R17
G1 X125.604 Y100.89 E.00866
G1 X121.433 Y96.719 E.23323
G1 X121.381 Y97.205 E.01931
G1 X125.117 Y100.941 E.20888
G1 X124.557 Y100.918 E.02216
G1 X121.411 Y97.773 E.17588
G1 X121.45 Y98.044 E.01085
G1 X121.562 Y98.461 E.01707
G1 X123.859 Y100.759 E.12847
G1 X123.402 Y100.576 E.01949
G1 X123.042 Y100.372 E.01635
G1 X122.707 Y100.129 E.01635
G1 X121.66 Y99.098 E.0581
; stop printing object SusanSpacerWithShaft.STL id:3 copy 0
; printing object SusanSpacerM4Bolt.STL id:2 copy 0
;WIPE_START
G1 F8640
G1 X122.707 Y100.129 E-.33935
G1 X123.042 Y100.372 E-.09549
G1 X123.402 Y100.576 E-.0955
G1 X123.859 Y100.759 E-.11384
G1 X121.759 Y98.659 E-.68582
;WIPE_END
G1 E-.07 F2100
G1 Z.45 F10800
G1 X136.466 Y97.233
G1 Z.25
G1 E1.4 F2100
;TYPE:Perimeter
;WIDTH:0.419999
G1 F600
G1 X136.493 Y96.769 E.01771
G1 X136.62 Y96.209 E.02188
G1 X136.855 Y95.599 E.02488
G1 X137.134 Y95.131 E.02075
G1 X137.574 Y94.589 E.02658
G1 X137.95 Y94.259 E.01906
G1 X138.53 Y93.879 E.0264
G1 X138.992 Y93.674 E.01924
G1 X139.722 Y93.479 E.02876
G1 X140.35 Y93.428 E.024
G1 X140.945 Y93.476 E.02273
G1 X141.397 Y93.573 E.01762
G1 X141.893 Y93.752 E.02007
G1 X142.503 Y94.077 E.02632
G1 X142.904 Y94.388 E.01932
G1 X143.308 Y94.797 E.02188
G1 X143.676 Y95.3 E.02375
G1 X143.935 Y95.813 E.02188
G1 X144.139 Y96.424 E.02454
G1 X144.244 Y97.246 E.03154
G1 X144.23 Y97.66 E.01579
G1 X144.15 Y98.163 E.01939
G1 X143.985 Y98.714 E.02188
G1 X143.736 Y99.249 E.02247
G1 X143.393 Y99.75 E.02316
G1 X142.969 Y100.208 E.02375
G1 X142.514 Y100.559 E.02188
G1 X141.936 Y100.883 E.02522
G1 X141.464 Y101.055 E.01913
G1 X140.763 Y101.2 E.02727
G1 X140.247 Y101.217 E.01966
G1 X139.675 Y101.159 E.02188
G1 X139.071 Y101.004 E.02374
G1 X138.545 Y100.774 E.02188
G1 X138.005 Y100.438 E.0242
G1 X137.584 Y100.065 E.02143
G1 X137.146 Y99.544 E.0259
G1 X136.883 Y99.098 E.01973
G1 X136.66 Y98.569 E.02188
G1 X136.512 Y97.997 E.02246
G1 X136.457 Y97.392 E.02316
G1 X136.463 Y97.293 E.00375
G1 X136.086 Y97.211 F10800
;TYPE:External perimeter
G1 F600
G1 X136.133 Y96.701 E.01952
G1 X136.324 Y95.921 E.0306
G1 X136.535 Y95.422 E.02063
G1 X136.969 Y94.728 E.03116
G1 X137.326 Y94.32 E.02063
G1 X137.731 Y93.964 E.02054
G1 X138.382 Y93.541 E.02957
G1 X138.877 Y93.327 E.02053
G1 X139.668 Y93.115 E.03117
G1 X140.35 Y93.061 E.02605
G1 X140.974 Y93.111 E.02385
G1 X141.513 Y93.225 E.02095
G1 X142.275 Y93.523 E.03116
G1 X142.741 Y93.798 E.02063
G1 X143.153 Y94.118 E.01986
G1 X143.703 Y94.692 E.03025
G1 X143.997 Y95.122 E.01986
G1 X144.272 Y95.671 E.02336
G1 X144.443 Y96.153 E.01949
G1 X144.567 Y96.716 E.02194
G1 X144.61 Y97.256 E.02063
G1 X144.594 Y97.709 E.01727
G1 X144.506 Y98.25 E.02088
G1 X144.277 Y98.983 E.02923
G1 X144.047 Y99.443 E.01959
G1 X143.558 Y100.133 E.0322
G1 X143.203 Y100.49 E.01918
G1 X142.716 Y100.864 E.02336
G1 X142.27 Y101.125 E.01968
G1 X141.782 Y101.337 E.02025
G1 X141.293 Y101.481 E.01944
G1 X140.758 Y101.568 E.02063
G1 X140.227 Y101.583 E.0202
G1 X139.447 Y101.493 E.02991
G1 X138.938 Y101.346 E.02019
G1 X138.223 Y101.019 E.02992
G1 X137.772 Y100.72 E.02063
G1 X137.17 Y100.165 E.03116
G1 X136.836 Y99.739 E.02063
G1 X136.554 Y99.258 E.02122
G1 X136.266 Y98.556 E.02889
G1 X136.149 Y98.046 E.01993
G1 X136.09 Y97.271 E.02958
G1 X136.435 Y97.017 F10800
;WIPE_START
G1 F8640
G1 X136.133 Y96.701 E-.13203
G1 X136.324 Y95.921 E-.18554
G1 X136.535 Y95.422 E-.12509
G1 X136.969 Y94.728 E-.18896
G1 X137.326 Y94.32 E-.12511
G1 X137.731 Y93.964 E-.12455
G1 X138.382 Y93.541 E-.17931
G1 X138.877 Y93.327 E-.12447
G1 X139.483 Y93.165 E-.14493
;WIPE_END
G1 E-.07 F2100
G1 Z.45 F10800
G1 X137.452 Y97.902
G1 Z.25
G1 E1.4 F2100
;TYPE:Perimeter
G1 F600
G1 X137.385 Y97.542 E.01397
G1 X137.388 Y97.026 E.01965
G1 X137.482 Y96.523 E.01946
G1 X137.665 Y96.043 E.01955
G1 X138.016 Y95.486 E.0251
G1 X138.423 Y95.056 E.02252
