; generated by PrusaSlicer 2.5.0+win64 on 2023-03-09 at 12:06:44 UTC

; 

; external perimeters extrusion width = 0.45mm
; perimeters extrusion width = 0.45mm
; infill extrusion width = 0.45mm
; solid infill extrusion width = 0.45mm
; top infill extrusion width = 0.40mm
; first layer extrusion width = 0.42mm

; external perimeters extrusion width = 0.45mm
; perimeters extrusion width = 0.45mm
; infill extrusion width = 0.45mm
; solid infill extrusion width = 0.45mm
; top infill extrusion width = 0.40mm
; first layer extrusion width = 0.42mm

; external perimeters extrusion width = 0.45mm
; perimeters extrusion width = 0.45mm
; infill extrusion width = 0.45mm
; solid infill extrusion width = 0.45mm
; top infill extrusion width = 0.40mm
; first layer extrusion width = 0.42mm

; external perimeters extrusion width = 0.45mm
; perimeters extrusion width = 0.45mm
; infill extrusion width = 0.45mm
; solid infill extrusion width = 0.45mm
; top infill extrusion width = 0.40mm
; first layer extrusion width = 0.42mm

; external perimeters extrusion width = 0.45mm
; perimeters extrusion width = 0.45mm
; infill extrusion width = 0.45mm
; solid infill extrusion width = 0.45mm
; top infill extrusion width = 0.40mm
; first layer extrusion width = 0.42mm

; external perimeters extrusion width = 0.45mm
; perimeters extrusion width = 0.45mm
; infill extrusion width = 0.45mm
; solid infill extrusion width = 0.45mm
; top infill extrusion width = 0.40mm
; first layer extrusion width = 0.42mm

M73 P0 R25
M107
;TYPE:Custom
M862.3 P "MK2.5S" ; printer model check
M862.1 P0.4 ; nozzle diameter check
M115 U3.10.0 ; tell printer latest fw version
G90 ; use absolute coordinates
M83  ; extruder relative mode
M104 S240 ; set extruder temp
M140 S95 ; set bed temp
M190 S95 ; wait for bed temp
M109 S240 ; wait for extruder temp
G28 W ; home all without mesh bed level
G80 ; mesh bed leveling
G1 Y-3.0 F1000.0 ; go outside print area
G92 E0.0
G1 X60.0 E9.0 F1000.0 ; intro line
G1 X100.0 E12.5 F1000.0 ; intro line
G92 E0.0
G21 ; set units to millimeters
G90 ; use absolute coordinates
M83 ; use relative distances for extrusion
M900 K0.08 ; Filament gcode LA 1.5
M900 K45 ; Filament gcode LA 1.0
M107
;LAYER_CHANGE
;Z:0.25
;HEIGHT:0.25
;BEFORE_LAYER_CHANGE
G92 E0.0
;0.25


G1 E-1.4 F2100
G1 Z.2 F10800
G1 Z.25
;AFTER_LAYER_CHANGE
;0.25
G1 Z.45
G1 X47.034 Y46.365
G1 Z.25
G1 E1.4 F2100
M204 S1000
;TYPE:Skirt/Brim
;WIDTH:0.42
G1 F600
G1 X48.35 Y45.447 E.0611
G1 X49.84 Y44.85 E.0611
G1 X50.626 Y44.684 E.0306
G1 X51.625 Y44.601 E.03818
G1 X125.298 Y46.358 E2.80608
G1 X199.658 Y49.17 E2.83348
G1 X201.155 Y49.412 E.05773
M73 P1 R25
G1 X202.645 Y50.008 E.0611
G1 X203.961 Y50.926 E.06111
G1 X205.035 Y52.119 E.0611
G1 X205.589 Y53.038 E.04086
G1 X205.909 Y53.775 E.0306
G1 X206.248 Y55.067 E.05087
G1 X206.341 Y56.063 E.03808
G1 X206.587 Y154.61 E3.75246
G1 X206.441 Y156.1 E.05698
M73 P2 R25
G1 X206.102 Y157.235 E.04512
G1 X205.766 Y157.972 E.03084
G1 X204.928 Y159.212 E.05698
G1 X204.23 Y159.929 E.0381
G1 X203.645 Y160.396 E.02853
G1 X202.571 Y161.029 E.04743
G1 X201.639 Y161.393 E.0381
G1 X200.422 Y161.657 E.04743
G1 X199.522 Y161.713 E.03433
G1 X50.001 Y160.033 E5.69377
G1 X48.416 Y159.845 E.06075
M73 P3 R24
G1 X47.247 Y159.458 E.04691
G1 X46.563 Y159.12 E.02906
G1 X45.729 Y158.567 E.0381
G1 X45.161 Y158.078 E.02853
G1 X44.196 Y156.935 E.05698
G1 X43.592 Y155.845 E.04744
G1 X43.253 Y154.903 E.0381
G1 X43.022 Y153.679 E.04744
G1 X42.988 Y152.829 E.0324
G1 X44.654 Y51.469 E3.86008
G1 X44.746 Y50.506 E.03683
G1 X45.086 Y49.214 E.05088
G1 X45.532 Y48.237 E.04086
G1 X45.96 Y47.557 E.0306
G1 X46.993 Y46.409 E.05882
; printing object SusanSpacerM4Bolt.STL id:0 copy 0
;WIPE_START
G1 F8640
G1 X48.35 Y45.447 E-.38404
G1 X49.84 Y44.85 E-.37053
G1 X50.626 Y44.684 E-.18557
G1 X51.625 Y44.601 E-.23155
G1 X52.31 Y44.617 E-.1583
;WIPE_END
G1 E-.07 F2100
G1 Z.45 F10800
G1 X198.921 Y150.825
G1 Z.25
M73 P4 R24
G1 E1.4 F2100
;TYPE:Perimeter
;WIDTH:0.419999
G1 F600
G1 X199.55 Y150.775 E.02401
G1 X200.145 Y150.823 E.02272
G1 X200.597 Y150.919 E.01762
G1 X201.093 Y151.099 E.02007
G1 X201.602 Y151.365 E.02188
G1 X202.079 Y151.711 E.02244
G1 X202.508 Y152.143 E.02318
G1 X202.876 Y152.647 E.02374
G1 X203.135 Y153.16 E.02189
G1 X203.339 Y153.771 E.02454
G1 X203.444 Y154.593 E.03154
G1 X203.43 Y155.007 E.01579
G1 X203.35 Y155.51 E.01939
G1 X203.148 Y156.164 E.02606
G1 X202.918 Y156.624 E.01958
G1 X202.592 Y157.097 E.02188
G1 X202.169 Y157.555 E.02375
G1 X201.714 Y157.906 E.02188
G1 X201.136 Y158.23 E.02522
G1 X200.664 Y158.402 E.01911
G1 X199.963 Y158.547 E.02729
G1 X199.447 Y158.564 E.01966
G1 X198.875 Y158.506 E.02188
G1 X198.271 Y158.351 E.02374
G1 X197.775 Y158.137 E.02057
G1 X197.205 Y157.785 E.02551
G1 X196.784 Y157.412 E.02143
G1 X196.359 Y156.912 E.02497
G1 X196.098 Y156.476 E.01937
G1 X195.825 Y155.82 E.02703
G1 X195.707 Y155.311 E.01991
G1 X195.657 Y154.738 E.02188
G1 X195.693 Y154.116 E.02375
G1 X195.82 Y153.555 E.02188
G1 X196.055 Y152.946 E.02488
G1 X196.334 Y152.477 E.02075
G1 X196.774 Y151.936 E.02659
G1 X197.15 Y151.605 E.01904
G1 X197.73 Y151.226 E.0264
G1 X198.192 Y151.021 E.01924
G1 X198.863 Y150.841 E.02648
G1 X198.868 Y150.462 F10800
;TYPE:External perimeter
G1 F600
G1 X199.55 Y150.408 E.02606
G1 X200.174 Y150.458 E.02384
G1 X200.712 Y150.572 E.02095
G1 X201.244 Y150.765 E.02156
G1 X201.906 Y151.118 E.02855
G1 X202.328 Y151.442 E.02024
G1 X202.903 Y152.038 E.03155
G1 X203.196 Y152.469 E.01983
G1 X203.472 Y153.017 E.02338
G1 X203.643 Y153.5 E.01949
G1 X203.767 Y154.063 E.02194
G1 X203.81 Y154.602 E.02063
G1 X203.753 Y155.359 E.0289
G1 X203.642 Y155.86 E.01953
G1 X203.458 Y156.37 E.02063
G1 X203.229 Y156.818 E.01919
G1 X202.758 Y157.48 E.03092
G1 X202.403 Y157.837 E.01918
G1 X201.916 Y158.211 E.02336
G1 X201.47 Y158.472 E.01968
G1 X200.973 Y158.687 E.02063
G1 X200.493 Y158.828 E.01905
G1 X199.958 Y158.914 E.02063
G1 X199.427 Y158.93 E.0202
G1 X198.65 Y158.84 E.02979
G1 X198.138 Y158.692 E.02031
G1 X197.423 Y158.366 E.02992
G1 X196.971 Y158.067 E.02063
G1 X196.521 Y157.667 E.02291
G1 X196.178 Y157.274 E.01988
G1 X195.873 Y156.826 E.02063
G1 X195.639 Y156.37 E.01953
G1 X195.455 Y155.86 E.02063
G1 X195.344 Y155.359 E.01953
G1 X195.286 Y154.558 E.03058
G1 X195.333 Y154.048 E.01952
G1 X195.469 Y153.45 E.02336
G1 X195.646 Y152.967 E.01958
G1 X195.904 Y152.462 E.02158
G1 X196.192 Y152.041 E.01944
G1 X196.526 Y151.667 E.01909
G1 X196.931 Y151.311 E.02053
G1 X197.582 Y150.888 E.02957
G1 X198.077 Y150.673 E.02053
G1 X198.81 Y150.478 E.02889
G1 X199.12 Y150.772 F10800
;WIPE_START
G1 F8640
G1 X199.55 Y150.408 E-.17169
G1 X200.174 Y150.458 E-.14454
G1 X200.712 Y150.572 E-.12705
G1 X201.244 Y150.765 E-.13072
G1 X201.906 Y151.118 E-.17314
G1 X202.328 Y151.442 E-.12277
G1 X202.903 Y152.038 E-.19132
G1 X203.196 Y152.469 E-.12027
G1 X203.472 Y153.017 E-.14181
G1 X203.482 Y153.045 E-.00671
;WIPE_END
G1 E-.07 F2100
G1 Z.45 F10800
G1 X197.44 Y152.579
G1 Z.25
G1 E1.4 F2100
;TYPE:Perimeter
G1 F600
G1 X197.623 Y152.403 E.00966
G1 X198.039 Y152.109 E.01939
G1 X198.475 Y151.896 E.01848
G1 X199.043 Y151.749 E.02235
G1 X199.544 Y151.696 E.01916
G1 X200.056 Y151.75 E.01961
G1 X200.622 Y151.896 E.02226
G1 X201.105 Y152.136 E.02054
G1 X201.45 Y152.385 E.0162
G1 X201.881 Y152.832 E.02365
G1 X202.232 Y153.39 E.02512
G1 X202.415 Y153.87 E.01954
G1 X202.509 Y154.372 E.01946
G1 X202.513 Y154.893 E.01982
G1 X202.461 Y155.28 E.01486
G1 X202.289 Y155.818 E.0215
G1 X201.971 Y156.395 E.0251
G1 X201.642 Y156.786 E.01948
G1 X201.249 Y157.115 E.01952
G1 X200.795 Y157.371 E.01984
G1 X200.164 Y157.577 E.02527
G1 X199.591 Y157.647 E.022
G1 X199.09 Y157.613 E.01908
G1 X198.611 Y157.496 E.01881
G1 X198.039 Y157.228 E.02403
G1 X197.515 Y156.845 E.02471
G1 X197.157 Y156.442 E.02054
G1 X196.93 Y156.082 E.0162
G1 X196.707 Y155.54 E.0223
G1 X196.619 Y155.197 E.0135
G1 X196.579 Y154.598 E.02285
G1 X196.664 Y153.944 E.0251
G1 X196.827 Y153.465 E.01927
G1 X197.074 Y153.019 E.01941
G1 X197.398 Y152.622 E.01953
G1 X197.877 Y152.667 F10800
;TYPE:External perimeter
G1 F600
G1 X198.341 Y152.367 E.02106
G1 X198.895 Y152.148 E.02265
G1 X199.515 Y152.063 E.02383
G1 X200.015 Y152.114 E.01915
G1 X200.511 Y152.246 E.01953
G1 X200.97 Y152.488 E.01976
G1 X201.439 Y152.879 E.02327
G1 X201.747 Y153.265 E.01878
G1 X201.997 Y153.788 E.02207
G1 X202.14 Y154.359 E.02241
G1 X202.149 Y154.851 E.01875
G1 X202.036 Y155.443 E.02297
G1 X201.846 Y155.912 E.01925
G1 X201.513 Y156.381 E.0219
G1 X201.071 Y156.791 E.02297
G1 X200.658 Y157.032 E.01818
G1 X200.077 Y157.221 E.02327
G1 X199.562 Y157.282 E.01974
G1 X199.014 Y157.221 E.021
G1 X198.439 Y157.032 E.02307
G1 X198.026 Y156.791 E.01818
G1 X197.584 Y156.381 E.02297
G1 X197.276 Y155.952 E.02011
G1 X197.06 Y155.443 E.02102
G1 X196.948 Y154.851 E.02297
G1 X196.957 Y154.359 E.01875
G1 X197.1 Y153.788 E.02241
G1 X197.35 Y153.265 E.02207
G1 X197.663 Y152.873 E.0191
G1 X197.834 Y152.709 E.00902
G1 X197.82 Y152.271 F10800
;WIPE_START
G1 F8640
G1 X198.341 Y152.367 E-.14134
G1 X198.895 Y152.148 E-.13738
G1 X199.515 Y152.063 E-.14452
G1 X200.015 Y152.114 E-.11614
G1 X200.511 Y152.246 E-.11845
G1 X200.97 Y152.488 E-.1198
G1 X201.439 Y152.879 E-.14109
G1 X201.747 Y153.265 E-.11388
G1 X201.997 Y153.788 E-.13383
G1 X202.14 Y154.359 E-.13589
G1 X202.142 Y154.478 E-.02768
;WIPE_END
G1 E-.07 F2100
G1 Z.45 F10800
G1 X201.308 Y151.319
G1 Z.25
G1 E1.4 F2100
;TYPE:Solid infill
;WIDTH:0.433985
G1 F600
G1 X202.211 Y152.222 E.05047
G1 X202.398 Y152.435 E.0112
G1 X202.617 Y152.748 E.01511
G1 X202.823 Y153.128 E.01711
G1 X202.983 Y153.531 E.01712
G1 X200.448 Y150.997 E.14167
G1 X200.739 Y151.825 F10800
G1 F600
G1 X200.001 Y151.087 E.04129
G1 X199.572 Y151.052 E.01701
G1 X199.438 Y151.062 E.0053
G1 X199.834 Y151.458 E.02213
G1 X199.476 Y151.423 E.0142
G1 X199.284 Y151.446 E.00766
G1 X198.94 Y151.102 E.01921
G1 X198.506 Y151.206 E.01764
G1 X198.807 Y151.507 E.01679
G1 X198.399 Y151.637 E.01691
G1 X198.113 Y151.351 E.01601
G1 X197.755 Y151.53 E.01585
G1 X198.031 Y151.807 E.01545
G1 X197.869 Y151.889 E.00721
G1 X197.696 Y152.009 E.00831
G1 X197.428 Y151.741 E.015
G1 X197.236 Y151.883 E.00941
G1 X197.13 Y151.981 E.00573
G1 X197.397 Y152.249 E.01493
G1 X197.12 Y152.509 E.01504
G1 X196.861 Y152.25 E.01449
G1 X196.62 Y152.547 E.01512
G1 X196.889 Y152.816 E.01504
G1 X196.798 Y152.938 E.00602
G1 X196.686 Y153.152 E.00951
G1 X196.409 Y152.874 E.01551
G1 X196.23 Y153.233 E.01585
G1 X196.515 Y153.518 E.01598
G1 X196.418 Y153.792 E.0115
G1 X196.39 Y153.931 E.00557
G1 X196.086 Y153.626 E.01701
G1 X196.03 Y153.812 E.00767
G1 X195.983 Y154.061 E.01002
G1 X196.318 Y154.397 E.01877
G1 X196.298 Y154.787 E.01544
G1 X196.315 Y154.931 E.00573
G1 X195.93 Y154.546 E.02152
G1 X195.927 Y154.575 E.00116
G1 X195.958 Y155.112 E.02126
G1 X196.709 Y155.864 E.04201
;WIPE_START
G1 F8640
G1 X195.958 Y155.112 E-.24535
G1 X195.927 Y154.575 E-.12419
G1 X195.93 Y154.546 E-.00675
G1 X196.315 Y154.931 E-.12571
G1 X196.298 Y154.787 E-.03348
G1 X196.318 Y154.397 E-.09021
G1 X195.983 Y154.061 E-.10961
G1 X196.03 Y153.812 E-.05854
G1 X196.086 Y153.626 E-.0448
G1 X196.39 Y153.931 E-.09935
G1 X196.418 Y153.792 E-.03255
G1 X196.515 Y153.518 E-.06718
G1 X196.23 Y153.233 E-.09334
G1 X196.409 Y152.874 E-.09256
G1 X196.686 Y153.152 E-.09059
G1 X196.718 Y153.091 E-.01582
;WIPE_END
G1 E-.07 F2100
G1 Z.45 F10800
G1 X202.392 Y153.478
G1 Z.25
G1 E1.4 F2100
G1 F600
G1 X203.142 Y154.228 E.04194
G1 X203.17 Y154.575 E.01377
G1 X203.164 Y154.788 E.00841
G1 X202.785 Y154.409 E.02119
G1 X202.798 Y154.74 E.01307
G1 X202.778 Y154.94 E.00796
G1 X203.117 Y155.279 E.01895
G1 X203.016 Y155.716 E.01772
G1 X202.707 Y155.407 E.01726
G1 X202.587 Y155.825 E.0172
G1 X202.872 Y156.109 E.0159
G1 X202.692 Y156.468 E.01584
G1 X202.418 Y156.194 E.0153
G1 X202.213 Y156.526 E.01545
G1 X202.481 Y156.794 E.01499
G1 X202.241 Y157.092 E.01512
G1 X201.972 Y156.823 E.01503
G1 X201.821 Y156.998 E.00912
G1 X201.705 Y157.094 E.00597
G1 X201.972 Y157.361 E.01495
G1 X201.675 Y157.602 E.01512
G1 X201.41 Y157.337 E.01481
G1 X201.07 Y157.535 E.01556
G1 X201.348 Y157.813 E.01557
G1 X200.989 Y157.992 E.01585
G1 X200.702 Y157.705 E.01609
G1 X200.567 Y157.758 E.00573
G1 X200.287 Y157.828 E.01139
G1 X200.595 Y158.136 E.01719
G1 X200.314 Y158.212 E.01151
G1 X200.159 Y158.237 E.00622
G1 X199.821 Y157.899 E.0189
G1 X199.549 Y157.924 E.0108
G1 X199.284 Y157.9 E.0105
G1 X199.671 Y158.288 E.02165
G1 X199.548 Y158.294 E.00486
G1 X199.111 Y158.265 E.01734
G1 X198.356 Y157.51 E.04221
G1 X198.656 Y158.348 F10800
G1 F600
G1 X196.111 Y155.804 E.14227
G1 X196.211 Y156.08 E.01163
G1 X196.38 Y156.427 E.01524
G1 X196.584 Y156.754 E.01524
G1 X196.805 Y157.035 E.01415
G1 X197.79 Y158.021 E.05507
; stop printing object SusanSpacerM4Bolt.STL id:0 copy 0
;LAYER_CHANGE
;Z:0.45
;HEIGHT:0.2
;BEFORE_LAYER_CHANGE
G92 E0.0
;0.45


;WIPE_START
G1 F8640
G1 X196.805 Y157.035 E-.32167
G1 X196.584 Y156.754 E-.08263
G1 X196.38 Y156.427 E-.08904
G1 X196.211 Y156.08 E-.08903
G1 X196.111 Y155.804 E-.06791
G1 X198.193 Y157.885 E-.67972
;WIPE_END
G1 E-.07 F2100
G1 Z.45 F10800
G1 Z.45
;AFTER_LAYER_CHANGE
;0.45
M104 S235 ; set temperature
M140 S90 ; set bed temperature
G1 Z.65
G1 X198.15 Y161.698
G1 Z.45
G1 E1.4 F2100
;TYPE:Skirt/Brim
;WIDTH:0.42
G1 F3000
G1 X50.001 Y160.033 E4.64541
G1 X48.416 Y159.845 E.05002
M73 P5 R24
G1 X47.247 Y159.458 E.03863
G1 X46.563 Y159.12 E.02393
G1 X45.729 Y158.567 E.03137
G1 X45.161 Y158.078 E.02349
G1 X44.196 Y156.935 E.04692
G1 X43.592 Y155.845 E.03906
G1 X43.253 Y154.903 E.03137
G1 X43.022 Y153.679 E.03907
G1 X42.988 Y152.829 E.02668
G1 X44.654 Y51.469 E3.17851
G1 X44.746 Y50.506 E.03033
G1 X45.086 Y49.214 E.04189
G1 X45.532 Y48.237 E.03365
G1 X45.96 Y47.557 E.0252
G1 X47.034 Y46.365 E.05031
G1 X48.35 Y45.447 E.05032
G1 X49.84 Y44.85 E.05031
G1 X50.626 Y44.684 E.0252
G1 X51.625 Y44.601 E.03144
G1 X125.298 Y46.358 E2.31061
G1 X199.658 Y49.17 E2.33318
G1 X201.155 Y49.412 E.04754
G1 X202.645 Y50.008 E.05031
G1 X203.961 Y50.926 E.05032
G1 X205.035 Y52.119 E.05032
G1 X205.589 Y53.038 E.03365
G1 X205.909 Y53.775 E.0252
G1 X206.248 Y55.067 E.04189
G1 X206.341 Y56.063 E.03136
G1 X206.587 Y154.61 E3.08989
G1 X206.441 Y156.1 E.04692
G1 X206.102 Y157.235 E.03715
G1 X205.766 Y157.972 E.02539
G1 X204.928 Y159.212 E.04692
G1 X204.23 Y159.929 E.03137
G1 X203.645 Y160.396 E.02349
G1 X202.571 Y161.029 E.03906
G1 X201.639 Y161.393 E.03137
G1 X200.422 Y161.657 E.03906
G1 X199.522 Y161.713 E.02827
G1 X198.21 Y161.698 E.04113
; printing object SusanSpacerM4Bolt.STL id:0 copy 0
;WIPE_START
G1 F8640
G1 X192.45 Y161.634 E-1.33
;WIPE_END
G1 E-.07 F2100
G1 Z.65 F10800
G1 X199.125 Y158.673
G1 Z.45
G1 E1.4 F2100
M204 S800
;TYPE:Perimeter
;WIDTH:0.449999
G1 F1500
G1 X198.694 Y158.623 E.01467
G1 X198.204 Y158.48 E.01728
G1 X197.664 Y158.241 E.01997
G1 X197.11 Y157.893 E.02215
G1 X196.67 Y157.501 E.01997
G1 X196.224 Y156.968 E.02353
G1 X195.946 Y156.494 E.01859
G1 X195.671 Y155.807 E.02503
G1 X195.562 Y155.314 E.01709
G1 X195.509 Y154.597 E.02436
G1 X195.554 Y154.074 E.01777
G1 X195.668 Y153.559 E.01784
G1 X195.849 Y153.057 E.01805
G1 X196.114 Y152.542 E.01961
G1 X196.665 Y151.841 E.03018
G1 X197.076 Y151.48 E.01853
G1 X197.492 Y151.199 E.01699
G1 X197.967 Y150.957 E.01805
G1 X198.454 Y150.782 E.01751
G1 X198.938 Y150.68 E.01674
G1 X199.718 Y150.644 E.02642
G1 X200.438 Y150.735 E.02459
G1 X200.95 Y150.884 E.01805
G1 X201.412 Y151.085 E.01705
G1 X201.605 Y151.199 E.00757
G1 X202.152 Y151.582 E.02263
G1 X202.728 Y152.176 E.02797
G1 X203.01 Y152.591 E.01698
G1 X203.31 Y153.204 E.02311
G1 X203.47 Y153.697 E.01754
G1 X203.582 Y154.532 E.02854
G1 X203.573 Y155.026 E.01672
G1 X203.487 Y155.56 E.01829
G1 X203.272 Y156.243 E.02425
G1 X203.032 Y156.714 E.01788
G1 X202.61 Y157.308 E.02466
G1 X202.249 Y157.676 E.01747
G1 X201.78 Y158.035 E.01997
G1 X201.189 Y158.364 E.02292
G1 X200.654 Y158.554 E.0192
G1 X199.946 Y158.693 E.02443
G1 X199.423 Y158.707 E.01769
G1 X199.184 Y158.679 E.00815
M204 S1000
G1 X199.075 Y159.096 F10800
M204 S800
;TYPE:External perimeter
G1 F1500
G1 X198.556 Y159.007 E.01785
G1 X198.056 Y158.859 E.01765
G1 X197.477 Y158.603 E.02143
