; generated by PrusaSlicer 2.5.0+win64 on 2023-03-07 at 15:17:07 UTC

; 

; external perimeters extrusion width = 0.45mm
; perimeters extrusion width = 0.45mm
; infill extrusion width = 0.45mm
; solid infill extrusion width = 0.45mm
; top infill extrusion width = 0.40mm
; first layer extrusion width = 0.42mm

; external perimeters extrusion width = 0.45mm
; perimeters extrusion width = 0.45mm
; infill extrusion width = 0.45mm
; solid infill extrusion width = 0.45mm
; top infill extrusion width = 0.40mm
; first layer extrusion width = 0.42mm

; external perimeters extrusion width = 0.45mm
; perimeters extrusion width = 0.45mm
; infill extrusion width = 0.45mm
; solid infill extrusion width = 0.45mm
; top infill extrusion width = 0.40mm
; first layer extrusion width = 0.42mm

; external perimeters extrusion width = 0.45mm
; perimeters extrusion width = 0.45mm
; infill extrusion width = 0.45mm
; solid infill extrusion width = 0.45mm
; top infill extrusion width = 0.40mm
; first layer extrusion width = 0.42mm

; external perimeters extrusion width = 0.45mm
; perimeters extrusion width = 0.45mm
; infill extrusion width = 0.45mm
; solid infill extrusion width = 0.45mm
; top infill extrusion width = 0.40mm
; first layer extrusion width = 0.42mm

; external perimeters extrusion width = 0.45mm
; perimeters extrusion width = 0.45mm
; infill extrusion width = 0.45mm
; solid infill extrusion width = 0.45mm
; top infill extrusion width = 0.40mm
; first layer extrusion width = 0.42mm

M73 P0 R23
M107
;TYPE:Custom
M862.3 P "MK2.5S" ; printer model check
M862.1 P0.4 ; nozzle diameter check
M115 U3.10.0 ; tell printer latest fw version
G90 ; use absolute coordinates
M83  ; extruder relative mode
M104 S230 ; set extruder temp
M140 S85 ; set bed temp
M190 S85 ; wait for bed temp
M109 S230 ; wait for extruder temp
G28 W ; home all without mesh bed level
G80 ; mesh bed leveling
G1 Y-3.0 F1000.0 ; go outside print area
G92 E0.0
G1 X60.0 E9.0 F1000.0 ; intro line
G1 X100.0 E12.5 F1000.0 ; intro line
G92 E0.0
G21 ; set units to millimeters
G90 ; use absolute coordinates
M83 ; use relative distances for extrusion
M900 K0.08 ; Filament gcode LA 1.5
M900 K45 ; Filament gcode LA 1.0
M107
;LAYER_CHANGE
;Z:0.2
;HEIGHT:0.2
;BEFORE_LAYER_CHANGE
G92 E0.0
;0.2


G1 E-1.4 F2100
G1 Z.2 F10800
;AFTER_LAYER_CHANGE
;0.2
G1 Z.4
G1 X91.521 Y47.481
G1 Z.2
G1 E1.4 F2100
M204 S1000
;TYPE:Skirt/Brim
;WIDTH:0.42
G1 F1200
G1 X92.076 Y46.56 E.03373
G1 X92.58 Y45.932 E.02524
G1 X93.785 Y44.868 E.05039
G1 X94.937 Y44.216 E.04152
G1 X95.702 Y43.926 E.02564
G1 X96.482 Y43.728 E.02524
G1 X97.483 Y43.607 E.03161
G1 X152.25 Y43.599 E1.71719
G1 X153.518 Y43.728 E.03995
G1 X154.801 Y44.105 E.04193
G1 X156.215 Y44.868 E.05039
G1 X157.048 Y45.549 E.03373
G1 X158.077 Y46.784 E.05039
G1 X158.701 Y47.966 E.04193
G1 X159.033 Y48.989 E.03373
G1 X159.224 Y50.313 E.04193
G1 X159.23 Y159.226 E3.41488
G1 X159.083 Y160.78 E.04896
M73 P1 R23
G1 X158.624 Y162.207 E.04699
G1 X158.02 Y163.298 E.03909
G1 X157.567 Y163.896 E.02353
G1 X156.868 Y164.615 E.03145
G1 X156.281 Y165.084 E.02353
G1 X155.218 Y165.711 E.03872
G1 X154.513 Y166.002 E.02391
G1 X153.793 Y166.213 E.02353
G1 X152.803 Y166.372 E.03145
G1 X97.817 Y166.402 E1.72405
G1 X96.203 Y166.213 E.05094
G1 X94.789 Y165.717 E.04699
G1 X93.725 Y165.09 E.03872
G1 X93.129 Y164.615 E.0239
G1 X92.595 Y164.087 E.02353
G1 X91.976 Y163.298 E.03144
G1 X91.388 Y162.24 E.03795
G1 X91.105 Y161.506 E.02467
G1 X90.867 Y160.532 E.03144
G1 X90.78 Y159.786 E.02353
G1 X90.768 Y50.516 E3.42608
G1 X90.967 Y48.989 E.04829
G1 X91.5 Y47.537 E.04851
; printing object SusanSpacerM4Bolt.STL id:0 copy 0
;WIPE_START
G1 F8640
G1 X92.076 Y46.56 E-.262
G1 X92.58 Y45.932 E-.18585
G1 X93.785 Y44.868 E-.3711
G1 X94.937 Y44.216 E-.30577
G1 X95.702 Y43.926 E-.18884
G1 X95.771 Y43.908 E-.01643
;WIPE_END
G1 E-.07 F2100
G1 Z.4 F10800
G1 X97.191 Y155.514
G1 Z.2
G1 E1.4 F2100
;TYPE:Perimeter
;WIDTH:0.419999
G1 F1200
G1 X97.817 Y155.464 E.0197
G1 X98.412 Y155.512 E.01871
G1 X98.862 Y155.608 E.01443
G1 X99.357 Y155.787 E.01651
G1 X99.866 Y156.052 E.01798
G1 X100.342 Y156.398 E.01846
G1 X100.768 Y156.829 E.019
G1 X101.135 Y157.331 E.01948
G1 X101.393 Y157.842 E.01798
G1 X101.597 Y158.451 E.02012
G1 X101.702 Y159.271 E.0259
G1 X101.688 Y159.684 E.01297
G1 X101.608 Y160.186 E.01595
G1 X101.406 Y160.839 E.02141
G1 X101.177 Y161.297 E.01606
G1 X100.852 Y161.769 E.01798
G1 X100.43 Y162.225 E.01948
G1 X99.976 Y162.575 E.01798
G1 X99.4 Y162.898 E.02068
G1 X98.896 Y163.079 E.01678
G1 X98.23 Y163.215 E.02133
M73 P1 R22
G1 X97.715 Y163.231 E.01615
G1 X97.145 Y163.173 E.01798
G1 X96.543 Y163.019 E.01948
G1 X96.018 Y162.789 E.01798
G1 X95.48 Y162.455 E.01984
G1 X95.06 Y162.082 E.01762
G1 X94.623 Y161.564 E.02124
G1 X94.361 Y161.118 E.01623
G1 X94.104 Y160.495 E.02113
G1 X93.986 Y159.987 E.01634
G1 X93.936 Y159.416 E.01798
G1 X93.972 Y158.796 E.01948
G1 X94.099 Y158.236 E.01798
G1 X94.333 Y157.629 E.0204
G1 X94.611 Y157.161 E.01706
G1 X95.032 Y156.638 E.02105
G1 X95.425 Y156.292 E.01642
G1 X96.004 Y155.913 E.02169
G1 X96.464 Y155.709 E.01578
G1 X97.133 Y155.53 E.02173
G1 X97.136 Y155.14 F10800
;TYPE:External perimeter
G1 F1200
G1 X97.818 Y155.086 E.02144
G1 X98.442 Y155.136 E.01966
G1 X98.981 Y155.25 E.01725
G1 X99.513 Y155.443 E.01776
G1 X100.174 Y155.796 E.0235
G1 X100.597 Y156.121 E.01673
G1 X101.171 Y156.717 E.02592
G1 X101.465 Y157.148 E.01636
G1 X101.741 Y157.696 E.01924
G1 X101.911 Y158.178 E.01603
G1 X102.035 Y158.741 E.01807
G1 X102.079 Y159.281 E.01698
G1 X102.021 Y160.037 E.02379
G1 X101.91 Y160.538 E.01609
G1 X101.726 Y161.048 E.01699
G1 X101.497 Y161.497 E.01581
G1 X101.026 Y162.158 E.02545
G1 X100.671 Y162.516 E.01581
G1 X100.019 Y163 E.02546
M73 P2 R22
G1 X99.538 Y163.249 E.01699
G1 X98.761 Y163.506 E.02566
G1 X98.226 Y163.593 E.01699
G1 X97.695 Y163.608 E.01665
G1 X96.915 Y163.518 E.02461
G1 X96.406 Y163.371 E.01664
G1 X95.691 Y163.044 E.02462
G1 X95.24 Y162.745 E.01699
G1 X94.789 Y162.345 E.01888
G1 X94.446 Y161.952 E.01636
G1 X94.137 Y161.497 E.01726
G1 X93.907 Y161.048 E.01581
G1 X93.723 Y160.538 E.01699
G1 X93.612 Y160.037 E.01609
G1 X93.554 Y159.236 E.02517
G1 X93.601 Y158.726 E.01608
G1 X93.792 Y157.946 E.02518
G1 X94.003 Y157.447 E.01699
G1 X94.437 Y156.753 E.02566
G1 X94.794 Y156.345 E.01699
G1 X95.2 Y155.989 E.01693
G1 X95.85 Y155.566 E.02433
G1 X96.346 Y155.351 E.01692
G1 X97.078 Y155.156 E.02377
G1 X97.389 Y155.451 F10800
;WIPE_START
G1 F8640
G1 X97.818 Y155.086 E-.17151
G1 X98.442 Y155.136 E-.14475
G1 X98.981 Y155.25 E-.12704
G1 X99.513 Y155.443 E-.13081
G1 X100.174 Y155.796 E-.17304
G1 X100.597 Y156.121 E-.12321
G1 X101.171 Y156.717 E-.19086
G1 X101.465 Y157.148 E-.1205
G1 X101.741 Y157.696 E-.14167
G1 X101.75 Y157.723 E-.00659
;WIPE_END
G1 E-.07 F2100
G1 Z.4 F10800
G1 X99.093 Y156.663
G1 Z.2
G1 E1.4 F2100
;TYPE:Perimeter
G1 F1200
G1 X99.38 Y156.805 E.01004
G1 X99.727 Y157.057 E.01343
G1 X100.158 Y157.504 E.01947
G1 X100.51 Y158.063 E.02072
G1 X100.694 Y158.545 E.01617
G1 X100.788 Y159.051 E.01613
G1 X100.792 Y159.572 E.01636
G1 X100.74 Y159.961 E.0123
G1 X100.568 Y160.5 E.01774
G1 X100.419 Y160.815 E.0109
G1 X100.063 Y161.31 E.01914
G1 X99.579 Y161.76 E.02072
G1 X99.152 Y162.023 E.0157
G1 X98.676 Y162.21 E.01604
G1 X98.147 Y162.314 E.01691
G1 X97.773 Y162.336 E.01174
G1 X97.194 Y162.265 E.0183
G1 X96.566 Y162.06 E.02072
G1 X96.111 Y161.802 E.0164
G1 X95.715 Y161.471 E.01617
G1 X95.385 Y161.079 E.01608
G1 X95.173 Y160.738 E.01258
G1 X94.965 Y160.222 E.01747
G1 X94.877 Y159.876 E.01118
G1 X94.837 Y159.276 E.01886
G1 X94.922 Y158.621 E.02072
G1 X95.085 Y158.139 E.01594
G1 X95.334 Y157.691 E.01608
G1 X95.67 Y157.28 E.01663
G1 X95.95 Y157.019 E.01202
G1 X96.434 Y156.709 E.01802
G1 X97.049 Y156.467 E.02072
G1 X97.74 Y156.367 E.02187
G1 X98.325 Y156.418 E.01843
G1 X98.893 Y156.564 E.01838
G1 X99.039 Y156.637 E.00512
G1 X99.163 Y157.114 F10800
;TYPE:External perimeter
G1 F1200
G1 X99.468 Y157.331 E.01173
G1 X99.858 Y157.733 E.01755
G1 X100.179 Y158.243 E.01891
G1 X100.341 Y158.692 E.01497
G1 X100.42 Y159.29 E.01891
G1 X100.382 Y159.833 E.01705
G1 X100.224 Y160.346 E.01684
G1 X99.932 Y160.874 E.01891
G1 X99.616 Y161.241 E.01517
G1 X99.136 Y161.595 E.01872
G1 X98.618 Y161.834 E.01788
G1 X98.118 Y161.938 E.016
G1 X97.515 Y161.938 E.01891
G1 X97.021 Y161.836 E.01581
G1 X96.498 Y161.595 E.01808
G1 X96.017 Y161.241 E.01872
G1 X95.702 Y160.874 E.01517
G1 X95.41 Y160.346 E.01891
G1 X95.257 Y159.861 E.01594
G1 X95.214 Y159.29 E.01795
G1 X95.292 Y158.692 E.01891
G1 X95.455 Y158.243 E.01497
G1 X95.776 Y157.733 E.01891
G1 X96.145 Y157.346 E.01677
G1 X96.602 Y157.046 E.01711
G1 X97.163 Y156.826 E.01891
G1 X97.783 Y156.742 E.01962
G1 X98.284 Y156.792 E.01577
G1 X98.779 Y156.924 E.01607
G1 X99.109 Y157.087 E.01155
G1 X99.488 Y156.928 F10800
;WIPE_START
G1 F8640
G1 X99.468 Y157.331 E-.10012
G1 X99.858 Y157.733 E-.12926
G1 X100.179 Y158.243 E-.13928
G1 X100.341 Y158.692 E-.11025
G1 X100.42 Y159.29 E-.13929
G1 X100.382 Y159.833 E-.12555
G1 X100.224 Y160.346 E-.12398
G1 X99.932 Y160.874 E-.13927
G1 X99.616 Y161.241 E-.11173
G1 X99.136 Y161.595 E-.13784
G1 X98.847 Y161.728 E-.07342
;WIPE_END
G1 E-.07 F2100
G1 Z.4 F10800
G1 X99.572 Y156.011
G1 Z.2
G1 E1.4 F2100
;TYPE:Solid infill
;WIDTH:0.421914
G1 F1200
G1 X100.405 Y156.844 E.03713
G1 X100.659 Y157.136 E.0122
G1 X100.872 Y157.439 E.01165
G1 X101.058 Y157.774 E.01209
G1 X101.23 Y158.204 E.0146
G1 X98.714 Y155.689 E.11211
G1 X98.963 Y156.473 F10800
G1 F1200
G1 X98.274 Y155.784 E.03069
G1 X97.838 Y155.749 E.01378
G1 X97.712 Y155.759 E.00397
G1 X98.068 Y156.114 E.01584
G1 X97.744 Y156.082 E.01027
G1 X97.526 Y156.109 E.0069
G1 X97.216 Y155.798 E.01383
G1 X96.783 Y155.902 E.01402
G1 X97.054 Y156.172 E.01205
G1 X96.648 Y156.302 E.01343
G1 X96.391 Y156.045 E.01145
G1 X96.034 Y156.224 E.01259
G1 X96.28 Y156.471 E.011
G1 X96.148 Y156.537 E.00467
G1 X95.949 Y156.675 E.00764
G1 X95.708 Y156.434 E.01075
G1 X95.411 Y156.673 E.01201
G1 X95.652 Y156.914 E.01072
G1 X95.376 Y157.174 E.01195
G1 X95.143 Y156.941 E.01037
G1 X94.982 Y157.125 E.00768
G1 X94.903 Y157.237 E.00434
G1 X95.145 Y157.48 E.01079
G1 X95.05 Y157.607 E.00502
G1 X94.943 Y157.813 E.00731
G1 X94.697 Y157.567 E.01095
G1 X94.514 Y157.92 E.01253
G1 X94.771 Y158.177 E.01143
G1 X94.644 Y158.586 E.01349
G1 X94.371 Y158.313 E.01216
G1 X94.269 Y158.747 E.01404
G1 X94.569 Y159.047 E.0134
G1 X94.548 Y159.466 E.0132
G1 X94.56 Y159.574 E.00344
G1 X94.216 Y159.23 E.01532
G1 X94.225 Y159.638 E.01283
G1 X94.246 Y159.796 E.00504
G1 X94.936 Y160.486 E.03077
;WIPE_START
G1 F8640
G1 X94.246 Y159.796 E-.22544
G1 X94.225 Y159.638 E-.03692
G1 X94.216 Y159.23 E-.09401
G1 X94.56 Y159.574 E-.11228
G1 X94.548 Y159.466 E-.02523
G1 X94.569 Y159.047 E-.0967
G1 X94.269 Y158.747 E-.09819
G1 X94.371 Y158.313 E-.10289
G1 X94.644 Y158.586 E-.08907
G1 X94.771 Y158.177 E-.09886
G1 X94.514 Y157.92 E-.08378
G1 X94.697 Y157.567 E-.09184
G1 X94.943 Y157.813 E-.08021
G1 X95.05 Y157.607 E-.05358
G1 X95.145 Y157.48 E-.03677
G1 X95.132 Y157.467 E-.00424
;WIPE_END
G1 E-.07 F2100
G1 Z.4 F10800
G1 X100.689 Y158.2
G1 Z.2
G1 E1.4 F2100
G1 F1200
G1 X101.391 Y158.901 E.03126
G1 X101.419 Y159.254 E.01115
G1 X101.414 Y159.46 E.00649
G1 X101.073 Y159.12 E.01517
G1 X101.085 Y159.417 E.00937
G1 X101.062 Y159.645 E.00721
G1 X101.367 Y159.95 E.01359
G1 X101.268 Y160.386 E.01412
G1 X100.988 Y160.107 E.01246
G1 X100.868 Y160.522 E.01363
G1 X101.124 Y160.778 E.01141
G1 X100.945 Y161.135 E.01258
G1 X100.699 Y160.889 E.01095
G1 X100.494 Y161.22 E.01226
G1 X100.735 Y161.461 E.01074
G1 X100.495 Y161.757 E.01201
G1 X100.253 Y161.515 E.0108
G1 X100.103 Y161.689 E.00724
G1 X99.987 Y161.785 E.00475
G1 X100.227 Y162.026 E.01073
G1 X99.931 Y162.266 E.01201
G1 X99.693 Y162.027 E.01062
G1 X99.355 Y162.225 E.01235
G1 X99.606 Y162.476 E.01119
G1 X99.248 Y162.654 E.01259
G1 X98.988 Y162.394 E.01161
G1 X98.774 Y162.477 E.00722
G1 X98.58 Y162.523 E.00627
G1 X98.855 Y162.797 E.01222
G1 X98.579 Y162.872 E.00902
G1 X98.42 Y162.898 E.00507
G1 X98.116 Y162.594 E.01353
G1 X97.817 Y162.621 E.00947
G1 X97.586 Y162.6 E.00729
G1 X97.933 Y162.947 E.01547
G1 X97.373 Y162.923 E.01766
G1 X96.671 Y162.222 E.03128
G1 X96.927 Y163.013 F10800
G1 F1200
G1 X94.402 Y160.488 E.11254
G1 X94.497 Y160.751 E.00882
G1 X94.664 Y161.096 E.01209
G1 X94.868 Y161.421 E.01209
G1 X95.105 Y161.723 E.01209
G1 X96.063 Y162.685 E.04281
; stop printing object SusanSpacerM4Bolt.STL id:0 copy 0
;LAYER_CHANGE
;Z:0.4
;HEIGHT:0.2
;BEFORE_LAYER_CHANGE
G92 E0.0
;0.4


;WIPE_START
G1 F8640
G1 X95.105 Y161.723 E-.31364
G1 X94.868 Y161.421 E-.08857
G1 X94.664 Y161.096 E-.08857
G1 X94.497 Y160.751 E-.08858
G1 X94.402 Y160.488 E-.06463
G1 X96.503 Y162.589 E-.68602
;WIPE_END
G1 E-.07 F2100
G1 Z.4 F10800
;AFTER_LAYER_CHANGE
;0.4
G1 Z.6
G1 X95.338 Y165.909
G1 Z.4
G1 E1.4 F2100
;TYPE:Skirt/Brim
;WIDTH:0.42
G1 F2414
G1 X94.789 Y165.717 E.01823
G1 X93.725 Y165.09 E.03872
G1 X93.129 Y164.615 E.0239
G1 X92.595 Y164.087 E.02353
G1 X91.976 Y163.298 E.03144
G1 X91.388 Y162.24 E.03795
G1 X91.105 Y161.506 E.02467
G1 X90.867 Y160.532 E.03144
G1 X90.78 Y159.786 E.02353
G1 X90.768 Y50.516 E3.42608
G1 X90.967 Y48.989 E.04829
G1 X91.521 Y47.481 E.05039
G1 X92.076 Y46.56 E.03373
G1 X92.58 Y45.932 E.02524
G1 X93.785 Y44.868 E.05039
G1 X94.937 Y44.216 E.04152
G1 X95.702 Y43.926 E.02564
G1 X96.482 Y43.728 E.02524
G1 X97.483 Y43.607 E.03161
G1 X152.25 Y43.599 E1.71719
G1 X153.518 Y43.728 E.03995
G1 X154.801 Y44.105 E.04193
G1 X156.215 Y44.868 E.05039
G1 X157.048 Y45.549 E.03373
G1 X158.077 Y46.784 E.05039
G1 X158.701 Y47.966 E.04193
G1 X159.033 Y48.989 E.03373
G1 X159.224 Y50.313 E.04193
G1 X159.23 Y159.226 E3.41488
G1 X159.083 Y160.78 E.04896
M73 P3 R22
G1 X158.624 Y162.207 E.04699
G1 X158.02 Y163.298 E.03909
G1 X157.567 Y163.896 E.02353
G1 X156.868 Y164.615 E.03145
G1 X156.281 Y165.084 E.02353
G1 X155.218 Y165.711 E.03872
G1 X154.513 Y166.002 E.02391
G1 X153.793 Y166.213 E.02353
G1 X152.803 Y166.372 E.03145
G1 X97.817 Y166.402 E1.72405
G1 X96.203 Y166.213 E.05094
G1 X95.394 Y165.929 E.02688
; printing object SusanSpacerM4Bolt.STL id:0 copy 0
;WIPE_START
G1 F8640
G1 X94.789 Y165.717 E-.14813
G1 X93.725 Y165.09 E-.28513
G1 X93.129 Y164.615 E-.17604
G1 X92.595 Y164.087 E-.17329
G1 X91.976 Y163.298 E-.23157
G1 X91.388 Y162.24 E-.27951
G1 X91.331 Y162.093 E-.03633
;WIPE_END
G1 E-.07 F2100
G1 Z.6 F10800
G1 X96.677 Y163.218
G1 Z.4
G1 E1.4 F2100
M204 S800
;TYPE:Perimeter
;WIDTH:0.449999
G1 F1500
G1 X96.472 Y163.158 E.00721
G1 X95.933 Y162.92 E.01997
G1 X95.378 Y162.572 E.02215
G1 X94.775 Y162.012 E.02786
G1 X94.464 Y161.601 E.01742
G1 X94.107 Y160.951 E.02512
G1 X93.939 Y160.485 E.01675
G1 X93.83 Y159.992 E.01709
G1 X93.783 Y159.483 E.01731
G1 X93.8 Y158.95 E.01805
G1 X93.884 Y158.422 E.0181
G1 X94.027 Y157.949 E.01675
G1 X94.382 Y157.22 E.02743
G1 X94.933 Y156.519 E.03018
G1 X95.345 Y156.158 E.01853
G1 X95.953 Y155.763 E.02455
G1 X96.43 Y155.557 E.01758
G1 X97.165 Y155.361 E.02576
G1 X97.834 Y155.309 E.0227
G1 X98.427 Y155.358 E.02015
G1 X98.911 Y155.461 E.01674
G1 X99.398 Y155.635 E.01751
G1 X99.873 Y155.877 E.01805
G1 X100.421 Y156.261 E.02263
G1 X100.996 Y156.854 E.02797
G1 X101.278 Y157.269 E.01698
G1 X101.628 Y158.01 E.02774
G1 X101.766 Y158.509 E.01753
G1 X101.856 Y159.275 E.02611
G1 X101.842 Y159.705 E.01455
G1 X101.763 Y160.204 E.01712
G1 X101.615 Y160.717 E.01805
G1 X101.335 Y161.336 E.02302
G1 X100.879 Y161.986 E.02688
G1 X100.517 Y162.354 E.01747
G1 X99.971 Y162.765 E.02311
G1 X99.456 Y163.043 E.0198
G1 X98.923 Y163.232 E.01917
G1 X98.214 Y163.371 E.02443
G1 X97.692 Y163.385 E.01769
G1 X96.962 Y163.301 E.02485
G1 X96.734 Y163.234 E.00804
M204 S1000
G1 X96.561 Y163.613 F10800
M204 S800
;TYPE:External perimeter
G1 F1500
G1 X96.028 Y163.422 E.01917
G1 X95.558 Y163.184 E.01785
G1 X95.119 Y162.885 E.01798
G1 X94.646 Y162.463 E.02144
G1 X94.302 Y162.069 E.01771
G1 X93.953 Y161.552 E.0211
G1 X93.717 Y161.08 E.01787
G1 X93.544 Y160.582 E.01785
G1 X93.427 Y160.046 E.01855
G1 X93.374 Y159.415 E.02144
G1 X93.402 Y158.813 E.02041
G1 X93.494 Y158.294 E.01785
G1 X93.652 Y157.79 E.01786
G1 X93.954 Y157.153 E.02387
