; generated by PrusaSlicer 2.5.0+win64 on 2023-03-08 at 16:07:13 UTC

; 

; external perimeters extrusion width = 0.45mm
; perimeters extrusion width = 0.45mm
; infill extrusion width = 0.45mm
; solid infill extrusion width = 0.45mm
; top infill extrusion width = 0.40mm
; first layer extrusion width = 0.42mm

; external perimeters extrusion width = 0.45mm
; perimeters extrusion width = 0.45mm
; infill extrusion width = 0.45mm
; solid infill extrusion width = 0.45mm
; top infill extrusion width = 0.40mm
; first layer extrusion width = 0.42mm

; external perimeters extrusion width = 0.45mm
; perimeters extrusion width = 0.45mm
; infill extrusion width = 0.45mm
; solid infill extrusion width = 0.45mm
; top infill extrusion width = 0.40mm
; first layer extrusion width = 0.42mm

; external perimeters extrusion width = 0.45mm
; perimeters extrusion width = 0.45mm
; infill extrusion width = 0.45mm
; solid infill extrusion width = 0.45mm
; top infill extrusion width = 0.40mm
; first layer extrusion width = 0.42mm

; external perimeters extrusion width = 0.45mm
; perimeters extrusion width = 0.45mm
; infill extrusion width = 0.45mm
; solid infill extrusion width = 0.45mm
; top infill extrusion width = 0.40mm
; first layer extrusion width = 0.42mm

; external perimeters extrusion width = 0.45mm
; perimeters extrusion width = 0.45mm
; infill extrusion width = 0.45mm
; solid infill extrusion width = 0.45mm
; top infill extrusion width = 0.40mm
; first layer extrusion width = 0.42mm

M73 P0 R25
M107
;TYPE:Custom
M862.3 P "MK2.5S" ; printer model check
M862.1 P0.4 ; nozzle diameter check
M115 U3.10.0 ; tell printer latest fw version
G90 ; use absolute coordinates
M83  ; extruder relative mode
M104 S240 ; set extruder temp
M140 S95 ; set bed temp
M190 S95 ; wait for bed temp
M109 S240 ; wait for extruder temp
G28 W ; home all without mesh bed level
G80 ; mesh bed leveling
G1 Y-3.0 F1000.0 ; go outside print area
G92 E0.0
G1 X60.0 E9.0 F1000.0 ; intro line
G1 X100.0 E12.5 F1000.0 ; intro line
G92 E0.0
G21 ; set units to millimeters
G90 ; use absolute coordinates
M83 ; use relative distances for extrusion
M900 K0.08 ; Filament gcode LA 1.5
M900 K45 ; Filament gcode LA 1.0
M107
;LAYER_CHANGE
;Z:0.25
;HEIGHT:0.25
;BEFORE_LAYER_CHANGE
G92 E0.0
;0.25


M73 P0 R24
G1 E-1.4 F2100
G1 Z.2 F10800
G1 Z.25
;AFTER_LAYER_CHANGE
;0.25
G1 Z.45
G1 X45.735 Y86.666
G1 Z.25
G1 E1.4 F2100
M204 S1000
;TYPE:Skirt/Brim
;WIDTH:0.42
G1 F600
G1 X47.266 Y86.185 E.0611
G1 X48.576 Y86.055 E.05014
G1 X199.679 Y84.608 E5.75389
G1 X200.945 Y84.738 E.04844
M73 P1 R24
G1 X202.226 Y85.114 E.05087
G1 X203.639 Y85.876 E.0611
G1 X204.469 Y86.555 E.04087
G1 X205.344 Y87.565 E.05087
G1 X206.12 Y88.97 E.0611
G1 X206.452 Y89.99 E.04087
G1 X206.651 Y91.521 E.05878
G1 X206.484 Y154.044 E2.38074
G1 X206.351 Y155.036 E.0381
G1 X206.16 Y155.761 E.02853
G1 X205.676 Y156.908 E.04743
G1 X205.29 Y157.551 E.02853
M73 P2 R24
G1 X204.838 Y158.148 E.02853
G1 X204.14 Y158.865 E.0381
G1 X203.14 Y159.608 E.04743
G1 X202.481 Y159.965 E.02853
G1 X201.069 Y160.461 E.05698
G1 X199.499 Y160.649 E.06021
G1 X125.228 Y161.928 E2.82849
G1 X49.709 Y160.249 E2.8763
G1 X48.888 Y160.193 E.03132
M73 P3 R24
G1 X47.67 Y159.93 E.04743
G1 X46.968 Y159.67 E.02853
G1 X46.08 Y159.208 E.0381
G1 X45.08 Y158.465 E.04743
G1 X44.382 Y157.748 E.0381
G1 X43.687 Y156.763 E.04591
G1 X43.326 Y156.061 E.03005
G1 X42.868 Y154.636 E.05698
G1 X42.736 Y153.645 E.0381
G1 X41.568 Y92.76 E2.31876
G1 X41.755 Y91.453 E.05029
G1 X41.992 Y90.669 E.03118
G1 X42.438 Y89.692 E.04087
G1 X42.866 Y89.012 E.0306
G1 X43.369 Y88.385 E.0306
G1 X44.341 Y87.492 E.05029
G1 X45.683 Y86.697 E.0594
; printing object SusanSpacerM4Bolt.STL id:0 copy 0
;WIPE_START
G1 F8640
G1 X47.266 Y86.185 E-.38403
G1 X48.576 Y86.055 E-.30408
G1 X51.356 Y86.028 E-.6419
;WIPE_END
G1 E-.07 F2100
G1 Z.45 F10800
G1 X198.831 Y149.762
G1 Z.25
G1 E1.4 F2100
;TYPE:Perimeter
;WIDTH:0.419999
G1 F600
G1 X199.46 Y149.712 E.02402
G1 X200.055 Y149.759 E.02271
G1 X200.507 Y149.856 E.01762
G1 X201.003 Y150.035 E.02007
G1 X201.613 Y150.36 E.02632
G1 X202.014 Y150.671 E.01932
G1 X202.373 Y151.029 E.01929
G1 X202.696 Y151.446 E.02009
G1 X202.985 Y151.954 E.02225
G1 X203.187 Y152.492 E.02189
G1 X203.31 Y153.027 E.02092
G1 X203.354 Y153.529 E.01918
G1 X203.34 Y153.944 E.01579
G1 X203.26 Y154.447 E.01939
G1 X203.059 Y155.097 E.02594
G1 X202.828 Y155.56 E.0197
G1 X202.502 Y156.034 E.02188
G1 X202.079 Y156.492 E.02375
G1 X201.624 Y156.842 E.02188
G1 X201.046 Y157.166 E.02522
G1 X200.541 Y157.347 E.02041
G1 X199.873 Y157.484 E.02599
G1 X199.357 Y157.5 E.01966
G1 X198.785 Y157.442 E.02188
G1 X198.181 Y157.288 E.02374
G1 X197.655 Y157.057 E.02188
G1 X197.115 Y156.721 E.0242
G1 X196.694 Y156.348 E.02143
G1 X196.256 Y155.828 E.0259
G1 X195.993 Y155.381 E.01973
G1 X195.735 Y154.757 E.02572
G1 X195.617 Y154.247 E.01991
G1 X195.567 Y153.675 E.02188
G1 X195.603 Y153.052 E.02375
G1 X195.73 Y152.492 E.02188
G1 X195.965 Y151.882 E.02488
G1 X196.244 Y151.414 E.02074
G1 X196.684 Y150.872 E.02658
G1 X197.06 Y150.542 E.01906
G1 X197.64 Y150.162 E.0264
G1 X198.102 Y149.958 E.01924
G1 X198.773 Y149.777 E.02647
G1 X198.778 Y149.399 F10800
;TYPE:External perimeter
G1 F600
G1 X199.46 Y149.344 E.02607
G1 X200.084 Y149.394 E.02383
G1 X200.622 Y149.508 E.02095
G1 X201.384 Y149.806 E.03116
G1 X201.851 Y150.081 E.02063
G1 X202.263 Y150.402 E.01986
G1 X202.813 Y150.975 E.03024
G1 X203.106 Y151.406 E.01986
G1 X203.382 Y151.954 E.02336
G1 X203.553 Y152.436 E.01949
G1 X203.677 Y152.999 E.02194
G1 X203.72 Y153.539 E.02063
G1 X203.663 Y154.296 E.0289
G1 X203.552 Y154.796 E.01953
G1 X203.369 Y155.302 E.02048
G1 X203.139 Y155.755 E.01933
G1 X202.668 Y156.416 E.03092
G1 X202.312 Y156.774 E.01918
G1 X201.66 Y157.258 E.03094
G1 X201.179 Y157.508 E.02063
G1 X200.402 Y157.765 E.03116
G1 X199.868 Y157.851 E.02063
G1 X199.337 Y157.866 E.0202
G1 X198.557 Y157.776 E.02991
G1 X198.048 Y157.629 E.02019
G1 X197.333 Y157.303 E.02992
G1 X196.881 Y157.003 E.02063
G1 X196.431 Y156.604 E.02291
G1 X196.088 Y156.211 E.01988
G1 X195.778 Y155.755 E.02098
G1 X195.549 Y155.306 E.01919
G1 X195.365 Y154.796 E.02063
G1 X195.254 Y154.296 E.01952
G1 X195.196 Y153.495 E.03059
G1 X195.243 Y152.984 E.01952
G1 X195.434 Y152.204 E.0306
G1 X195.645 Y151.705 E.02063
G1 X196.079 Y151.011 E.03116
G1 X196.436 Y150.603 E.02063
G1 X196.841 Y150.248 E.02054
G1 X197.492 Y149.824 E.02957
M73 P4 R24
G1 X197.987 Y149.61 E.02053
G1 X198.72 Y149.414 E.02888
G1 X199.03 Y149.709 F10800
;WIPE_START
G1 F8640
G1 X199.46 Y149.344 E-.17174
G1 X200.084 Y149.394 E-.14449
G1 X200.622 Y149.508 E-.12705
G1 X201.384 Y149.806 E-.18895
G1 X201.851 Y150.081 E-.12511
G1 X202.263 Y150.402 E-.12046
G1 X202.813 Y150.975 E-.18341
G1 X203.106 Y151.406 E-.12041
G1 X203.382 Y151.954 E-.14167
G1 X203.392 Y151.981 E-.00672
;WIPE_END
G1 E-.07 F2100
G1 Z.45 F10800
G1 X198.746 Y150.728
G1 Z.25
G1 E1.4 F2100
;TYPE:Perimeter
G1 F600
G1 X199.382 Y150.636 E.02447
G1 X199.966 Y150.687 E.0223
G1 X200.532 Y150.833 E.02226
G1 X201.015 Y151.072 E.02054
G1 X201.384 Y151.34 E.01735
G1 X201.791 Y151.769 E.02252
G1 X202.142 Y152.327 E.0251
G1 X202.325 Y152.806 E.01955
G1 X202.414 Y153.279 E.0183
G1 X202.43 Y153.764 E.01849
G1 X202.371 Y154.216 E.01735
M73 P4 R23
G1 X202.201 Y154.751 E.02138
G1 X202.052 Y155.067 E.01328
G1 X201.696 Y155.561 E.02319
G1 X201.214 Y156.01 E.02511
G1 X200.741 Y156.293 E.02099
G1 X200.316 Y156.458 E.01735
G1 X199.788 Y156.562 E.02049
G1 X199.416 Y156.584 E.01418
G1 X198.838 Y156.513 E.02218
G1 X198.212 Y156.308 E.0251
G1 X197.758 Y156.052 E.01984
G1 X197.365 Y155.723 E.01952
G1 X197.036 Y155.331 E.01948
G1 X196.717 Y154.754 E.0251
G1 X196.547 Y154.221 E.0213
G1 X196.483 Y153.716 E.0194
G1 X196.507 Y153.225 E.0187
G1 X196.665 Y152.6 E.02454
G1 X196.935 Y152.031 E.024
G1 X197.265 Y151.597 E.02075
G1 X197.598 Y151.286 E.01735
G1 X198.081 Y150.976 E.02184
G1 X198.687 Y150.738 E.02483
G1 X198.805 Y151.084 F10800
;TYPE:External perimeter
G1 F600
G1 X199.425 Y151 E.02383
G1 X199.925 Y151.051 E.01916
G1 X200.421 Y151.182 E.01953
G1 X200.88 Y151.425 E.01976
G1 X201.344 Y151.81 E.02297
G1 X201.657 Y152.201 E.01908
G1 X201.907 Y152.724 E.02207
G1 X202.045 Y153.27 E.02145
G1 X202.066 Y153.722 E.01722
G1 X202.018 Y154.119 E.01522
G1 X201.866 Y154.601 E.01925
G1 X201.573 Y155.132 E.02309
G1 X201.258 Y155.499 E.01841
G1 X200.777 Y155.853 E.02275
G1 X200.259 Y156.093 E.02173
G1 X199.76 Y156.196 E.01942
G1 X199.157 Y156.196 E.02297
G1 X198.663 Y156.095 E.0192
G1 X198.139 Y155.853 E.02196
G1 X197.659 Y155.499 E.02275
G1 X197.343 Y155.132 E.01841
G1 X197.052 Y154.604 E.02297
G1 X196.899 Y154.121 E.0193
G1 X196.855 Y153.549 E.02185
G1 X196.934 Y152.951 E.02297
G1 X197.103 Y152.496 E.01847
G1 X197.418 Y151.991 E.02265
G1 X197.787 Y151.604 E.02038
G1 X198.243 Y151.305 E.02077
G1 X198.749 Y151.106 E.02068
G1 X198.914 Y150.699 F10800
;WIPE_START
G1 F8640
G1 X199.425 Y151 E-.15798
G1 X199.925 Y151.051 E-.11618
G1 X200.421 Y151.182 E-.11845
G1 X200.88 Y151.425 E-.1198
G1 X201.344 Y151.81 E-.13926
G1 X201.657 Y152.201 E-.11572
G1 X201.907 Y152.724 E-.13383
G1 X202.045 Y153.27 E-.13009
G1 X202.066 Y153.722 E-.10444
G1 X202.018 Y154.119 E-.0923
G1 X201.886 Y154.54 E-.10194
;WIPE_END
G1 E-.07 F2100
G1 Z.45 F10800
G1 X201.218 Y150.255
G1 Z.25
G1 E1.4 F2100
;TYPE:Solid infill
;WIDTH:0.433985
G1 F600
G1 X202.121 Y151.158 E.05047
G1 X202.308 Y151.371 E.0112
G1 X202.529 Y151.686 E.01519
G1 X202.772 Y152.156 E.02091
G1 X202.893 Y152.468 E.01322
G1 X200.358 Y149.933 E.14168
G1 X200.649 Y150.762 F10800
G1 F600
G1 X199.911 Y150.023 E.04129
G1 X199.482 Y149.989 E.017
G1 X199.348 Y149.999 E.0053
G1 X199.744 Y150.395 E.02213
G1 X199.386 Y150.359 E.01421
G1 X199.194 Y150.383 E.00766
G1 X198.85 Y150.039 E.01921
G1 X198.416 Y150.143 E.01764
G1 X198.717 Y150.443 E.01679
G1 X198.309 Y150.574 E.01691
G1 X198.023 Y150.287 E.01601
G1 X197.665 Y150.467 E.01585
G1 X197.939 Y150.741 E.01536
G1 X197.799 Y150.811 E.00619
G1 X197.606 Y150.946 E.00931
G1 X197.338 Y150.678 E.015
G1 X197.146 Y150.82 E.00941
G1 X197.04 Y150.918 E.00573
G1 X197.307 Y151.185 E.01493
G1 X197.03 Y151.446 E.01504
G1 X196.771 Y151.187 E.01449
G1 X196.53 Y151.484 E.01512
G1 X196.799 Y151.753 E.01504
G1 X196.708 Y151.875 E.00603
G1 X196.598 Y152.089 E.00952
G1 X196.319 Y151.811 E.01555
G1 X196.14 Y152.169 E.01584
G1 X196.425 Y152.455 E.01598
G1 X196.328 Y152.729 E.0115
G1 X196.3 Y152.867 E.00557
G1 X195.996 Y152.563 E.01701
G1 X195.94 Y152.749 E.00767
G1 X195.893 Y152.998 E.01002
G1 X196.228 Y153.333 E.01877
G1 X196.208 Y153.724 E.01544
G1 X196.225 Y153.868 E.00573
G1 X195.84 Y153.483 E.02152
G1 X195.837 Y153.512 E.00115
G1 X195.868 Y154.049 E.02126
G1 X196.618 Y154.799 E.04193
;WIPE_START
G1 F8640
G1 X195.868 Y154.049 E-.24493
G1 X195.837 Y153.512 E-.12419
G1 X195.84 Y153.483 E-.00675
G1 X196.225 Y153.868 E-.12571
G1 X196.208 Y153.724 E-.03348
G1 X196.228 Y153.333 E-.09021
G1 X195.893 Y152.998 E-.10961
G1 X195.94 Y152.749 E-.05854
G1 X195.996 Y152.563 E-.0448
G1 X196.3 Y152.867 E-.09935
G1 X196.328 Y152.729 E-.03255
G1 X196.425 Y152.455 E-.06719
G1 X196.14 Y152.169 E-.09332
G1 X196.319 Y151.811 E-.09251
G1 X196.598 Y152.089 E-.09082
G1 X196.629 Y152.027 E-.01606
;WIPE_END
G1 E-.07 F2100
G1 Z.45 F10800
G1 X202.302 Y152.414
G1 Z.25
G1 E1.4 F2100
G1 F600
G1 X203.052 Y153.165 E.04194
G1 X203.08 Y153.512 E.01377
G1 X203.074 Y153.725 E.00841
G1 X202.692 Y153.343 E.02136
G1 X202.708 Y153.668 E.01289
G1 X202.687 Y153.876 E.00824
G1 X203.027 Y154.215 E.01898
G1 X202.926 Y154.652 E.01772
G1 X202.617 Y154.343 E.01726
G1 X202.497 Y154.762 E.0172
G1 X202.781 Y155.046 E.01588
G1 X202.602 Y155.404 E.01584
G1 X202.328 Y155.13 E.01531
G1 X202.123 Y155.463 E.01545
G1 X202.391 Y155.731 E.01499
G1 X202.151 Y156.029 E.01512
G1 X201.882 Y155.76 E.01503
G1 X201.731 Y155.934 E.00912
G1 X201.615 Y156.03 E.00597
G1 X201.882 Y156.298 E.01495
G1 X201.585 Y156.539 E.01512
G1 X201.32 Y156.274 E.01481
G1 X200.98 Y156.471 E.01556
G1 X201.258 Y156.75 E.01557
G1 X200.899 Y156.929 E.01585
G1 X200.61 Y156.639 E.01618
G1 X200.411 Y156.717 E.00845
G1 X200.2 Y156.767 E.00858
G1 X200.505 Y157.072 E.01707
G1 X200.224 Y157.149 E.01151
G1 X200.069 Y157.174 E.00622
G1 X199.731 Y156.836 E.01888
G1 X199.458 Y156.86 E.01082
G1 X199.194 Y156.837 E.0105
G1 X199.581 Y157.224 E.02165
G1 X199.458 Y157.231 E.00486
G1 X199.021 Y157.202 E.01734
G1 X198.265 Y156.446 E.04223
G1 X198.566 Y157.285 F10800
G1 F600
G1 X196.021 Y154.74 E.14229
G1 X196.121 Y155.017 E.01163
G1 X196.29 Y155.364 E.01524
G1 X196.494 Y155.69 E.01524
G1 X196.715 Y155.972 E.01415
G1 X197.7 Y156.957 E.05507
; stop printing object SusanSpacerM4Bolt.STL id:0 copy 0
;LAYER_CHANGE
;Z:0.45
;HEIGHT:0.2
;BEFORE_LAYER_CHANGE
G92 E0.0
;0.45


;WIPE_START
G1 F8640
G1 X196.715 Y155.972 E-.32167
G1 X196.494 Y155.69 E-.08263
G1 X196.29 Y155.364 E-.08904
G1 X196.121 Y155.017 E-.08903
G1 X196.021 Y154.74 E-.0679
G1 X198.103 Y156.822 E-.67972
;WIPE_END
G1 E-.07 F2100
G1 Z.45 F10800
;AFTER_LAYER_CHANGE
;0.45
M104 S235 ; set temperature
M140 S90 ; set bed temperature
G1 Z.65
G1 X198.169 Y160.672
G1 Z.45
G1 E1.4 F2100
;TYPE:Skirt/Brim
;WIDTH:0.42
G1 F2911
G1 X125.228 Y161.928 E2.28736
G1 X49.709 Y160.249 E2.36844
G1 X48.888 Y160.193 E.02579
G1 X47.67 Y159.93 E.03906
G1 X46.968 Y159.67 E.02349
G1 X46.08 Y159.208 E.03138
G1 X45.08 Y158.465 E.03906
G1 X44.382 Y157.748 E.03138
G1 X43.687 Y156.763 E.03781
G1 X43.326 Y156.061 E.02475
G1 X42.868 Y154.636 E.04692
G1 X42.736 Y153.645 E.03137
G1 X41.568 Y92.76 E1.90934
G1 X41.755 Y91.453 E.04141
G1 X41.992 Y90.669 E.02568
G1 X42.438 Y89.692 E.03365
G1 X42.866 Y89.012 E.0252
G1 X43.369 Y88.385 E.0252
G1 X44.341 Y87.492 E.04141
G1 X45.735 Y86.666 E.05079
G1 X47.266 Y86.185 E.05031
G1 X48.576 Y86.055 E.04129
G1 X199.679 Y84.608 E4.73794
G1 X200.945 Y84.738 E.03989
M73 P5 R23
G1 X202.226 Y85.114 E.04189
G1 X203.639 Y85.876 E.05032
G1 X204.469 Y86.555 E.03365
G1 X205.344 Y87.565 E.04189
G1 X206.12 Y88.97 E.05031
G1 X206.452 Y89.99 E.03365
G1 X206.651 Y91.521 E.0484
G1 X206.484 Y154.044 E1.96037
G1 X206.351 Y155.036 E.03137
G1 X206.16 Y155.761 E.02349
G1 X205.676 Y156.908 E.03906
G1 X205.29 Y157.551 E.02349
G1 X204.838 Y158.148 E.02349
G1 X204.14 Y158.865 E.03138
G1 X203.14 Y159.608 E.03906
G1 X202.481 Y159.965 E.0235
G1 X201.069 Y160.461 E.04692
G1 X199.499 Y160.649 E.04958
G1 X198.229 Y160.671 E.03983
; printing object SusanSpacerM4Bolt.STL id:0 copy 0
;WIPE_START
G1 F8640
G1 X192.47 Y160.77 E-1.33
;WIPE_END
G1 E-.07 F2100
G1 Z.65 F10800
G1 X198.814 Y157.583
G1 Z.45
G1 E1.4 F2100
M204 S800
;TYPE:Perimeter
;WIDTH:0.449999
G1 F1500
G1 X198.604 Y157.559 E.00715
G1 X198.114 Y157.416 E.01728
G1 X197.574 Y157.178 E.01997
G1 X197.02 Y156.83 E.02215
G1 X196.417 Y156.27 E.02786
G1 X196.106 Y155.86 E.01742
G1 X195.749 Y155.209 E.02512
G1 X195.581 Y154.744 E.01675
G1 X195.472 Y154.251 E.01709
G1 X195.419 Y153.533 E.02436
G1 X195.464 Y153.01 E.01777
G1 X195.596 Y152.435 E.01997
G1 X195.839 Y151.812 E.02262
G1 X196.135 Y151.318 E.0195
G1 X196.586 Y150.766 E.02413
G1 X196.986 Y150.417 E.01799
G1 X197.595 Y150.022 E.02455
G1 X198.072 Y149.816 E.01758
G1 X198.807 Y149.62 E.02575
G1 X199.477 Y149.568 E.02276
G1 X200.069 Y149.616 E.0201
G1 X200.553 Y149.719 E.01674
G1 X201.077 Y149.91 E.01889
G1 X201.719 Y150.259 E.02473
G1 X202.124 Y150.576 E.01739
G1 X202.483 Y150.935 E.0172
G1 X202.809 Y151.357 E.01805
G1 X203.106 Y151.871 E.0201
G1 X203.339 Y152.495 E.02255
G1 X203.454 Y153.016 E.01806
G1 X203.498 Y153.533 E.01756
G1 X203.483 Y153.963 E.01456
G1 X203.396 Y154.496 E.01829
G1 X203.196 Y155.083 E.02099
G1 X202.893 Y155.729 E.02417
G1 X202.521 Y156.244 E.0215
G1 X202.159 Y156.613 E.01748
G1 X201.69 Y156.971 E.01997
G1 X201.099 Y157.301 E.02292
G1 X200.564 Y157.49 E.0192
G1 X199.856 Y157.629 E.02443
G1 X199.333 Y157.644 E.01769
G1 X198.874 Y157.59 E.01567
M204 S1000
G1 X198.766 Y157.997 F10800
M204 S800
;TYPE:External perimeter
G1 F1500
G1 X198.203 Y157.872 E.01952
G1 X197.67 Y157.68 E.01917
G1 X197.199 Y157.442 E.01785
G1 X196.76 Y157.143 E.01798
G1 X196.147 Y156.577 E.02824
G1 X195.817 Y156.166 E.01785
