; generated by PrusaSlicer 2.5.0+win64 on 2023-03-07 at 21:13:21 UTC

; 

; external perimeters extrusion width = 0.45mm
; perimeters extrusion width = 0.45mm
; infill extrusion width = 0.45mm
; solid infill extrusion width = 0.45mm
; top infill extrusion width = 0.40mm
; first layer extrusion width = 0.42mm

; external perimeters extrusion width = 0.45mm
; perimeters extrusion width = 0.45mm
; infill extrusion width = 0.45mm
; solid infill extrusion width = 0.45mm
; top infill extrusion width = 0.40mm
; first layer extrusion width = 0.42mm

; external perimeters extrusion width = 0.45mm
; perimeters extrusion width = 0.45mm
; infill extrusion width = 0.45mm
; solid infill extrusion width = 0.45mm
; top infill extrusion width = 0.40mm
; first layer extrusion width = 0.42mm

; external perimeters extrusion width = 0.45mm
; perimeters extrusion width = 0.45mm
; infill extrusion width = 0.45mm
; solid infill extrusion width = 0.45mm
; top infill extrusion width = 0.40mm
; first layer extrusion width = 0.42mm

; external perimeters extrusion width = 0.45mm
; perimeters extrusion width = 0.45mm
; infill extrusion width = 0.45mm
; solid infill extrusion width = 0.45mm
; top infill extrusion width = 0.40mm
; first layer extrusion width = 0.42mm

; external perimeters extrusion width = 0.45mm
; perimeters extrusion width = 0.45mm
; infill extrusion width = 0.45mm
; solid infill extrusion width = 0.45mm
; top infill extrusion width = 0.40mm
; first layer extrusion width = 0.42mm

M73 P0 R24
M107
;TYPE:Custom
M862.3 P "MK2.5S" ; printer model check
M862.1 P0.4 ; nozzle diameter check
M115 U3.10.0 ; tell printer latest fw version
G90 ; use absolute coordinates
M83  ; extruder relative mode
M104 S235 ; set extruder temp
M140 S90 ; set bed temp
M190 S90 ; wait for bed temp
M109 S235 ; wait for extruder temp
G28 W ; home all without mesh bed level
G80 ; mesh bed leveling
G1 Y-3.0 F1000.0 ; go outside print area
G92 E0.0
G1 X60.0 E9.0 F1000.0 ; intro line
G1 X100.0 E12.5 F1000.0 ; intro line
G92 E0.0
G21 ; set units to millimeters
G90 ; use absolute coordinates
M83 ; use relative distances for extrusion
M900 K0.08 ; Filament gcode LA 1.5
M900 K45 ; Filament gcode LA 1.0
M107
;LAYER_CHANGE
;Z:0.2
;HEIGHT:0.2
;BEFORE_LAYER_CHANGE
G92 E0.0
;0.2


M73 P0 R23
G1 E-1.4 F2100
G1 Z.2 F10800
;AFTER_LAYER_CHANGE
;0.2
G1 Z.4
G1 X46.759 Y98.053
G1 Z.2
G1 E1.4 F2100
M204 S1000
;TYPE:Skirt/Brim
;WIDTH:0.42
G1 F900
G1 X48.251 Y97.456 E.05039
G1 X49.039 Y97.288 E.02524
G1 X50.107 Y97.204 E.03361
G1 X200.476 Y97.23 E4.71469
G1 X201.811 Y97.36 E.04206
M73 P1 R23
G1 X203.094 Y97.737 E.04193
G1 X204.508 Y98.5 E.05039
G1 X205.341 Y99.181 E.03373
G1 X206.217 Y100.192 E.04193
G1 X206.994 Y101.599 E.05039
G1 X207.326 Y102.622 E.03373
G1 X207.525 Y104.178 E.04918
G1 X206.648 Y175.598 E2.2395
G1 X206.515 Y176.592 E.03145
G1 X206.324 Y177.318 E.02353
G1 X205.839 Y178.466 E.03909
G1 X205.453 Y179.11 E.02353
G1 X204.833 Y179.898 E.03145
G1 X204.3 Y180.427 E.02353
G1 X203.299 Y181.17 E.03909
G1 X202.64 Y181.528 E.02353
G1 X201.226 Y182.024 E.04699
G1 X199.618 Y182.213 E.05075
G1 X50.553 Y181.871 E4.67385
G1 X49.683 Y181.814 E.02732
M73 P2 R23
G1 X48.476 Y181.554 E.03873
G1 X47.766 Y181.292 E.02371
G1 X46.887 Y180.836 E.03106
G1 X45.875 Y180.088 E.03948
G1 X45.345 Y179.564 E.02334
G1 X44.867 Y178.978 E.02371
G1 X44.34 Y178.139 E.03108
G1 X43.86 Y177.014 E.03835
G1 X43.655 Y176.249 E.02482
G1 X43.508 Y174.721 E.04813
G1 X43.057 Y104.138 E2.21313
G1 X43.15 Y103.119 E.03209
G1 X43.325 Y102.333 E.02524
G1 X43.588 Y101.573 E.02524
G1 X44.212 Y100.39 E.04193
G1 X45.241 Y99.155 E.05039
G1 X46.074 Y98.475 E.03373
G1 X46.708 Y98.084 E.02336
; printing object SusanSpacerM4Bolt.STL id:0 copy 0
;WIPE_START
G1 F8640
G1 X48.251 Y97.456 E-.38476
G1 X49.039 Y97.288 E-.18585
G1 X50.107 Y97.204 E-.2475
G1 X52.324 Y97.205 E-.51189
;WIPE_END
G1 E-.07 F2100
G1 Z.4 F10800
G1 X198.987 Y171.326
G1 Z.2
G1 E1.4 F2100
;TYPE:Perimeter
;WIDTH:0.419999
G1 F900
G1 X199.613 Y171.276 E.01969
G1 X200.207 Y171.323 E.01871
G1 X200.658 Y171.419 E.01443
G1 X201.153 Y171.598 E.01651
G1 X201.661 Y171.864 E.01798
G1 X202.137 Y172.21 E.01847
G1 X202.564 Y172.641 E.01899
G1 X202.93 Y173.142 E.01948
G1 X203.189 Y173.654 E.01798
G1 X203.392 Y174.263 E.02012
G1 X203.497 Y175.082 E.0259
G1 X203.483 Y175.496 E.01297
G1 X203.403 Y175.998 E.01595
G1 X203.201 Y176.65 E.02141
G1 X202.972 Y177.108 E.01606
G1 X202.647 Y177.581 E.01798
G1 X202.225 Y178.037 E.01948
G1 X201.771 Y178.387 E.01798
G1 X201.196 Y178.71 E.02068
G1 X200.723 Y178.882 E.01577
G1 X200.025 Y179.026 E.02234
G1 X199.511 Y179.043 E.01615
G1 X198.94 Y178.985 E.01798
G1 X198.338 Y178.831 E.01948
G1 X197.813 Y178.601 E.01798
G1 X197.276 Y178.266 E.01984
G1 X196.855 Y177.894 E.01762
G1 X196.419 Y177.375 E.02124
G1 X196.156 Y176.929 E.01623
G1 X195.899 Y176.306 E.02113
G1 X195.781 Y175.799 E.01634
G1 X195.731 Y175.227 E.01798
G1 X195.767 Y174.607 E.01948
G1 X195.894 Y174.048 E.01798
G1 X196.128 Y173.441 E.0204
G1 X196.406 Y172.973 E.01706
G1 X196.827 Y172.45 E.02105
G1 X197.22 Y172.103 E.01642
G1 X197.799 Y171.725 E.02169
G1 X198.259 Y171.521 E.01578
G1 X198.929 Y171.341 E.02173
G1 X198.931 Y170.952 F10800
;TYPE:External perimeter
G1 F900
G1 X199.613 Y170.897 E.02143
G1 X200.238 Y170.948 E.01966
G1 X200.776 Y171.061 E.01725
G1 X201.308 Y171.255 E.01776
G1 X201.969 Y171.608 E.0235
G1 X202.393 Y171.933 E.01674
G1 X202.966 Y172.528 E.0259
G1 X203.26 Y172.959 E.01636
G1 X203.536 Y173.507 E.01924
G1 X203.706 Y173.989 E.01603
G1 X203.831 Y174.552 E.01807
G1 X203.874 Y175.092 E.01698
G1 X203.816 Y175.849 E.02379
G1 X203.705 Y176.35 E.01609
G1 X203.522 Y176.859 E.01699
G1 X203.292 Y177.308 E.01581
G1 X202.821 Y177.97 E.02545
G1 X202.466 Y178.327 E.01581
G1 X201.98 Y178.701 E.01924
G1 X201.534 Y178.962 E.01619
G1 X201.045 Y179.174 E.0167
M73 P3 R23
G1 X200.556 Y179.318 E.01598
G1 X200.021 Y179.404 E.01699
G1 X199.491 Y179.42 E.01665
G1 X198.711 Y179.33 E.02461
G1 X198.201 Y179.182 E.01664
G1 X197.486 Y178.856 E.02462
G1 X197.035 Y178.557 E.01699
G1 X196.585 Y178.157 E.01888
G1 X196.241 Y177.764 E.01636
G1 X195.932 Y177.308 E.01726
G1 X195.703 Y176.859 E.01581
G1 X195.519 Y176.35 E.01699
G1 X195.408 Y175.849 E.01609
G1 X195.349 Y175.048 E.02517
G1 X195.396 Y174.537 E.01608
G1 X195.588 Y173.757 E.02518
G1 X195.798 Y173.258 E.01699
G1 X196.232 Y172.564 E.02566
G1 X196.589 Y172.157 E.01699
G1 X196.995 Y171.801 E.01693
G1 X197.646 Y171.378 E.02433
G1 X198.141 Y171.163 E.01692
G1 X198.873 Y170.967 E.02377
G1 X199.184 Y171.262 F10800
;WIPE_START
G1 F8640
G1 X199.613 Y170.897 E-.17146
G1 X200.238 Y170.948 E-.14479
G1 X200.776 Y171.061 E-.12704
G1 X201.308 Y171.255 E-.13081
G1 X201.969 Y171.608 E-.17305
G1 X202.393 Y171.933 E-.1233
G1 X202.966 Y172.528 E-.19077
G1 X203.26 Y172.959 E-.1205
G1 X203.536 Y173.507 E-.14167
G1 X203.546 Y173.534 E-.0066
;WIPE_END
G1 E-.07 F2100
G1 Z.4 F10800
G1 X198.898 Y172.27
G1 Z.2
G1 E1.4 F2100
;TYPE:Perimeter
G1 F900
G1 X199.535 Y172.179 E.02017
G1 X200.121 Y172.229 E.01843
G1 X200.688 Y172.376 E.01838
G1 X201.175 Y172.617 E.01704
G1 X201.523 Y172.868 E.01344
G1 X201.953 Y173.316 E.01946
G1 X202.305 Y173.875 E.02072
G1 X202.489 Y174.356 E.01617
G1 X202.583 Y174.862 E.01613
G1 X202.587 Y175.384 E.01636
G1 X202.535 Y175.773 E.0123
G1 X202.363 Y176.312 E.01774
G1 X202.215 Y176.626 E.0109
G1 X201.858 Y177.121 E.01913
G1 X201.374 Y177.572 E.02072
G1 X200.948 Y177.834 E.0157
G1 X200.498 Y178.012 E.01514
G1 X199.943 Y178.126 E.01779
G1 X199.569 Y178.148 E.01174
G1 X198.989 Y178.077 E.0183
G1 X198.361 Y177.871 E.02072
G1 X197.906 Y177.614 E.0164
G1 X197.51 Y177.283 E.01617
G1 X197.181 Y176.89 E.01608
G1 X196.968 Y176.55 E.01258
G1 X196.861 Y176.312 E.00819
G1 X196.689 Y175.773 E.01775
G1 X196.626 Y175.269 E.0159
G1 X196.651 Y174.776 E.01549
G1 X196.808 Y174.15 E.02025
G1 X197.082 Y173.575 E.01997
G1 X197.412 Y173.143 E.01704
G1 X197.746 Y172.83 E.01434
G1 X198.23 Y172.52 E.01802
G1 X198.839 Y172.28 E.02054
G1 X198.958 Y172.638 F10800
;TYPE:External perimeter
G1 F900
G1 X199.579 Y172.553 E.01963
G1 X200.079 Y172.604 E.01576
G1 X200.574 Y172.735 E.01607
G1 X201.033 Y172.978 E.01628
G1 X201.503 Y173.369 E.01914
G1 X201.811 Y173.755 E.01549
G1 X202.061 Y174.277 E.01816
G1 X202.203 Y174.848 E.01844
G1 X202.212 Y175.341 E.01545
G1 X202.1 Y175.933 E.01891
G1 X201.91 Y176.401 E.01584
G1 X201.577 Y176.87 E.01804
G1 X201.134 Y177.281 E.01891
G1 X200.722 Y177.521 E.01497
G1 X200.141 Y177.711 E.01914
G1 X199.627 Y177.772 E.01625
G1 X199.075 Y177.71 E.01739
G1 X198.502 Y177.521 E.01891
G1 X198.09 Y177.281 E.01497
G1 X197.648 Y176.871 E.01891
G1 X197.326 Y176.421 E.01733
G1 X197.205 Y176.157 E.00909
G1 X197.052 Y175.673 E.01594
G1 X197.009 Y175.102 E.01795
G1 X197.088 Y174.504 E.01891
G1 X197.25 Y174.055 E.01497
G1 X197.571 Y173.544 E.01891
G1 X197.94 Y173.157 E.01677
G1 X198.397 Y172.858 E.01711
G1 X198.903 Y172.66 E.01703
G1 X199.067 Y172.253 F10800
;WIPE_START
G1 F8640
G1 X199.579 Y172.553 E-.15805
G1 X200.079 Y172.604 E-.1161
G1 X200.574 Y172.735 E-.11837
G1 X201.033 Y172.978 E-.1199
G1 X201.503 Y173.369 E-.14098
G1 X201.811 Y173.755 E-.11407
G1 X202.061 Y174.277 E-.13373
G1 X202.203 Y174.848 E-.13579
G1 X202.212 Y175.341 E-.11377
G1 X202.1 Y175.933 E-.13926
G1 X202.035 Y176.093 E-.03996
;WIPE_END
G1 E-.07 F2100
G1 Z.4 F10800
G1 X201.367 Y171.822
G1 Z.2
G1 E1.4 F2100
;TYPE:Solid infill
;WIDTH:0.421913
G1 F900
G1 X202.201 Y172.656 E.03717
G1 X202.447 Y172.936 E.01173
G1 X202.667 Y173.25 E.01209
G1 X202.853 Y173.586 E.01209
G1 X203.025 Y174.016 E.0146
G1 X200.51 Y171.5 E.11211
G1 X200.758 Y172.285 F10800
G1 F900
G1 X200.069 Y171.596 E.03069
G1 X199.633 Y171.561 E.01379
G1 X199.508 Y171.57 E.00397
G1 X199.863 Y171.926 E.01584
G1 X199.539 Y171.894 E.01027
G1 X199.322 Y171.92 E.0069
G1 X199.011 Y171.61 E.01383
G1 X198.579 Y171.713 E.01402
G1 X198.849 Y171.984 E.01205
G1 X198.443 Y172.114 E.01343
G1 X198.186 Y171.857 E.01145
G1 X197.829 Y172.036 E.01259
G1 X198.076 Y172.282 E.011
G1 X197.943 Y172.349 E.00467
G1 X197.744 Y172.487 E.00764
G1 X197.503 Y172.246 E.01075
G1 X197.206 Y172.485 E.01201
G1 X197.447 Y172.726 E.01072
G1 X197.171 Y172.986 E.01195
G1 X196.938 Y172.753 E.01037
G1 X196.778 Y172.936 E.00768
G1 X196.699 Y173.049 E.00434
G1 X196.941 Y173.291 E.01079
G1 X196.845 Y173.419 E.00502
G1 X196.738 Y173.624 E.00731
G1 X196.491 Y173.378 E.01099
G1 X196.31 Y173.732 E.01255
G1 X196.566 Y173.989 E.01143
G1 X196.439 Y174.397 E.01349
G1 X196.166 Y174.125 E.01216
G1 X196.064 Y174.558 E.01404
G1 X196.365 Y174.859 E.0134
G1 X196.343 Y175.277 E.0132
G1 X196.356 Y175.386 E.00344
G1 X196.012 Y175.042 E.01532
G1 X196.02 Y175.449 E.01283
G1 X196.041 Y175.608 E.00504
G1 X196.732 Y176.298 E.03077
;WIPE_START
G1 F8640
G1 X196.041 Y175.608 E-.22543
G1 X196.02 Y175.449 E-.03691
G1 X196.012 Y175.042 E-.09401
G1 X196.356 Y175.386 E-.11228
G1 X196.343 Y175.277 E-.02523
G1 X196.365 Y174.859 E-.0967
G1 X196.064 Y174.558 E-.09819
G1 X196.166 Y174.125 E-.10289
G1 X196.439 Y174.397 E-.08907
G1 X196.566 Y173.989 E-.09886
G1 X196.31 Y173.732 E-.08378
G1 X196.491 Y173.378 E-.09193
G1 X196.738 Y173.624 E-.08051
G1 X196.845 Y173.419 E-.05358
G1 X196.941 Y173.291 E-.03677
G1 X196.929 Y173.279 E-.00385
;WIPE_END
G1 E-.07 F2100
G1 Z.4 F10800
G1 X202.485 Y174.012
G1 Z.2
G1 E1.4 F2100
G1 F900
G1 X203.185 Y174.711 E.03119
G1 X203.214 Y175.066 E.01121
G1 X203.209 Y175.272 E.00649
G1 X202.869 Y174.931 E.01517
G1 X202.88 Y175.228 E.00937
G1 X202.857 Y175.456 E.00721
G1 X203.162 Y175.761 E.01359
G1 X203.056 Y176.19 E.01394
G1 X202.784 Y175.918 E.01213
G1 X202.663 Y176.334 E.01363
G1 X202.919 Y176.59 E.01141
G1 X202.74 Y176.947 E.01258
G1 X202.494 Y176.701 E.01095
G1 X202.289 Y177.032 E.01226
G1 X202.53 Y177.272 E.01074
G1 X202.291 Y177.569 E.01201
G1 X202.048 Y177.327 E.0108
G1 X201.898 Y177.501 E.00724
G1 X201.782 Y177.596 E.00475
G1 X202.023 Y177.837 E.01073
G1 X201.727 Y178.077 E.01201
G1 X201.488 Y177.839 E.01062
G1 X201.15 Y178.036 E.01235
G1 X201.401 Y178.287 E.01119
G1 X201.043 Y178.466 E.01259
G1 X200.784 Y178.207 E.01154
G1 X200.636 Y178.266 E.00503
G1 X200.373 Y178.332 E.00854
G1 X200.65 Y178.608 E.01233
G1 X200.374 Y178.684 E.00902
G1 X200.215 Y178.709 E.00507
G1 X199.911 Y178.405 E.01355
G1 X199.612 Y178.433 E.00945
G1 X199.382 Y178.412 E.0073
G1 X199.729 Y178.759 E.01547
G1 X199.169 Y178.735 E.01766
G1 X198.467 Y178.033 E.03128
G1 X198.722 Y178.825 F10800
G1 F900
G1 X196.197 Y176.299 E.11255
G1 X196.292 Y176.563 E.00882
G1 X196.46 Y176.908 E.01209
G1 X196.663 Y177.233 E.01209
G1 X196.9 Y177.535 E.01209
G1 X197.859 Y178.497 E.04281
; stop printing object SusanSpacerM4Bolt.STL id:0 copy 0
;LAYER_CHANGE
;Z:0.4
;HEIGHT:0.2
;BEFORE_LAYER_CHANGE
G92 E0.0
;0.4


;WIPE_START
G1 F8640
G1 X196.9 Y177.535 E-.31365
G1 X196.663 Y177.233 E-.08857
G1 X196.46 Y176.908 E-.08857
G1 X196.292 Y176.563 E-.08857
G1 X196.197 Y176.299 E-.06464
G1 X198.298 Y178.4 E-.686
;WIPE_END
G1 E-.07 F2100
G1 Z.4 F10800
;AFTER_LAYER_CHANGE
;0.4
G1 Z.6
G1 X198.289 Y182.21
G1 Z.4
G1 E1.4 F2100
;TYPE:Skirt/Brim
;WIDTH:0.42
G1 F3000
G1 X50.553 Y181.871 E4.63218
G1 X49.683 Y181.814 E.02732
G1 X48.476 Y181.554 E.03873
G1 X47.766 Y181.292 E.02371
G1 X46.887 Y180.836 E.03106
G1 X45.875 Y180.088 E.03948
G1 X45.345 Y179.564 E.02334
G1 X44.867 Y178.978 E.02371
G1 X44.34 Y178.139 E.03108
G1 X43.86 Y177.014 E.03835
G1 X43.655 Y176.249 E.02482
G1 X43.508 Y174.721 E.04813
G1 X43.057 Y104.138 E2.21313
G1 X43.15 Y103.119 E.03209
G1 X43.325 Y102.333 E.02524
G1 X43.588 Y101.573 E.02524
G1 X44.212 Y100.39 E.04193
G1 X45.241 Y99.155 E.05039
G1 X46.074 Y98.475 E.03373
G1 X46.759 Y98.053 E.02524
G1 X48.251 Y97.456 E.05039
G1 X49.039 Y97.288 E.02524
G1 X50.107 Y97.204 E.03361
G1 X200.476 Y97.23 E4.71469
G1 X201.811 Y97.36 E.04206
M73 P4 R23
G1 X203.094 Y97.737 E.04193
G1 X204.508 Y98.5 E.05039
G1 X205.341 Y99.181 E.03373
G1 X206.217 Y100.192 E.04193
G1 X206.994 Y101.599 E.05039
G1 X207.326 Y102.622 E.03373
G1 X207.525 Y104.178 E.04918
G1 X206.648 Y175.598 E2.2395
G1 X206.515 Y176.592 E.03145
G1 X206.324 Y177.318 E.02353
G1 X205.839 Y178.466 E.03909
G1 X205.453 Y179.11 E.02353
G1 X204.833 Y179.898 E.03145
G1 X204.3 Y180.427 E.02353
G1 X203.299 Y181.17 E.03909
G1 X202.64 Y181.528 E.02353
G1 X201.226 Y182.024 E.04699
G1 X199.618 Y182.213 E.05075
G1 X198.349 Y182.21 E.0398
; printing object SusanSpacerM4Bolt.STL id:0 copy 0
;WIPE_START
G1 F8640
G1 X192.589 Y182.197 E-1.33
;WIPE_END
G1 E-.07 F2100
G1 Z.6 F10800
G1 X198.312 Y178.987
G1 Z.4
G1 E1.4 F2100
M204 S800
;TYPE:Perimeter
;WIDTH:0.449999
G1 F1500
G1 X197.728 Y178.731 E.02158
G1 X197.174 Y178.383 E.02215
G1 X196.733 Y177.991 E.01997
G1 X196.287 Y177.458 E.02353
G1 X196.01 Y176.983 E.01859
G1 X195.734 Y176.297 E.02503
G1 X195.626 Y175.804 E.01709
G1 X195.572 Y175.086 E.02436
G1 X195.617 Y174.563 E.01777
G1 X195.777 Y173.899 E.02311
G1 X195.993 Y173.365 E.0195
G1 X196.318 Y172.854 E.02051
G1 X196.764 Y172.298 E.02413
G1 X197.215 Y171.914 E.02003
G1 X197.748 Y171.575 E.02141
G1 X198.225 Y171.369 E.01758
G1 X198.96 Y171.173 E.02576
G1 X199.628 Y171.121 E.02268
G1 X200.223 Y171.169 E.02017
G1 X200.706 Y171.272 E.01674
G1 X201.231 Y171.464 E.01889
G1 X201.873 Y171.813 E.02473
G1 X202.277 Y172.129 E.01739
G1 X202.791 Y172.666 E.02515
G1 X203.073 Y173.08 E.01698
G1 X203.312 Y173.547 E.01773
G1 X203.492 Y174.049 E.01805
G1 X203.608 Y174.57 E.01805
G1 X203.652 Y175.086 E.01756
M73 P4 R22
G1 X203.637 Y175.516 E.01456
G1 X203.558 Y176.016 E.01712
G1 X203.41 Y176.528 E.01805
G1 X203.198 Y177.017 E.01805
G1 X202.899 Y177.511 E.01951
G1 X202.454 Y178.029 E.02314
G1 X202.05 Y178.383 E.01816
G1 X201.635 Y178.659 E.01687
G1 X201.187 Y178.88 E.01693
G1 X200.498 Y179.104 E.02452
G1 X200.009 Y179.182 E.01675
G1 X199.487 Y179.197 E.01769
G1 X198.808 Y179.12 E.02312
G1 X198.37 Y179.003 E.01537
M204 S1000
G1 X198.164 Y179.366 F10800
M204 S800
;TYPE:External perimeter
G1 F1500
G1 X197.54 Y179.092 E.02305
G1 X197.105 Y178.831 E.01718
G1 X196.635 Y178.466 E.02015
G1 X196.263 Y178.092 E.01785
G1 X195.942 Y177.673 E.01785
G1 X195.644 Y177.161 E.02006
G1 X195.399 Y176.577 E.02144
