; generated by PrusaSlicer 2.5.0+win64 on 2023-02-21 at 13:08:58 UTC

; 

; external perimeters extrusion width = 0.45mm
; perimeters extrusion width = 0.45mm
; infill extrusion width = 0.45mm
; solid infill extrusion width = 0.45mm
; top infill extrusion width = 0.40mm
; first layer extrusion width = 0.42mm

; external perimeters extrusion width = 0.45mm
; perimeters extrusion width = 0.45mm
; infill extrusion width = 0.45mm
; solid infill extrusion width = 0.45mm
; top infill extrusion width = 0.40mm
; first layer extrusion width = 0.42mm

M73 P0 R28
M107
;TYPE:Custom
M862.3 P "MK2.5S" ; printer model check
M862.1 P0.4 ; nozzle diameter check
M115 U3.10.0 ; tell printer latest fw version
G90 ; use absolute coordinates
M83  ; extruder relative mode
M104 S250 ; set extruder temp
M140 S90 ; set bed temp
M190 S90 ; wait for bed temp
M109 S250 ; wait for extruder temp
G28 W ; home all without mesh bed level
G80 ; mesh bed leveling
G1 Y-3.0 F1000.0 ; go outside print area
G92 E0.0
G1 X60.0 E9.0 F1000.0 ; intro line
G1 X100.0 E12.5 F1000.0 ; intro line
G92 E0.0
G21 ; set units to millimeters
G90 ; use absolute coordinates
M83 ; use relative distances for extrusion
M900 K0.08 ; Filament gcode LA 1.5
M900 K45 ; Filament gcode LA 1.0
M107
;LAYER_CHANGE
;Z:0.2
;HEIGHT:0.2
;BEFORE_LAYER_CHANGE
G92 E0.0
;0.2


G1 E-1.4 F2100
G1 Z.2 F10800
;AFTER_LAYER_CHANGE
;0.2
G1 Z.4
G1 X39.894 Y32.984
G1 Z.2
G1 E1.4 F2100
M204 S1000
;TYPE:Skirt/Brim
;WIDTH:0.42
G1 F600
G1 X42.979 Y30.27 E.12881
G1 X44.549 Y29.678 E.05261
G1 X79.109 Y29.678 E1.08359
G1 X80.661 Y30.256 E.05194
G1 X192.892 Y127.13 E4.64851
G1 X193.693 Y128.749 E.05664
M73 P1 R27
G1 X195.583 Y155.775 E.84945
G1 X194.996 Y157.511 E.05744
G1 X192.238 Y160.647 E.13094
G1 X190.592 Y161.45 E.05744
G1 X182.796 Y161.903 E.24484
G1 X176.877 Y162.109 E.18568
G1 X170.986 Y162.177 E.18473
G1 X165.037 Y162.109 E.18655
G1 X159.119 Y161.903 E.18568
G1 X151.323 Y161.45 E.24484
G1 X149.908 Y160.877 E.04785
G1 X40.78 Y66.73 E4.519
G1 X37.79 Y63.365 E.14117
M73 P2 R27
G1 X37.203 Y61.629 E.05744
G1 X39.093 Y34.603 E.84945
G1 X39.868 Y33.037 E.05476
;WIPE_START
M73 P3 R27
G1 F8640
G1 X42.979 Y30.27 E-.9614
G1 X44.473 Y29.707 E-.3686
;WIPE_END
G1 E-.07 F2100
G1 Z.4 F10800
G1 X151.733 Y128.354
G1 Z.2
G1 E1.4 F2100
G1 F600
G1 X152.695 Y127.456 E.04128
G1 X153.84 Y126.842 E.04074
G1 X155.075 Y126.588 E.03952
G1 X160.688 Y126.897 E.17628
G1 X165.823 Y127.077 E.1611
G1 X170.957 Y127.136 E.16098
G1 X176.091 Y127.077 E.16098
G1 X181.225 Y126.897 E.16107
G1 X186.848 Y126.591 E.17655
G1 X188.096 Y126.853 E.04
G1 X189.314 Y127.521 E.04354
G1 X190.45 Y128.706 E.05148
G1 X190.905 Y129.601 E.0315
G1 X191.149 Y130.55 E.03072
G1 X192.817 Y154.402 E.74967
G1 X192.489 Y155.966 E.05009
G1 X192.025 Y156.827 E.0307
G1 X191.356 Y157.619 E.03249
G1 X190.462 Y158.313 E.03547
G1 X188.89 Y158.881 E.05242
G1 X182.718 Y159.24 E.19385
G1 X176.856 Y159.445 E.18392
G1 X170.977 Y159.514 E.18433
G1 X165.054 Y159.445 E.18571
G1 X159.179 Y159.239 E.18433
G1 X153.109 Y158.886 E.19066
G1 X151.866 Y158.527 E.04057
G1 X150.826 Y157.87 E.03856
G1 X149.821 Y156.726 E.04774
G1 X149.318 Y155.658 E.03701
G1 X149.099 Y154.39 E.04035
G1 X150.765 Y130.565 E.74884
G1 X151.013 Y129.588 E.03161
G1 X151.703 Y128.406 E.0429
G1 X152.011 Y128.61 F10800
G1 F600
G1 X152.897 Y127.775 E.03816
G1 X153.946 Y127.205 E.03743
G1 X155.079 Y126.966 E.03632
G1 X160.672 Y127.274 E.17561
G1 X165.815 Y127.454 E.16136
M73 P4 R27
G1 X170.957 Y127.513 E.16126
G1 X176.1 Y127.454 E.16126
G1 X181.242 Y127.274 E.16133
G1 X186.844 Y126.969 E.1759
G1 X187.941 Y127.198 E.03516
G1 X189.064 Y127.805 E.04
G1 X190.128 Y128.903 E.04796
G1 X190.546 Y129.717 E.02867
G1 X190.774 Y130.594 E.02843
G1 X192.439 Y154.402 E.7483
G1 X192.144 Y155.812 E.04516
G1 X191.724 Y156.6 E.02799
G1 X191.08 Y157.361 E.03126
G1 X190.304 Y157.969 E.03092
G1 X188.84 Y158.506 E.04889
G1 X182.702 Y158.863 E.19276
G1 X176.849 Y159.068 E.18364
G1 X170.975 Y159.137 E.18419
G1 X165.065 Y159.068 E.1853
M73 P4 R26
G1 X159.195 Y158.863 E.18419
G1 X153.151 Y158.511 E.1898
G1 X152.042 Y158.193 E.03617
G1 X151.09 Y157.599 E.03521
G1 X150.149 Y156.539 E.04442
G1 X149.685 Y155.566 E.03379
G1 X149.476 Y154.393 E.03736
G1 X151.14 Y130.609 E.74756
G1 X151.372 Y129.708 E.02918
G1 X151.981 Y128.662 E.03796
G1 X152.291 Y128.864 F10800
G1 F600
G1 X153.101 Y128.093 E.03507
G1 X154.054 Y127.567 E.03411
G1 X155.084 Y127.344 E.03307
G1 X160.655 Y127.651 E.17491
G1 X165.806 Y127.831 E.16161
G1 X170.957 Y127.891 E.16153
G1 X176.109 Y127.831 E.16153
G1 X181.259 Y127.651 E.16158
G1 X186.84 Y127.347 E.17525
G1 X187.789 Y127.544 E.03038
G1 X188.815 Y128.09 E.03647
G1 X189.807 Y129.103 E.04444
G1 X190.187 Y129.834 E.02583
G1 X190.399 Y130.639 E.02609
M73 P5 R26
G1 X192.061 Y154.402 E.74691
G1 X191.798 Y155.66 E.04028
G1 X191.422 Y156.372 E.02525
G1 X190.804 Y157.104 E.03003
G1 X190.144 Y157.627 E.02641
G1 X188.789 Y158.132 E.04532
G1 X182.687 Y158.487 E.19165
G1 X176.842 Y158.691 E.18337
G1 X170.973 Y158.759 E.18406
G1 X165.076 Y158.691 E.18489
G1 X159.21 Y158.486 E.18405
G1 X153.194 Y158.136 E.18896
G1 X152.217 Y157.858 E.03184
G1 X151.351 Y157.326 E.03185
G1 X150.477 Y156.35 E.0411
G1 X150.051 Y155.473 E.03057
G1 X149.854 Y154.395 E.03433
G1 X151.514 Y130.653 E.74624
G1 X151.73 Y129.828 E.02674
G1 X152.261 Y128.916 E.0331
G1 X152.571 Y129.118 F10800
G1 F600
G1 X153.344 Y128.382 E.03348
G1 X154.163 Y127.929 E.02935
G1 X155.09 Y127.722 E.02979
G1 X160.638 Y128.027 E.1742
G1 X165.797 Y128.208 E.16187
G1 X170.957 Y128.268 E.16181
G1 X176.117 Y128.208 E.16181
G1 X181.276 Y128.027 E.16184
G1 X186.836 Y127.725 E.1746
G1 X187.638 Y127.89 E.02567
G1 X188.569 Y128.377 E.03294
G1 X189.486 Y129.303 E.04084
G1 X189.843 Y129.989 E.02426
G1 X190.024 Y130.682 E.02247
G1 X191.683 Y154.403 E.74555
G1 X191.451 Y155.509 E.03544
G1 X191.12 Y156.145 E.02248
G1 X190.527 Y156.847 E.02881
G1 X189.981 Y157.285 E.02196
G1 X188.738 Y157.757 E.04168
G1 X182.672 Y158.11 E.19053
G1 X176.836 Y158.314 E.18309
M73 P6 R26
G1 X170.97 Y158.382 E.18392
G1 X165.087 Y158.314 E.18447
G1 X159.225 Y158.109 E.18391
G1 X153.236 Y157.76 E.18812
G1 X152.389 Y157.522 E.02757
G1 X151.611 Y157.052 E.0285
G1 X150.802 Y156.158 E.03779
G1 X150.416 Y155.376 E.02734
G1 X150.232 Y154.397 E.03124
G1 X151.889 Y130.698 E.7449
G1 X152.088 Y129.949 E.02427
G1 X152.54 Y129.17 E.02825
G1 X152.866 Y129.36 F10800
G1 F600
G1 X153.583 Y128.674 E.0311
G1 X154.32 Y128.273 E.0263
G1 X155.095 Y128.1 E.02492
G1 X160.621 Y128.404 E.1735
G1 X165.788 Y128.585 E.16212
G1 X170.957 Y128.645 E.16208
G1 X176.126 Y128.585 E.16208
G1 X181.293 Y128.404 E.1621
G1 X186.787 Y128.099 E.17253
G1 X187.491 Y128.238 E.02249
G1 X188.325 Y128.666 E.02938
G1 X189.166 Y129.504 E.03726
G1 X189.484 Y130.108 E.02138
G1 X189.649 Y130.727 E.0201
G1 X191.305 Y154.402 E.74412
G1 X191.089 Y155.403 E.0321
G1 X190.798 Y155.949 E.0194
G1 X190.253 Y156.588 E.02634
G1 X189.77 Y156.972 E.01935
G1 X188.688 Y157.382 E.03629
G1 X182.656 Y157.733 E.18942
G1 X176.825 Y157.937 E.18295
G1 X170.968 Y158.005 E.18365
G1 X165.098 Y157.937 E.18406
G1 X159.245 Y157.732 E.18364
G1 X153.279 Y157.385 E.18738
G1 X152.519 Y157.167 E.02479
G1 X151.833 Y156.745 E.02524
G1 X151.101 Y155.927 E.03444
G1 X150.781 Y155.279 E.02264
G1 X150.61 Y154.398 E.02814
G1 X152.264 Y130.741 E.74357
G1 X152.427 Y130.116 E.02024
M73 P7 R26
G1 X152.836 Y129.412 E.02555
G1 X153.162 Y129.601 F10800
G1 F600
G1 X153.194 Y129.547 E.00197
G1 X153.822 Y128.967 E.02678
G1 X154.431 Y128.634 E.02179
G1 X155.102 Y128.478 E.02161
G1 X160.604 Y128.781 E.17276
G1 X165.779 Y128.962 E.16238
G1 X170.957 Y129.022 E.16236
G1 X176.135 Y128.962 E.16236
G1 X181.31 Y128.781 E.16237
G1 X186.741 Y128.474 E.17054
G1 X187.347 Y128.588 E.01934
G1 X188.083 Y128.956 E.02579
G1 X188.848 Y129.709 E.03365
G1 X189.126 Y130.228 E.01848
G1 X189.274 Y130.772 E.01768
G1 X190.927 Y154.4 E.74264
G1 X190.727 Y155.293 E.02868
G1 X190.478 Y155.749 E.0163
G1 X189.98 Y156.327 E.02392
G1 X189.56 Y156.657 E.01675
G1 X188.637 Y157.007 E.03094
G1 X182.641 Y157.356 E.18832
G1 X176.814 Y157.56 E.18281
G1 X170.966 Y157.628 E.18337
G1 X165.109 Y157.56 E.18365
G1 X159.265 Y157.356 E.18336
G1 X153.323 Y157.01 E.18662
G1 X152.651 Y156.813 E.02194
G1 X152.057 Y156.441 E.02197
G1 X151.4 Y155.697 E.03113
G1 X151.146 Y155.18 E.01806
G1 X150.988 Y154.399 E.025
G1 X152.639 Y130.784 E.74224
G1 X152.767 Y130.283 E.01621
G1 X153.132 Y129.653 E.02283
G1 X153.452 Y129.838 F10800
G1 F600
G1 X154.061 Y129.26 E.02632
G1 X154.542 Y128.995 E.01722
G1 X155.161 Y128.851 E.01994
G1 X160.586 Y129.158 E.17037
G1 X165.771 Y129.339 E.16265
G1 X170.957 Y129.399 E.16263
G1 X176.144 Y129.339 E.16263
M73 P8 R25
G1 X181.328 Y129.158 E.16263
G1 X186.74 Y128.852 E.16997
G1 X187.206 Y128.938 E.01487
G1 X187.843 Y129.249 E.02222
G1 X188.531 Y129.915 E.03004
G1 X188.769 Y130.352 E.01558
G1 X188.9 Y130.818 E.01519
G1 X190.549 Y154.399 E.74116
G1 X190.383 Y155.138 E.02374
G1 X190.178 Y155.519 E.01357
G1 X189.705 Y156.069 E.02274
G1 X189.395 Y156.317 E.01246
G1 X188.585 Y156.633 E.02725
G1 X182.626 Y156.98 E.18716
G1 X176.803 Y157.183 E.18268
G1 X170.964 Y157.251 E.1831
G1 X165.12 Y157.183 E.18323
G1 X159.28 Y156.979 E.18323
G1 X153.366 Y156.635 E.18575
G1 X152.825 Y156.477 E.01765
G1 X152.319 Y156.168 E.0186
G1 X151.725 Y155.503 E.02796
G1 X151.509 Y155.076 E.01499
G1 X151.366 Y154.398 E.02175
G1 X153.014 Y130.828 E.74083
G1 X153.125 Y130.402 E.01378
G1 X153.422 Y129.889 E.01858
G1 X153.748 Y130.078 F10800
G1 F600
G1 X153.782 Y130.02 E.00213
G1 X154.297 Y129.555 E.02175
G1 X154.657 Y129.355 E.01293
G1 X155.169 Y129.229 E.01653
G1 X160.569 Y129.534 E.16958
G1 X165.762 Y129.716 E.16291
G1 X170.957 Y129.776 E.16291
G1 X176.153 Y129.716 E.16291
G1 X181.345 Y129.534 E.16291
G1 X186.698 Y129.227 E.16812
G1 X187.07 Y129.291 E.01184
G1 X187.607 Y129.544 E.01859
G1 X188.217 Y130.125 E.02642
G1 X188.413 Y130.478 E.01267
G1 X188.525 Y130.865 E.01263
G1 X190.17 Y154.396 E.73959
G1 X190.023 Y155.024 E.02022
M73 P9 R25
G1 X189.859 Y155.317 E.01053
G1 X189.433 Y155.807 E.02037
G1 X189.183 Y156.004 E.00996
G1 X188.533 Y156.258 E.0219
G1 X182.61 Y156.603 E.18602
G1 X176.792 Y156.806 E.18254
G1 X170.962 Y156.874 E.18282
G1 X165.127 Y156.806 E.18296
G1 X159.3 Y156.603 E.18281
G1 X153.408 Y156.259 E.18504
G1 X153 Y156.142 E.01332
G1 X152.541 Y155.862 E.01687
G1 X152.025 Y155.273 E.02454
G1 X151.872 Y154.971 E.01062
G1 X151.744 Y154.396 E.01847
G1 X153.389 Y130.87 E.73945
G1 X153.465 Y130.568 E.00976
G1 X153.718 Y130.13 E.01585
G1 X154.044 Y130.319 F10800
G1 F600
G1 X154.092 Y130.236 E.003
G1 X154.53 Y129.851 E.01827
G1 X154.778 Y129.713 E.00891
G1 X155.179 Y129.607 E.01301
G1 X160.552 Y129.911 E.16873
G1 X165.753 Y130.093 E.16318
G1 X170.957 Y130.153 E.16318
G1 X176.161 Y130.093 E.16318
G1 X181.363 Y129.911 E.16318
G1 X186.662 Y129.602 E.16643
G1 X186.941 Y129.646 E.00885
G1 X187.374 Y129.842 E.0149
G1 X187.902 Y130.335 E.02266
G1 X188.073 Y130.642 E.01103
G1 X188.15 Y130.911 E.00876
G1 X189.792 Y154.391 E.73801
G1 X189.664 Y154.903 E.01655
G1 X189.544 Y155.109 E.00748
G1 X189.162 Y155.543 E.01812
G1 X188.974 Y155.689 E.00745
G1 X188.481 Y155.883 E.01663
G1 X182.591 Y156.226 E.185
G1 X176.781 Y156.429 E.18227
G1 X170.959 Y156.497 E.18254
G1 X165.133 Y156.429 E.18268
G1 X159.32 Y156.226 E.1824
G1 X153.45 Y155.884 E.18435
G1 X153.174 Y155.807 E.00899
G1 X152.763 Y155.556 E.01508
G1 X152.326 Y155.046 E.02106
G1 X152.233 Y154.862 E.00648
G1 X152.122 Y154.393 E.01511
G1 X153.764 Y130.909 E.73809
G1 X153.806 Y130.731 E.00575
M73 P10 R25
G1 X154.014 Y130.371 E.01304
G1 X154.333 Y130.554 F10800
G1 F600
G1 X154.365 Y130.498 E.002
G1 X154.765 Y130.147 E.01669
G1 X154.898 Y130.071 E.00481
G1 X155.246 Y129.98 E.01128
G1 X160.534 Y130.288 E.16609
G1 X165.744 Y130.47 E.16346
G1 X170.957 Y130.53 E.16346
G1 X176.17 Y130.47 E.16346
G1 X181.38 Y130.288 E.16346
G1 X186.665 Y129.98 E.16599
G1 X186.817 Y130.002 E.00481
G1 X187.146 Y130.144 E.01123
G1 X187.588 Y130.546 E.01876
G1 X187.733 Y130.806 E.00933
G1 X187.775 Y130.956 E.00488
G1 X189.414 Y154.387 E.73645
G1 X189.323 Y154.741 E.01145
G1 X189.247 Y154.876 E.00488
G1 X188.889 Y155.283 E.017
G1 X188.803 Y155.353 E.00347
G1 X188.426 Y155.509 E.01279
G1 X182.571 Y155.85 E.18389
G1 X176.77 Y156.052 E.18199
G1 X170.957 Y156.12 E.18227
G1 X165.144 Y156.052 E.18227
G1 X159.339 Y155.849 E.18213
G1 X153.491 Y155.509 E.18369
G1 X153.341 Y155.468 E.00488
G1 X153.026 Y155.284 E.01143
G1 X152.647 Y154.848 E.01809
G1 X152.592 Y154.743 E.00373
G1 X152.501 Y154.387 E.01152
G1 X154.139 Y130.953 E.73655
G1 X154.165 Y130.847 E.00342
G1 X154.304 Y130.606 E.00872
G1 X154.625 Y130.785 F10800
G1 F600
G1 X155.001 Y130.441 E.01595
G1 X155.259 Y130.358 E.0085
G1 X160.517 Y130.664 E.16514
G1 X165.736 Y130.847 E.16373
G1 X170.957 Y130.907 E.16373
G1 X176.179 Y130.847 E.16373
G1 X181.398 Y130.664 E.16373
G1 X186.67 Y130.357 E.16558
G1 X186.924 Y130.451 E.0085
M73 P11 R25
G1 X187.275 Y130.759 E.01466
G1 X187.4 Y131 E.0085
G1 X189.035 Y154.378 E.73479
G1 X188.952 Y154.64 E.00863
G1 X188.62 Y155.019 E.01579
G1 X188.37 Y155.134 E.00863
G1 X182.551 Y155.473 E.18276
G1 X176.763 Y155.675 E.18158
G1 X170.955 Y155.743 E.18213
G1 X165.155 Y155.675 E.18186
G1 X159.359 Y155.473 E.18185
G1 X153.53 Y155.133 E.18307
G1 X153.285 Y155.008 E.00863
G1 X152.962 Y154.64 E.01534
G1 X152.879 Y154.378 E.00863
G1 X154.514 Y131 E.73479
G1 X154.596 Y130.837 E.00572
G1 X154.919 Y131.015 F10800
G1 F600
G1 X155.208 Y130.761 E.01205
G1 X155.278 Y130.737 E.00233
G1 X160.499 Y131.041 E.16397
G1 X165.727 Y131.224 E.16401
G1 X170.957 Y131.285 E.16401
M73 P11 R24
G1 X176.188 Y131.224 E.16401
G1 X181.415 Y131.041 E.16401
G1 X186.636 Y130.737 E.16397
G1 X186.706 Y130.761 E.00233
G1 X186.995 Y131.015 E.01205
G1 X187.028 Y131.082 E.00233
G1 X188.656 Y154.362 E.73173
G1 X188.632 Y154.434 E.00237
G1 X188.374 Y154.727 E.01224
G1 X188.306 Y154.76 E.00237
G1 X182.531 Y155.096 E.18136
G1 X176.752 Y155.298 E.1813
G1 X170.953 Y155.366 E.18186
G1 X165.162 Y155.298 E.18158
G1 X159.374 Y155.096 E.18158
G1 X153.609 Y154.76 E.18109
M73 P12 R24
G1 X153.541 Y154.727 E.00237
G1 X153.283 Y154.434 E.01224
G1 X153.259 Y154.362 E.00237
G1 X154.893 Y131.069 E.73214
G1 X155.255 Y131.222 F10800
G1 F600
G1 X155.371 Y131.12 E.00486
G1 X160.482 Y131.418 E.16051
G1 X165.718 Y131.601 E.16428
G1 X170.957 Y131.662 E.16429
G1 X176.197 Y131.601 E.16429
G1 X181.433 Y131.418 E.16428
G1 X186.544 Y131.12 E.16051
G1 X186.66 Y131.222 E.00486
G1 X188.272 Y154.272 E.72448
G1 X188.168 Y154.391 E.00494
G1 X182.516 Y154.72 E.1775
G1 X176.741 Y154.921 E.18117
G1 X170.955 Y154.989 E.18144
G1 X165.173 Y154.921 E.18131
G1 X159.394 Y154.719 E.18131
G1 X153.747 Y154.391 E.17736
G1 X153.643 Y154.272 E.00494
G1 X155.25 Y131.282 E.7226
;WIPE_START
G1 F8640
G1 X155.371 Y131.12 E-.04665
G1 X160.482 Y131.418 E-1.18205
G1 X160.92 Y131.433 E-.1013
;WIPE_END
G1 E-.07 F2100
G1 Z.4 F10800
G1 X82.228 Y63.472
G1 Z.2
G1 E1.4 F2100
G1 F600
G1 X81.334 Y64.166 E.03547
G1 X79.762 Y64.735 E.05242
G1 X73.589 Y65.094 E.19385
G1 X67.727 Y65.298 E.18392
G1 X61.849 Y65.367 E.18433
G1 X55.926 Y65.298 E.18571
M73 P13 R24
G1 X50.051 Y65.093 E.18433
G1 X43.98 Y64.739 E.19066
G1 X42.737 Y64.381 E.04057
G1 X41.698 Y63.723 E.03856
G1 X40.693 Y62.58 E.04774
G1 X40.19 Y61.512 E.03701
G1 X39.97 Y60.244 E.04035
G1 X41.636 Y36.419 E.74884
G1 X41.885 Y35.442 E.03161
G1 X42.604 Y34.208 E.04479
G1 X43.566 Y33.309 E.04128
G1 X44.712 Y32.696 E.04074
G1 X45.946 Y32.441 E.03952
G1 X51.56 Y32.751 E.17628
G1 X56.695 Y32.93 E.1611
G1 X61.829 Y32.99 E.16098
G1 X66.963 Y32.93 E.16098
G1 X72.097 Y32.751 E.16107
G1 X77.719 Y32.444 E.17655
G1 X78.968 Y32.707 E.04
G1 X80.185 Y33.375 E.04354
G1 X81.322 Y34.559 E.05148
G1 X81.777 Y35.455 E.0315
G1 X82.02 Y36.404 E.03072
G1 X83.688 Y60.255 E.74967
G1 X83.361 Y61.819 E.05009
G1 X82.896 Y62.681 E.0307
G1 X82.266 Y63.427 E.03061
G1 X81.978 Y63.183 F10800
G1 F600
G1 X81.175 Y63.823 E.03218
G1 X79.711 Y64.36 E.04889
G1 X73.574 Y64.717 E.19276
G1 X67.721 Y64.921 E.18364
G1 X61.846 Y64.99 E.18419
G1 X55.937 Y64.921 E.1853
G1 X50.066 Y64.716 E.18419
