; generated by PrusaSlicer 2.5.0+win64 on 2023-02-21 at 16:52:29 UTC

; 

; external perimeters extrusion width = 0.45mm
; perimeters extrusion width = 0.45mm
; infill extrusion width = 0.45mm
; solid infill extrusion width = 0.45mm
; top infill extrusion width = 0.40mm
; first layer extrusion width = 0.42mm

; external perimeters extrusion width = 0.45mm
; perimeters extrusion width = 0.45mm
; infill extrusion width = 0.45mm
; solid infill extrusion width = 0.45mm
; top infill extrusion width = 0.40mm
; first layer extrusion width = 0.42mm

; external perimeters extrusion width = 0.45mm
; perimeters extrusion width = 0.45mm
; infill extrusion width = 0.45mm
; solid infill extrusion width = 0.45mm
; top infill extrusion width = 0.40mm
; first layer extrusion width = 0.42mm

M73 P0 R42
M107
;TYPE:Custom
M862.3 P "MK2.5S" ; printer model check
M862.1 P0.4 ; nozzle diameter check
M115 U3.10.0 ; tell printer latest fw version
G90 ; use absolute coordinates
M83  ; extruder relative mode
M104 S250 ; set extruder temp
M140 S90 ; set bed temp
M190 S90 ; wait for bed temp
M109 S250 ; wait for extruder temp
G28 W ; home all without mesh bed level
G80 ; mesh bed leveling
G1 Y-3.0 F1000.0 ; go outside print area
G92 E0.0
G1 X60.0 E9.0 F1000.0 ; intro line
G1 X100.0 E12.5 F1000.0 ; intro line
G92 E0.0
G21 ; set units to millimeters
G90 ; use absolute coordinates
M83 ; use relative distances for extrusion
M900 K0.08 ; Filament gcode LA 1.5
M900 K45 ; Filament gcode LA 1.0
M107
;LAYER_CHANGE
;Z:0.2
;HEIGHT:0.2
;BEFORE_LAYER_CHANGE
G92 E0.0
;0.2


M73 P0 R41
G1 E-1.4 F2100
G1 Z.2 F10800
;AFTER_LAYER_CHANGE
;0.2
G1 Z.4
G1 X28.786 Y32.581
G1 Z.2
G1 E1.4 F2100
M204 S1000
;TYPE:Skirt/Brim
;WIDTH:0.42
G1 F600
G1 X31.871 Y29.868 E.12881
G1 X33.441 Y29.276 E.05261
G1 X68.001 Y29.276 E1.08359
G1 X69.467 Y29.782 E.04862
G1 X222.783 Y149.886 E6.10651
G1 X225.971 Y152.685 E.13304
M73 P1 R41
G1 X226.773 Y154.304 E.05664
G1 X228.663 Y181.331 E.84945
G1 X228.076 Y183.066 E.05744
G1 X225.318 Y186.202 E.13094
G1 X223.671 Y187.005 E.05744
G1 X215.876 Y187.458 E.24484
G1 X210.015 Y187.662 E.18386
G1 X204.094 Y187.732 E.18568
G1 X198.059 Y187.662 E.18924
G1 X192.085 Y187.453 E.18742
G1 X184.402 Y187.005 E.24128
G1 X183.153 Y186.562 E.04157
G1 X106.236 Y131.247 E2.97057
G1 X29.687 Y66.341 E3.14676
G1 X26.682 Y62.962 E.1418
M73 P2 R41
G1 X26.095 Y61.227 E.05744
G1 X27.985 Y34.2 E.84945
G1 X28.76 Y32.635 E.05476
;WIPE_START
M73 P2 R40
G1 F8640
G1 X31.871 Y29.868 E-.9614
G1 X33.365 Y29.305 E-.3686
;WIPE_END
G1 E-.07 F2100
G1 Z.4 F10800
G1 X31.311 Y34.123
G1 Z.2
G1 E1.4 F2100
G1 F600
G1 X31.496 Y33.805 E.01151
G1 X32.458 Y32.907 E.04128
G1 X33.604 Y32.293 E.04074
G1 X34.838 Y32.039 E.03952
G1 X40.452 Y32.348 E.17628
G1 X45.587 Y32.528 E.1611
G1 X50.721 Y32.588 E.16098
G1 X55.855 Y32.528 E.16098
G1 X60.989 Y32.349 E.16107
G1 X66.611 Y32.042 E.17655
G1 X67.86 Y32.304 E.04
G1 X69.077 Y32.972 E.04354
G1 X70.214 Y34.157 E.05148
G1 X70.669 Y35.052 E.0315
G1 X70.912 Y36.002 E.03072
G1 X72.58 Y59.853 E.74967
G1 X72.253 Y61.417 E.05009
G1 X71.788 Y62.279 E.0307
G1 X71.12 Y63.07 E.03249
G1 X70.226 Y63.764 E.03547
G1 X68.654 Y64.332 E.05242
G1 X62.481 Y64.691 E.19385
G1 X56.619 Y64.896 E.18392
G1 X50.741 Y64.965 E.18433
G1 X44.818 Y64.896 E.18571
G1 X38.943 Y64.691 E.18433
G1 X32.872 Y64.337 E.19066
G1 X31.629 Y63.978 E.04057
G1 X30.59 Y63.321 E.03856
G1 X29.585 Y62.177 E.04774
G1 X29.082 Y61.11 E.03701
G1 X28.862 Y59.842 E.04035
G1 X30.528 Y36.016 E.74884
G1 X30.777 Y35.039 E.03161
M73 P3 R40
G1 X31.281 Y34.175 E.03139
G1 X31.601 Y34.36 F10800
G1 F600
G1 X31.775 Y34.061 E.01087
G1 X32.661 Y33.226 E.03816
G1 X33.709 Y32.656 E.03743
G1 X34.843 Y32.417 E.03632
G1 X40.435 Y32.725 E.17561
G1 X45.578 Y32.905 E.16136
G1 X50.721 Y32.965 E.16126
G1 X55.863 Y32.905 E.16126
G1 X61.006 Y32.725 E.16133
G1 X66.607 Y32.42 E.1759
G1 X67.705 Y32.649 E.03516
G1 X68.827 Y33.256 E.04
G1 X69.892 Y34.355 E.04796
G1 X70.31 Y35.168 E.02867
G1 X70.538 Y36.046 E.02843
G1 X72.202 Y59.853 E.7483
G1 X71.907 Y61.263 E.04516
G1 X71.487 Y62.051 E.02799
G1 X70.844 Y62.812 E.03126
G1 X70.067 Y63.42 E.03092
G1 X68.603 Y63.957 E.04889
G1 X62.466 Y64.315 E.19276
G1 X56.613 Y64.519 E.18364
G1 X50.738 Y64.588 E.18419
G1 X44.829 Y64.519 E.1853
G1 X38.958 Y64.314 E.18419
G1 X32.915 Y63.962 E.1898
G1 X31.806 Y63.644 E.03617
G1 X30.853 Y63.05 E.03521
G1 X29.913 Y61.99 E.04442
G1 X29.448 Y61.018 E.03379
G1 X29.24 Y59.844 E.03736
G1 X30.903 Y36.06 E.74756
G1 X31.135 Y35.159 E.02918
G1 X31.57 Y34.412 E.02709
G1 X31.89 Y34.598 F10800
G1 F600
G1 X32.055 Y34.315 E.01027
G1 X32.865 Y33.544 E.03507
G1 X33.817 Y33.018 E.03411
G1 X34.848 Y32.795 E.03307
G1 X40.418 Y33.102 E.17491
G1 X45.569 Y33.282 E.16161
G1 X50.721 Y33.342 E.16153
G1 X55.872 Y33.282 E.16153
G1 X61.023 Y33.102 E.16158
G1 X66.603 Y32.798 E.17525
G1 X67.552 Y32.995 E.03038
G1 X68.579 Y33.541 E.03647
G1 X69.571 Y34.554 E.04444
G1 X69.95 Y35.285 E.02583
G1 X70.163 Y36.09 E.02609
G1 X71.824 Y59.854 E.74691
G1 X71.562 Y61.111 E.04028
G1 X71.186 Y61.823 E.02525
G1 X70.568 Y62.555 E.03003
G1 X69.907 Y63.078 E.02641
G1 X68.553 Y63.583 E.04532
G1 X62.451 Y63.938 E.19165
G1 X56.606 Y64.142 E.18337
G1 X50.736 Y64.211 E.18406
G1 X44.84 Y64.142 E.18489
G1 X38.973 Y63.937 E.18405
G1 X32.957 Y63.587 E.18896
G1 X31.981 Y63.309 E.03184
G1 X31.115 Y62.777 E.03185
M73 P4 R40
G1 X30.24 Y61.801 E.0411
G1 X29.814 Y60.924 E.03057
G1 X29.618 Y59.847 E.03433
G1 X31.278 Y36.104 E.74624
G1 X31.494 Y35.279 E.02674
G1 X31.86 Y34.65 E.02282
G1 X32.18 Y34.836 F10800
G1 F600
G1 X32.334 Y34.57 E.00965
G1 X33.107 Y33.833 E.03348
G1 X33.927 Y33.38 E.02935
G1 X34.854 Y33.173 E.02979
G1 X40.401 Y33.479 E.1742
G1 X45.561 Y33.659 E.16187
G1 X50.721 Y33.719 E.16181
G1 X55.881 Y33.659 E.16181
G1 X61.039 Y33.479 E.16184
G1 X66.6 Y33.176 E.1746
G1 X67.402 Y33.341 E.02567
G1 X68.333 Y33.828 E.03294
G1 X69.249 Y34.754 E.04084
G1 X69.606 Y35.44 E.02426
G1 X69.788 Y36.134 E.02247
G1 X71.446 Y59.854 E.74555
G1 X71.215 Y60.96 E.03544
G1 X70.884 Y61.596 E.02248
G1 X70.291 Y62.298 E.02881
G1 X69.745 Y62.736 E.02196
G1 X68.502 Y63.208 E.04168
G1 X62.435 Y63.561 E.19053
G1 X56.6 Y63.765 E.18309
G1 X50.734 Y63.834 E.18392
G1 X44.851 Y63.765 E.18447
G1 X38.989 Y63.56 E.18391
G1 X32.999 Y63.211 E.18812
G1 X32.153 Y62.973 E.02757
G1 X31.375 Y62.503 E.0285
G1 X30.566 Y61.61 E.03779
G1 X30.18 Y60.828 E.02734
G1 X29.996 Y59.848 E.03124
G1 X31.653 Y36.149 E.7449
G1 X31.851 Y35.401 E.02427
G1 X32.149 Y34.888 E.0186
G1 X32.475 Y35.077 F10800
G1 F600
G1 X32.646 Y34.783 E.01065
G1 X33.347 Y34.126 E.03014
G1 X34.083 Y33.724 E.0263
G1 X34.859 Y33.551 E.02492
G1 X40.384 Y33.855 E.1735
G1 X45.552 Y34.036 E.16212
G1 X50.721 Y34.096 E.16208
G1 X55.89 Y34.036 E.16208
G1 X61.057 Y33.855 E.1621
G1 X66.551 Y33.55 E.17253
G1 X67.254 Y33.689 E.02249
M73 P4 R39
G1 X68.088 Y34.117 E.02938
G1 X68.93 Y34.956 E.03726
G1 X69.248 Y35.559 E.02138
G1 X69.413 Y36.178 E.0201
G1 X71.068 Y59.853 E.74412
G1 X70.852 Y60.854 E.0321
G1 X70.561 Y61.4 E.0194
G1 X70.016 Y62.039 E.02634
G1 X69.533 Y62.423 E.01935
G1 X68.451 Y62.833 E.03629
G1 X62.42 Y63.184 E.18942
G1 X56.589 Y63.388 E.18295
G1 X50.732 Y63.456 E.18365
G1 X44.862 Y63.388 E.18406
G1 X39.009 Y63.184 E.18364
M73 P5 R39
G1 X33.043 Y62.836 E.18738
G1 X32.283 Y62.618 E.02479
G1 X31.597 Y62.197 E.02524
G1 X30.864 Y61.378 E.03444
G1 X30.545 Y60.73 E.02264
G1 X30.374 Y59.849 E.02814
G1 X32.028 Y36.192 E.74357
G1 X32.191 Y35.568 E.02024
G1 X32.445 Y35.129 E.0159
G1 X32.771 Y35.318 F10800
G1 F600
G1 X32.958 Y34.998 E.01162
G1 X33.585 Y34.419 E.02678
G1 X34.195 Y34.085 E.02179
G1 X34.866 Y33.929 E.02161
G1 X40.367 Y34.232 E.17276
G1 X45.543 Y34.413 E.16238
G1 X50.721 Y34.473 E.16236
G1 X55.899 Y34.413 E.16236
G1 X61.074 Y34.232 E.16237
G1 X66.505 Y33.925 E.17054
G1 X67.111 Y34.039 E.01934
G1 X67.846 Y34.407 E.02579
G1 X68.612 Y35.16 E.03365
G1 X68.89 Y35.679 E.01848
G1 X69.038 Y36.224 E.01768
G1 X70.69 Y59.851 E.74264
G1 X70.491 Y60.744 E.02868
G1 X70.241 Y61.2 E.0163
G1 X69.743 Y61.778 E.02392
G1 X69.323 Y62.108 E.01675
G1 X68.401 Y62.458 E.03094
G1 X62.405 Y62.807 E.18832
G1 X56.578 Y63.011 E.18281
G1 X50.73 Y63.079 E.18337
G1 X44.873 Y63.011 E.18365
G1 X39.028 Y62.807 E.18336
G1 X33.086 Y62.461 E.18662
G1 X32.415 Y62.264 E.02194
G1 X31.821 Y61.892 E.02197
G1 X31.164 Y61.148 E.03113
G1 X30.909 Y60.631 E.01806
G1 X30.752 Y59.85 E.025
G1 X32.403 Y36.235 E.74224
G1 X32.53 Y35.734 E.01621
G1 X32.741 Y35.37 E.01318
G1 X33.061 Y35.555 F10800
G1 F600
G1 X33.234 Y35.256 E.01085
G1 X33.824 Y34.711 E.02517
G1 X34.306 Y34.446 E.01722
G1 X34.925 Y34.302 E.01994
G1 X40.35 Y34.609 E.17037
G1 X45.534 Y34.79 E.16265
G1 X50.721 Y34.85 E.16263
G1 X55.907 Y34.79 E.16263
G1 X61.091 Y34.609 E.16263
G1 X66.503 Y34.303 E.16997
G1 X66.97 Y34.389 E.01487
G1 X67.607 Y34.7 E.02222
G1 X68.295 Y35.367 E.03004
G1 X68.533 Y35.803 E.01558
G1 X68.663 Y36.27 E.01519
G1 X70.312 Y59.85 E.74116
G1 X70.146 Y60.589 E.02374
G1 X69.941 Y60.97 E.01357
G1 X69.468 Y61.52 E.02274
G1 X69.158 Y61.768 E.01246
G1 X68.348 Y62.084 E.02725
G1 X62.389 Y62.431 E.18716
G1 X56.567 Y62.634 E.18268
G1 X50.727 Y62.702 E.1831
G1 X44.884 Y62.634 E.18323
M73 P6 R39
G1 X39.044 Y62.43 E.18323
G1 X33.129 Y62.086 E.18575
G1 X32.589 Y61.929 E.01765
G1 X32.083 Y61.619 E.0186
G1 X31.489 Y60.954 E.02796
G1 X31.273 Y60.528 E.01499
G1 X31.13 Y59.849 E.02175
G1 X32.778 Y36.279 E.74083
G1 X32.888 Y35.854 E.01378
G1 X33.031 Y35.607 E.00893
G1 X33.357 Y35.796 F10800
G1 F600
G1 X33.546 Y35.471 E.01178
G1 X34.06 Y35.006 E.02175
G1 X34.421 Y34.806 E.01293
G1 X34.933 Y34.68 E.01653
G1 X40.333 Y34.985 E.16958
G1 X45.525 Y35.167 E.16291
G1 X50.721 Y35.227 E.16291
G1 X55.916 Y35.167 E.16291
G1 X61.109 Y34.985 E.16291
G1 X66.462 Y34.678 E.16812
G1 X66.834 Y34.742 E.01184
G1 X67.37 Y34.995 E.01859
G1 X67.98 Y35.576 E.02642
G1 X68.177 Y35.929 E.01267
G1 X68.288 Y36.316 E.01263
G1 X69.934 Y59.847 E.73959
G1 X69.786 Y60.475 E.02022
G1 X69.623 Y60.768 E.01053
G1 X69.196 Y61.258 E.02037
G1 X68.947 Y61.455 E.00996
G1 X68.297 Y61.709 E.0219
G1 X62.374 Y62.054 E.18602
G1 X56.556 Y62.257 E.18254
G1 X50.725 Y62.325 E.18282
G1 X44.89 Y62.257 E.18296
G1 X39.063 Y62.054 E.18281
G1 X33.172 Y61.711 E.18504
G1 X32.764 Y61.593 E.01332
G1 X32.304 Y61.313 E.01687
G1 X31.788 Y60.724 E.02454
G1 X31.635 Y60.422 E.01062
G1 X31.508 Y59.847 E.01847
G1 X33.153 Y36.321 E.73945
G1 X33.229 Y36.019 E.00976
G1 X33.327 Y35.848 E.00619
G1 X33.654 Y36.037 F10800
G1 F600
G1 X33.856 Y35.687 E.01266
G1 X34.293 Y35.302 E.01827
G1 X34.542 Y35.164 E.00891
G1 X34.943 Y35.059 E.01301
G1 X40.316 Y35.362 E.16873
G1 X45.517 Y35.544 E.16318
G1 X50.721 Y35.604 E.16318
G1 X55.925 Y35.544 E.16318
G1 X61.126 Y35.362 E.16318
G1 X66.425 Y35.054 E.16643
G1 X66.704 Y35.097 E.00885
G1 X67.137 Y35.293 E.0149
G1 X67.666 Y35.786 E.02266
G1 X67.837 Y36.094 E.01103
G1 X67.914 Y36.362 E.00876
G1 X69.556 Y59.843 E.73801
G1 X69.428 Y60.355 E.01655
G1 X69.308 Y60.561 E.00748
G1 X68.926 Y60.995 E.01812
G1 X68.738 Y61.14 E.00745
G1 X68.245 Y61.334 E.01663
G1 X62.354 Y61.677 E.185
G1 X56.545 Y61.88 E.18227
G1 X50.723 Y61.948 E.18254
G1 X44.897 Y61.88 E.18268
G1 X39.083 Y61.677 E.1824
M73 P7 R39
G1 X33.213 Y61.335 E.18435
G1 X32.937 Y61.258 E.00899
G1 X32.527 Y61.007 E.01508
G1 X32.09 Y60.497 E.02106
G1 X31.997 Y60.313 E.00648
G1 X31.886 Y59.844 E.01511
G1 X33.528 Y36.361 E.73809
G1 X33.57 Y36.182 E.00575
M73 P7 R38
G1 X33.624 Y36.089 E.00339
G1 X33.944 Y36.272 F10800
G1 F600
G1 X34.129 Y35.949 E.01165
G1 X34.528 Y35.598 E.01669
G1 X34.662 Y35.522 E.00481
G1 X35.01 Y35.431 E.01128
G1 X40.298 Y35.739 E.16609
G1 X45.508 Y35.921 E.16346
G1 X50.721 Y35.981 E.16346
G1 X55.934 Y35.921 E.16346
G1 X61.144 Y35.739 E.16346
G1 X66.429 Y35.431 E.16599
G1 X66.58 Y35.453 E.00481
G1 X66.909 Y35.595 E.01123
G1 X67.352 Y35.998 E.01876
G1 X67.497 Y36.257 E.00933
G1 X67.539 Y36.407 E.00488
G1 X69.177 Y59.838 E.73645
G1 X69.087 Y60.192 E.01145
G1 X69.011 Y60.327 E.00488
G1 X68.653 Y60.734 E.017
G1 X68.566 Y60.804 E.00347
G1 X68.189 Y60.96 E.01279
G1 X62.334 Y61.301 E.18389
G1 X56.534 Y61.503 E.18199
G1 X50.721 Y61.571 E.18227
G1 X44.908 Y61.503 E.18227
G1 X39.103 Y61.301 E.18213
G1 X33.254 Y60.96 E.18369
G1 X33.104 Y60.919 E.00488
G1 X32.79 Y60.735 E.01143
G1 X32.411 Y60.299 E.01809
G1 X32.355 Y60.194 E.00373
G1 X32.264 Y59.838 E.01152
G1 X33.903 Y36.404 E.73655
G1 X33.922 Y36.327 E.00249
G1 X34.285 Y36.425 F10800
G1 F600
G1 X34.403 Y36.211 E.00769
G1 X34.764 Y35.893 E.0151
G1 X35.022 Y35.809 E.0085
G1 X40.28 Y36.116 E.16514
G1 X45.499 Y36.298 E.16373
G1 X50.721 Y36.359 E.16373
G1 X55.943 Y36.298 E.16373
G1 X61.161 Y36.116 E.16373
G1 X66.433 Y35.809 E.16558
G1 X66.688 Y35.902 E.0085
G1 X67.039 Y36.211 E.01466
G1 X67.164 Y36.451 E.0085
G1 X68.799 Y59.829 E.73479
G1 X68.716 Y60.092 E.00863
G1 X68.383 Y60.47 E.01579
G1 X68.134 Y60.585 E.00863
G1 X62.315 Y60.924 E.18276
G1 X56.527 Y61.126 E.18158
G1 X50.719 Y61.194 E.18213
G1 X44.919 Y61.126 E.18186
G1 X39.123 Y60.924 E.18185
G1 X33.294 Y60.585 E.18307
G1 X33.049 Y60.459 E.00863
M73 P8 R38
G1 X32.726 Y60.092 E.01534
G1 X32.643 Y59.829 E.00863
G1 X34.275 Y36.484 E.73375
G1 X34.65 Y36.533 F10800
G1 F600
G1 X34.683 Y36.466 E.00233
G1 X34.972 Y36.212 E.01205
G1 X35.042 Y36.188 E.00233
G1 X40.263 Y36.492 E.16397
G1 X45.49 Y36.675 E.16401
G1 X50.721 Y36.736 E.16401
G1 X55.951 Y36.675 E.16401
G1 X61.179 Y36.492 E.16401
G1 X66.4 Y36.188 E.16397
G1 X66.47 Y36.212 E.00233
G1 X66.759 Y36.466 E.01205
G1 X66.792 Y36.533 E.00233
G1 X68.42 Y59.813 E.73173
G1 X68.395 Y59.885 E.00237
G1 X68.137 Y60.178 E.01224
G1 X68.07 Y60.211 E.00237
G1 X62.295 Y60.548 E.18136
G1 X56.516 Y60.749 E.1813
G1 X50.716 Y60.817 E.18186
G1 X44.926 Y60.749 E.18158
G1 X39.138 Y60.547 E.18158
G1 X33.372 Y60.211 E.18109
G1 X33.304 Y60.178 E.00237
G1 X33.046 Y59.885 E.01224
G1 X33.022 Y59.813 E.00237
G1 X34.646 Y36.593 E.72984
G1 X35.018 Y36.674 F10800
G1 F600
G1 X35.135 Y36.571 E.00486
G1 X40.245 Y36.869 E.16051
G1 X45.482 Y37.052 E.16428
G1 X50.721 Y37.113 E.16429
G1 X55.96 Y37.052 E.16429
G1 X61.197 Y36.869 E.16428
G1 X66.307 Y36.571 E.16051
G1 X66.423 Y36.674 E.00486
G1 X68.035 Y59.723 E.72448
G1 X67.931 Y59.842 E.00494
G1 X62.28 Y60.171 E.1775
G1 X56.505 Y60.372 E.18117
G1 X50.719 Y60.44 E.18144
G1 X44.937 Y60.372 E.18131
G1 X39.158 Y60.171 E.18131
G1 X33.51 Y59.842 E.17736
G1 X33.406 Y59.723 E.00494
G1 X35.014 Y36.733 E.7226
;WIPE_START
G1 F8640
M73 P9 R38
G1 X35.135 Y36.571 E-.04665
G1 X40.245 Y36.869 E-1.18205
G1 X40.684 Y36.884 E-.1013
;WIPE_END
G1 E-.07 F2100
G1 Z.4 F10800
G1 X108.045 Y98.711
G1 Z.2
G1 E1.4 F2100
G1 F600
G1 X109.007 Y97.812 E.04128
G1 X110.152 Y97.199 E.04074
G1 X111.387 Y96.945 E.03952
G1 X117.001 Y97.254 E.17628
G1 X122.135 Y97.433 E.1611
G1 X127.269 Y97.493 E.16098
G1 X132.403 Y97.433 E.16098
G1 X137.537 Y97.254 E.16107
G1 X143.16 Y96.948 E.17655
G1 X144.408 Y97.21 E.04
G1 X145.626 Y97.878 E.04354
G1 X146.762 Y99.062 E.05148
G1 X147.218 Y99.958 E.0315
G1 X147.461 Y100.907 E.03072
G1 X149.129 Y124.758 E.74967
G1 X148.801 Y126.322 E.05009
G1 X148.337 Y127.184 E.0307
G1 X147.668 Y127.976 E.03249
G1 X146.774 Y128.669 E.03547
G1 X145.202 Y129.238 E.05242
G1 X139.03 Y129.597 E.19385
G1 X133.168 Y129.801 E.18392
G1 X127.289 Y129.87 E.18433
G1 X121.367 Y129.801 E.18571
G1 X115.491 Y129.596 E.18433
G1 X109.421 Y129.243 E.19066
G1 X108.178 Y128.884 E.04057
G1 X107.138 Y128.226 E.03856
G1 X106.133 Y127.083 E.04774
G1 X105.63 Y126.015 E.03701
G1 X105.411 Y124.747 E.04035
G1 X107.077 Y100.922 E.74884
G1 X107.325 Y99.945 E.03161
M73 P9 R37
G1 X108.015 Y98.763 E.0429
G1 X108.324 Y98.966 F10800
G1 F600
G1 X109.209 Y98.131 E.03816
G1 X110.258 Y97.562 E.03743
G1 X111.391 Y97.322 E.03632
G1 X116.984 Y97.631 E.17561
G1 X122.127 Y97.81 E.16136
G1 X127.269 Y97.87 E.16126
G1 X132.412 Y97.81 E.16126
G1 X137.554 Y97.631 E.16133
G1 X143.156 Y97.326 E.1759
G1 X144.254 Y97.555 E.03516
G1 X145.376 Y98.162 E.04
G1 X146.44 Y99.26 E.04796
G1 X146.858 Y100.074 E.02867
G1 X147.086 Y100.951 E.02843
G1 X148.751 Y124.759 E.7483
G1 X148.456 Y126.169 E.04516
G1 X148.036 Y126.956 E.02799
G1 X147.392 Y127.718 E.03126
