; generated by PrusaSlicer 2.5.0+win64 on 2023-02-21 at 19:19:18 UTC

; 

; external perimeters extrusion width = 0.45mm
; perimeters extrusion width = 0.45mm
; infill extrusion width = 0.45mm
; solid infill extrusion width = 0.45mm
; top infill extrusion width = 0.40mm
; first layer extrusion width = 0.42mm

M73 P0 R9
M107
;TYPE:Custom
M862.3 P "MK2.5S" ; printer model check
M862.1 P0.4 ; nozzle diameter check
M115 U3.10.0 ; tell printer latest fw version
G90 ; use absolute coordinates
M83  ; extruder relative mode
M104 S250 ; set extruder temp
M140 S90 ; set bed temp
M190 S90 ; wait for bed temp
M109 S250 ; wait for extruder temp
G28 W ; home all without mesh bed level
G80 ; mesh bed leveling
G1 Y-3.0 F1000.0 ; go outside print area
G92 E0.0
G1 X60.0 E9.0 F1000.0 ; intro line
G1 X100.0 E12.5 F1000.0 ; intro line
G92 E0.0
G21 ; set units to millimeters
G90 ; use absolute coordinates
M83 ; use relative distances for extrusion
M900 K0.08 ; Filament gcode LA 1.5
M900 K45 ; Filament gcode LA 1.0
M107
;LAYER_CHANGE
;Z:0.2
;HEIGHT:0.2
;BEFORE_LAYER_CHANGE
G92 E0.0
;0.2


G1 E-1.4 F2100
M73 P1 R9
G1 Z.2 F10800
;AFTER_LAYER_CHANGE
;0.2
G1 Z.4
G1 X106.759 Y93.467
G1 Z.2
G1 E1.4 F2100
M204 S1000
;TYPE:Skirt/Brim
;WIDTH:0.42
G1 F600
G1 X107.893 Y92.531 E.04612
G1 X109.015 Y92.292 E.03599
G1 X140.985 Y92.292 E1.00238
G1 X142.402 Y92.684 E.04612
G1 X143.415 Y93.751 E.04612
G1 X143.732 Y94.854 E.03599
G1 X145.082 Y114.157 E.60671
G1 X144.789 Y115.598 E.04612
M73 P2 R9
G1 X143.796 Y116.683 E.04612
G1 X142.495 Y117.098 E.04283
G1 X136.658 Y117.437 E.18332
G1 X130.814 Y117.641 E.18332
G1 X125.032 Y117.708 E.18131
G1 X119.122 Y117.639 E.18533
G1 X113.278 Y117.435 E.18332
G1 X107.505 Y117.098 E.18131
G1 X106.113 Y116.624 E.04612
G1 X105.164 Y115.5 E.04612
G1 X104.918 Y114.157 E.04283
G1 X106.268 Y94.854 E.60671
G1 X106.738 Y93.524 E.04424
M73 P3 R9
G1 X107.104 Y93.662 F10800
G1 F600
G1 X107.126 Y93.604 E.00195
G1 X108.23 Y92.802 E.04278
G1 X109.015 Y92.669 E.02497
G1 X140.985 Y92.669 E1.00238
G1 X142.292 Y93.06 E.04278
G1 X143.168 Y94.106 E.04278
G1 X143.356 Y94.88 E.02497
G1 X144.706 Y114.183 E.60671
G1 X144.406 Y115.514 E.04278
M73 P4 R9
G1 X143.424 Y116.461 E.04278
G1 X142.473 Y116.722 E.03093
G1 X136.7 Y117.058 E.18131
G1 X130.865 Y117.262 E.18305
G1 X125.028 Y117.331 E.18305
G1 X119.135 Y117.262 E.18478
G1 X113.3 Y117.058 E.18305
G1 X107.527 Y116.722 E.18131
G1 X106.245 Y116.255 E.04278
M73 P5 R9
G1 X105.431 Y115.16 E.04278
G1 X105.294 Y114.183 E.03093
G1 X106.644 Y94.88 E.60671
G1 X107.083 Y93.718 E.03895
; printing object BottomWedge.STL id:0 copy 0
;WIPE_START
G1 F8640
G1 X107.126 Y93.604 E-.0282
G1 X108.23 Y92.802 E-.31505
G1 X109.015 Y92.669 E-.18389
G1 X112.492 Y92.669 E-.80286
;WIPE_END
G1 E-.07 F2100
G1 Z.4 F10800
G1 X109.746 Y95.877
G1 Z.2
G1 E1.4 F2100
;TYPE:Perimeter
;WIDTH:0.419999
G1 F600
G1 X114.309 Y96.142 E.1433
G1 X119.656 Y96.329 E.16777
G1 X125.007 Y96.391 E.16777
G1 X130.357 Y96.329 E.16777
G1 X135.691 Y96.142 E.16736
G1 X140.254 Y95.877 E.1433
G1 X141.494 Y113.609 E.55734
M73 P6 R9
G1 X136.525 Y113.899 E.15606
G1 X130.764 Y114.1 E.18073
G1 X125 Y114.167 E.18074
M73 P6 R8
G1 X119.236 Y114.1 E.18074
G1 X113.475 Y113.899 E.18073
G1 X108.506 Y113.609 E.15606
G1 X109.742 Y95.937 E.55546
G1 X109.396 Y95.479 F10800
;TYPE:External perimeter
M73 P7 R8
G1 F600
G1 X114.322 Y95.766 E.15471
G1 X119.661 Y95.952 E.16749
G1 X125.002 Y96.014 E.16749
G1 X130.344 Y95.952 E.16749
G1 X135.678 Y95.766 E.16736
G1 X140.604 Y95.479 E.15471
G1 X141.897 Y113.964 E.58099
G1 X136.542 Y114.275 E.16816
M73 P8 R8
G1 X130.773 Y114.477 E.18101
G1 X125 Y114.544 E.18102
G1 X119.227 Y114.477 E.18102
G1 X113.458 Y114.275 E.18101
G1 X108.103 Y113.964 E.16816
G1 X109.392 Y95.539 E.57911
G1 X109.749 Y95.668 F10800
;WIPE_START
G1 F8640
G1 X114.322 Y95.766 E-1.13956
G1 X115.146 Y95.794 E-.19044
;WIPE_END
M73 P9 R8
G1 E-.07 F2100
G1 Z.4 F10800
G1 X124.992 Y106.128
G1 Z.2
G1 E1.4 F2100
;TYPE:Perimeter
G1 F600
G1 X124.205 Y106.045 E.02483
G1 X123.629 Y105.855 E.01903
G1 X123.116 Y105.578 E.01828
G1 X122.657 Y105.218 E.01827
G1 X122.266 Y104.786 E.01827
G1 X121.954 Y104.294 E.01827
G1 X121.729 Y103.756 E.01827
G1 X121.598 Y103.188 E.01827
G1 X121.565 Y102.606 E.01827
G1 X121.631 Y102.027 E.01827
G1 X121.794 Y101.468 E.01827
G1 X122.049 Y100.944 E.01827
G1 X122.389 Y100.47 E.01827
G1 X122.804 Y100.061 E.01827
G1 X123.282 Y99.728 E.01827
G1 X123.81 Y99.481 E.01827
G1 X124.372 Y99.326 E.01827
G1 X124.952 Y99.268 E.01827
G1 X125.533 Y99.31 E.01827
G1 X126.099 Y99.449 E.01827
G1 X126.634 Y99.681 E.01827
G1 X127.121 Y100.001 E.01827
G1 X127.548 Y100.398 E.01827
G1 X127.901 Y100.862 E.01827
G1 X128.17 Y101.379 E.01827
G1 X128.349 Y101.933 E.01827
G1 X128.435 Y102.56 E.01982
G1 X128.414 Y103.093 E.01673
G1 X128.299 Y103.664 E.01827
G1 X128.112 Y104.147 E.01623
G1 X127.8 Y104.694 E.01974
G1 X127.412 Y105.151 E.01881
G1 X126.964 Y105.524 E.01827
G1 X126.459 Y105.815 E.01827
G1 X125.912 Y106.017 E.01827
G1 X125.052 Y106.135 E.02722
G1 X125.024 Y105.763 F10800
;TYPE:External perimeter
G1 F600
G1 X124.252 Y105.671 E.02436
G1 X123.754 Y105.499 E.01652
G1 X123.3 Y105.248 E.01627
G1 X122.894 Y104.924 E.01627
G1 X122.549 Y104.537 E.01627
G1 X122.275 Y104.096 E.01627
G1 X122.079 Y103.615 E.01627
G1 X121.967 Y103.109 E.01627
G1 X121.942 Y102.59 E.01627
G1 X122.005 Y102.075 E.01627
G1 X122.155 Y101.578 E.01627
G1 X122.386 Y101.113 E.01627
G1 X122.692 Y100.694 E.01627
G1 X123.065 Y100.333 E.01627
G1 X123.494 Y100.04 E.01627
G1 X123.965 Y99.824 E.01627
G1 X124.467 Y99.691 E.01627
G1 X124.984 Y99.644 E.01627
G1 X125.501 Y99.685 E.01627
G1 X126.004 Y99.813 E.01627
G1 X126.478 Y100.025 E.01627
G1 X126.91 Y100.313 E.01627
G1 X127.287 Y100.67 E.01627
G1 X127.597 Y101.086 E.01627
G1 X127.833 Y101.548 E.01627
G1 X127.988 Y102.044 E.01627
G1 X128.058 Y102.575 E.01679
G1 X128.037 Y103.077 E.01576
G1 X127.931 Y103.585 E.01627
G1 X127.769 Y103.99 E.01368
G1 X127.473 Y104.506 E.01864
G1 X127.129 Y104.902 E.01645
G1 X126.727 Y105.23 E.01627
G1 X126.275 Y105.486 E.01627
G1 X125.787 Y105.661 E.01627
G1 X125.083 Y105.755 E.02224
G1 X124.822 Y106.108 F10800
;WIPE_START
G1 F8640
G1 X124.252 Y105.671 E-.19282
G1 X123.754 Y105.499 E-.12169
G1 X123.3 Y105.248 E-.11985
G1 X122.894 Y104.924 E-.11985
G1 X122.549 Y104.537 E-.11985
G1 X122.275 Y104.096 E-.11985
G1 X122.079 Y103.615 E-.11985
G1 X121.967 Y103.109 E-.11985
G1 X121.942 Y102.59 E-.11985
G1 X122.005 Y102.075 E-.11985
G1 X122.076 Y101.84 E-.0567
;WIPE_END
G1 E-.07 F2100
G1 Z.4 F10800
G1 X139.427 Y96.038
G1 Z.2
G1 E1.4 F2100
;TYPE:Solid infill
;WIDTH:0.420328
G1 F600
G1 X140.023 Y96.634 E.02644
G1 X140.063 Y97.208 E.01805
G1 X139.084 Y96.228 E.04348
G1 X138.579 Y96.258 E.01586
G1 X140.104 Y97.782 E.06764
G1 X140.144 Y98.356 E.01805
G1 X138.075 Y96.287 E.09181
G1 X137.571 Y96.316 E.01586
M73 P10 R8
G1 X140.184 Y98.93 E.11597
G1 X140.224 Y99.503 E.01805
G1 X137.066 Y96.346 E.14014
G1 X136.562 Y96.375 E.01586
G1 X140.264 Y100.077 E.16431
G1 X140.304 Y100.651 E.01805
G1 X136.057 Y96.404 E.18847
G1 X135.55 Y96.43 E.01595
G1 X140.344 Y101.225 E.21279
G1 X140.384 Y101.799 E.01805
G1 X135.034 Y96.448 E.23745
G1 X134.518 Y96.466 E.01619
G1 X140.425 Y102.373 E.26212
G1 X140.465 Y102.947 E.01805
G1 X134.003 Y96.484 E.28679
G1 X133.487 Y96.502 E.01619
M73 P11 R8
G1 X140.505 Y103.52 E.31146
G1 X140.545 Y104.094 E.01805
G1 X132.971 Y96.52 E.33613
G1 X132.455 Y96.538 E.01619
G1 X140.585 Y104.668 E.3608
G1 X140.625 Y105.242 E.01805
G1 X131.94 Y96.556 E.38547
G1 X131.424 Y96.574 E.01619
G1 X140.665 Y105.816 E.41014
G1 X140.705 Y106.39 E.01805
M73 P12 R8
G1 X130.908 Y96.592 E.43481
G1 X130.392 Y96.61 E.01619
G1 X140.746 Y106.964 E.45948
G1 X140.786 Y107.537 E.01805
G1 X129.865 Y96.617 E.48464
G1 X129.338 Y96.623 E.01656
G1 X140.826 Y108.111 E.50984
G1 X140.866 Y108.685 E.01805
M73 P13 R8
G1 X128.81 Y96.63 E.53504
G1 X128.283 Y96.636 E.01656
G1 X140.906 Y109.259 E.56023
G1 X140.946 Y109.833 E.01805
G1 X127.755 Y96.642 E.58543
G1 X127.227 Y96.648 E.01656
M73 P14 R8
G1 X140.986 Y110.407 E.61062
G1 X141.026 Y110.981 E.01805
G1 X126.7 Y96.654 E.63582
G1 X126.172 Y96.66 E.01656
G1 X141.067 Y111.555 E.66101
G1 X141.107 Y112.128 E.01805
M73 P15 R8
G1 X125.645 Y96.666 E.68621
G1 X125.117 Y96.672 E.01656
G1 X141.147 Y112.702 E.71141
G1 X141.187 Y113.276 E.01805
G1 X124.58 Y96.669 E.73702
G1 X124.04 Y96.663 E.01695
M73 P16 R8
G1 X140.747 Y113.37 E.74145
G1 X140.242 Y113.399 E.01585
G1 X128.583 Y101.739 E.51745
G1 X128.621 Y101.857 E.00387
M73 P17 R7
G1 X128.695 Y102.385 E.01675
G1 X139.738 Y113.428 E.49009
G1 X139.234 Y113.458 E.01585
G1 X128.702 Y102.926 E.46738
G1 X128.693 Y103.159 E.00732
G1 X128.639 Y103.397 E.00765
G1 X138.729 Y113.487 E.44779
G1 X138.225 Y113.516 E.01585
G1 X128.541 Y103.833 E.42976
G1 X128.39 Y104.215 E.0129
M73 P18 R7
G1 X137.721 Y113.546 E.41411
G1 X137.216 Y113.575 E.01585
G1 X128.201 Y104.56 E.40007
G1 X127.999 Y104.892 E.01218
G1 X136.712 Y113.605 E.38668
G1 X136.201 Y113.627 E.01606
G1 X127.755 Y105.182 E.3748
G1 X127.62 Y105.344 E.00662
M73 P19 R7
G1 X127.489 Y105.449 E.00528
G1 X135.685 Y113.645 E.36373
G1 X135.169 Y113.663 E.01619
G1 X127.194 Y105.688 E.35395
G1 X127.029 Y105.821 E.00666
G1 X126.875 Y105.903 E.00545
G1 X134.653 Y113.681 E.34519
G1 X134.138 Y113.699 E.01619
G1 X126.528 Y106.089 E.33773
G1 X126.137 Y106.232 E.01306
G1 X133.622 Y113.717 E.33219
G1 X133.106 Y113.735 E.01619
M73 P20 R7
G1 X125.71 Y106.339 E.32826
G1 X125.234 Y106.396 E.01504
G1 X132.591 Y113.753 E.32649
G1 X132.075 Y113.771 E.01619
G1 X124.692 Y106.388 E.32767
G1 X124.073 Y106.303 E.0196
G1 X131.723 Y113.953 E.33952
;WIPE_START
G1 F8640
G1 X127.65 Y109.88 E-1.33
;WIPE_END
G1 E-.07 F2100
G1 Z.4 F10800
G1 X123.328 Y96.485
G1 Z.2
G1 E1.4 F2100
G1 F600
G1 X125.972 Y99.128 E.11731
G1 X125.693 Y99.05 E.00908
G1 X125.325 Y99.015 E.0116
G1 X122.96 Y96.65 E.10495
G1 X122.42 Y96.644 E.01695
M73 P21 R7
G1 X124.777 Y99.001 E.10463
G1 X124.299 Y99.057 E.01511
G1 X121.88 Y96.638 E.10736
G1 X121.34 Y96.631 E.01695
G1 X123.879 Y99.171 E.11271
G1 X123.7 Y99.22 E.00585
G1 X123.493 Y99.318 E.00719
G1 X120.8 Y96.625 E.11951
G1 X120.26 Y96.619 E.01695
G1 X123.13 Y99.489 E.12741
G1 X122.812 Y99.705 E.01206
G1 X119.72 Y96.612 E.13724
G1 X119.169 Y96.595 E.0173
G1 X122.522 Y99.949 E.14883
G1 X122.246 Y100.206 E.01185
G1 X118.616 Y96.576 E.16112
G1 X118.063 Y96.557 E.01737
G1 X122.016 Y100.51 E.17544
G1 X121.796 Y100.824 E.01203
G1 X117.51 Y96.537 E.19023
G1 X116.956 Y96.518 E.01737
G1 X121.615 Y101.177 E.20676
G1 X121.473 Y101.568 E.01307
M73 P22 R7
G1 X116.403 Y96.499 E.22499
G1 X115.85 Y96.479 E.01737
G1 X121.36 Y101.989 E.24454
G1 X121.295 Y102.457 E.01484
G1 X115.297 Y96.46 E.26617
G1 X114.744 Y96.441 E.01737
G1 X121.3 Y102.997 E.29097
G1 X121.307 Y103.159 E.00511
G1 X121.417 Y103.647 E.01568
G1 X114.189 Y96.419 E.32079
G1 X113.622 Y96.386 E.01781
G1 X131.043 Y113.807 E.77317
G1 X130.522 Y113.82 E.01636
M73 P23 R7
G1 X113.055 Y96.353 E.7752
G1 X112.488 Y96.32 E.01781
G1 X129.995 Y113.826 E.77693
G1 X129.467 Y113.832 E.01656
M73 P24 R7
G1 X111.922 Y96.287 E.77867
G1 X111.355 Y96.254 E.01781
G1 X128.94 Y113.838 E.78041
G1 X128.412 Y113.844 E.01656
G1 X110.788 Y96.221 E.78214
M73 P25 R7
G1 X110.222 Y96.188 E.01781
G1 X127.884 Y113.851 E.78388
G1 X127.357 Y113.857 E.01656
G1 X109.987 Y96.487 E.77087
G1 X109.952 Y96.986 E.01569
M73 P26 R7
G1 X126.829 Y113.863 E.74901
G1 X126.302 Y113.869 E.01656
G1 X109.917 Y97.485 E.72714
G1 X109.882 Y97.984 E.01569
M73 P27 R7
G1 X125.774 Y113.875 E.70527
G1 X125.246 Y113.881 E.01656
M73 P27 R6
G1 X109.847 Y98.482 E.68341
G1 X109.813 Y98.981 E.01569
G1 X124.712 Y113.881 E.66125
G1 X124.172 Y113.875 E.01695
M73 P28 R6
G1 X109.778 Y99.48 E.63883
G1 X109.743 Y99.979 E.01569
G1 X123.632 Y113.868 E.61641
G1 X123.092 Y113.862 E.01695
M73 P29 R6
G1 X109.708 Y100.478 E.59399
G1 X109.673 Y100.977 E.01569
G1 X122.552 Y113.856 E.57157
G1 X122.012 Y113.849 E.01695
G1 X109.638 Y101.476 E.54915
G1 X109.603 Y101.974 E.01569
G1 X121.472 Y113.843 E.52674
M73 P30 R6
G1 X120.932 Y113.837 E.01695
G1 X109.568 Y102.473 E.50432
G1 X109.534 Y102.972 E.01569
G1 X120.392 Y113.831 E.4819
G1 X119.852 Y113.824 E.01695
G1 X109.499 Y103.471 E.45948
G1 X109.464 Y103.97 E.01569
M73 P31 R6
G1 X119.312 Y113.818 E.43706
G1 X118.761 Y113.8 E.01731
G1 X109.429 Y104.469 E.41414
G1 X109.394 Y104.968 E.01569
G1 X118.208 Y113.781 E.39115
G1 X117.654 Y113.762 E.01737
G1 X109.359 Y105.466 E.36815
G1 X109.324 Y105.965 E.01569
M73 P32 R6
G1 X117.101 Y113.742 E.34515
G1 X116.548 Y113.723 E.01737
G1 X109.289 Y106.464 E.32216
G1 X109.254 Y106.963 E.01569
G1 X115.995 Y113.704 E.29916
G1 X115.442 Y113.684 E.01737
G1 X109.22 Y107.462 E.27616
G1 X109.185 Y107.961 E.01569
G1 X114.889 Y113.665 E.25317
G1 X114.336 Y113.646 E.01737
G1 X109.15 Y108.459 E.23017
G1 X109.115 Y108.958 E.01569
M73 P33 R6
G1 X113.783 Y113.627 E.20718
G1 X113.224 Y113.601 E.01757
G1 X109.08 Y109.457 E.1839
G1 X109.045 Y109.956 E.01569
G1 X112.657 Y113.568 E.16029
G1 X112.09 Y113.535 E.01782
G1 X109.01 Y110.455 E.13669
G1 X108.975 Y110.954 E.01569
G1 X111.523 Y113.502 E.11308
G1 X110.957 Y113.469 E.01782
G1 X108.941 Y111.453 E.08948
G1 X108.906 Y111.951 E.01569
G1 X110.39 Y113.436 E.06587
G1 X109.823 Y113.403 E.01782
G1 X108.871 Y112.45 E.04227
G1 X108.836 Y112.949 E.01569
G1 X109.437 Y113.55 E.02668
; stop printing object BottomWedge.STL id:0 copy 0
;LAYER_CHANGE
;Z:0.4
;HEIGHT:0.2
;BEFORE_LAYER_CHANGE
G92 E0.0
;0.4


;WIPE_START
G1 F8640
G1 X108.836 Y112.949 E-.19628
G1 X108.871 Y112.45 E-.11547
G1 X109.823 Y113.403 E-.31102
G1 X110.39 Y113.436 E-.13109
G1 X108.906 Y111.951 E-.4847
G1 X108.933 Y111.556 E-.09145
;WIPE_END
G1 E-.07 F2100
G1 Z.4 F10800
;AFTER_LAYER_CHANGE
;0.4
G1 Z.6
G1 X105.119 Y111.29
G1 Z.4
G1 E1.4 F2100
;TYPE:Skirt/Brim
;WIDTH:0.42
G1 F3000
G1 X106.268 Y94.854 E.51659
G1 X106.759 Y93.467 E.04612
G1 X107.893 Y92.531 E.04612
G1 X109.015 Y92.292 E.03599
G1 X140.985 Y92.292 E1.00238
G1 X142.402 Y92.684 E.04612
G1 X143.415 Y93.751 E.04612
G1 X143.732 Y94.854 E.03599
M73 P34 R6
G1 X145.082 Y114.157 E.60671
G1 X144.789 Y115.598 E.04612
G1 X143.796 Y116.683 E.04612
G1 X142.495 Y117.098 E.04283
G1 X136.658 Y117.437 E.18332
G1 X130.814 Y117.641 E.18332
G1 X125.032 Y117.708 E.18131
G1 X119.122 Y117.639 E.18533
G1 X113.278 Y117.435 E.18332
G1 X107.505 Y117.098 E.18131
G1 X106.113 Y116.624 E.04612
G1 X105.164 Y115.5 E.04612
G1 X104.918 Y114.157 E.04283
G1 X105.114 Y111.349 E.08823
G1 X105.491 Y111.376 F10800
G1 F3000
G1 X106.644 Y94.88 E.51847
G1 X107.126 Y93.604 E.04278
G1 X108.23 Y92.802 E.04278
G1 X109.015 Y92.669 E.02497
G1 X140.985 Y92.669 E1.00238
G1 X142.292 Y93.06 E.04278
G1 X143.168 Y94.106 E.04278
G1 X143.356 Y94.88 E.02497
G1 X144.706 Y114.183 E.60671
G1 X144.406 Y115.514 E.04278
G1 X143.424 Y116.461 E.04278
G1 X142.473 Y116.722 E.03093
G1 X136.7 Y117.058 E.18131
G1 X130.865 Y117.262 E.18305
G1 X125.028 Y117.331 E.18305
G1 X119.135 Y117.262 E.18478
G1 X113.3 Y117.058 E.18305
G1 X107.527 Y116.722 E.18131
G1 X106.245 Y116.255 E.04278
G1 X105.431 Y115.16 E.04278
G1 X105.294 Y114.183 E.03093
G1 X105.486 Y111.436 E.08635
; printing object BottomWedge.STL id:0 copy 0
;WIPE_START
G1 F8640
G1 X105.888 Y105.69 E-1.33
;WIPE_END
G1 E-.07 F2100
G1 Z.6 F10800
G1 X108.341 Y113.755
G1 Z.4
G1 E1.4 F2100
M204 S800
;TYPE:Perimeter
;WIDTH:0.449999
G1 F3000
G1 X109.602 Y95.713 E.61218
G1 X114.316 Y95.988 E.15984
G1 X119.66 Y96.174 E.18099
G1 X125.007 Y96.236 E.18099
G1 X130.354 Y96.174 E.18099
G1 X135.684 Y95.988 E.18051
G1 X140.398 Y95.713 E.15984
G1 X141.659 Y113.755 E.61218
G1 X136.532 Y114.054 E.17385
M73 P35 R6
G1 X130.768 Y114.255 E.19524
G1 X125 Y114.322 E.19524
G1 X119.232 Y114.255 E.19524
G1 X113.468 Y114.054 E.19524
G1 X108.401 Y113.758 E.17181
M204 S1000
G1 X107.906 Y114.137 F10800
M204 S800
;TYPE:External perimeter
G1 F2400
G1 X109.224 Y95.283 E.63974
G1 X114.331 Y95.581 E.17314
G1 X119.665 Y95.767 E.18067
G1 X125.002 Y95.829 E.18067
G1 X130.34 Y95.767 E.18067
G1 X135.669 Y95.581 E.18051
G1 X140.776 Y95.283 E.17314
G1 X142.094 Y114.137 E.63974
G1 X136.551 Y114.46 E.18795
