; generated by PrusaSlicer 2.5.0+win64 on 2023-03-09 at 13:27:27 UTC

; 

; external perimeters extrusion width = 0.45mm
; perimeters extrusion width = 0.45mm
; infill extrusion width = 0.45mm
; solid infill extrusion width = 0.45mm
; top infill extrusion width = 0.40mm
; support material extrusion width = 0.35mm
; first layer extrusion width = 0.42mm

M73 P0 R29
M107
;TYPE:Custom
M862.3 P "MK2.5S" ; printer model check
M862.1 P0.4 ; nozzle diameter check
M115 U3.10.0 ; tell printer latest fw version
G90 ; use absolute coordinates
M83  ; extruder relative mode
M104 S240 ; set extruder temp
M140 S95 ; set bed temp
M190 S95 ; wait for bed temp
M109 S240 ; wait for extruder temp
G28 W ; home all without mesh bed level
G80 ; mesh bed leveling
G1 Y-3.0 F1000.0 ; go outside print area
G92 E0.0
G1 X60.0 E9.0 F1000.0 ; intro line
G1 X100.0 E12.5 F1000.0 ; intro line
G92 E0.0
G21 ; set units to millimeters
G90 ; use absolute coordinates
M83 ; use relative distances for extrusion
M900 K0.08 ; Filament gcode LA 1.5
M900 K45 ; Filament gcode LA 1.0
M107
;LAYER_CHANGE
;Z:0.25
;HEIGHT:0.25
;BEFORE_LAYER_CHANGE
G92 E0.0
;0.25


G1 E-1.4 F2100
G1 Z.2 F10800
G1 Z.25
;AFTER_LAYER_CHANGE
;0.25
G1 Z.45
G1 X107.415 Y91.612
G1 Z.25
G1 E1.4 F2100
M204 S1000
;TYPE:Skirt/Brim
;WIDTH:0.42
G1 F600
G1 X108.738 Y90.751 E.0601
G1 X119.193 Y88.221 E.40959
G1 X119.749 Y88.155 E.02134
G1 X130.251 Y88.155 E.39986
G1 X130.807 Y88.221 E.02134
G1 X141.262 Y90.751 E.40959
G1 X142.437 Y91.438 E.05183
G1 X143.066 Y92.886 E.0601
G1 X144.695 Y116.179 E.88911
G1 X144.395 Y117.507 E.05183
G1 X143.414 Y118.45 E.05183
G1 X142.472 Y118.706 E.03716
G1 X136.644 Y119.045 E.22229
G1 X130.81 Y119.248 E.22229
G1 X124.972 Y119.315 E.22229
G1 X119.19 Y119.248 E.22019
G1 X113.356 Y119.045 E.22229
G1 X107.528 Y118.706 E.22229
G1 X106.249 Y118.24 E.05183
G1 X105.439 Y117.146 E.05183
G1 X105.305 Y116.179 E.03716
G1 X106.934 Y92.886 E.88911
G1 X107.394 Y91.669 E.04955
; printing object top-wedge-for-alu-extrusion.STL id:0 copy 0
;WIPE_START
M73 P1 R29
G1 F8640
G1 X108.738 Y90.751 E-.37574
G1 X112.755 Y89.779 E-.95426
;WIPE_END
G1 E-.07 F2100
G1 Z.45 F10800
G1 X130.251 Y93.103
G1 Z.25
G1 E1.4 F2100
;TYPE:Support material
G1 F600
G1 X125 Y93.164 E.19994
G1 X119.749 Y93.103 E.19994
G1 X119.749 Y90.521 E.0983
G1 X130.251 Y90.521 E.39986
G1 X130.251 Y93.048 E.0962
G1 X129.885 Y92.943 F10800
G1 F600
G1 X129.885 Y90.851 E.07964
G1 X129.478 Y90.851 E.0155
G1 X129.478 Y92.782 E.07355
G1 X129.071 Y92.787 E.0155
G1 X129.071 Y90.851 E.07373
G1 X128.663 Y90.851 E.0155
G1 X128.663 Y92.792 E.07391
G1 X128.256 Y92.797 E.0155
G1 X128.256 Y90.851 E.07409
G1 X127.849 Y90.851 E.0155
G1 X127.849 Y92.801 E.07427
G1 X127.442 Y92.806 E.0155
G1 X127.442 Y90.851 E.07445
G1 X127.035 Y90.851 E.0155
G1 X127.035 Y92.811 E.07463
G1 X126.628 Y92.816 E.0155
G1 X126.628 Y90.851 E.07481
G1 X126.221 Y90.851 E.0155
G1 X126.221 Y92.82 E.07499
G1 X125.814 Y92.825 E.0155
G1 X125.814 Y90.851 E.07517
G1 X125.407 Y90.851 E.0155
G1 X125.407 Y92.83 E.07535
G1 X125 Y92.834 E.0155
G1 X125 Y90.851 E.07553
G1 X124.593 Y90.851 E.0155
G1 X124.593 Y92.83 E.07535
G1 X124.186 Y92.825 E.0155
G1 X124.186 Y90.851 E.07517
G1 X123.779 Y90.851 E.0155
G1 X123.779 Y92.82 E.07499
G1 X123.372 Y92.816 E.0155
G1 X123.372 Y90.851 E.07481
G1 X122.965 Y90.851 E.0155
G1 X122.965 Y92.811 E.07463
G1 X122.558 Y92.806 E.0155
G1 X122.558 Y90.851 E.07445
G1 X122.151 Y90.851 E.0155
G1 X122.151 Y92.801 E.07427
G1 X121.744 Y92.797 E.0155
G1 X121.744 Y90.851 E.07409
G1 X121.337 Y90.851 E.0155
G1 X121.337 Y92.792 E.07391
G1 X120.929 Y92.787 E.0155
G1 X120.929 Y90.851 E.07373
G1 X120.522 Y90.851 E.0155
G1 X120.522 Y92.782 E.07355
G1 X120.115 Y92.778 E.0155
G1 X120.115 Y90.686 E.07964
;WIPE_START
G1 F8640
G1 X120.115 Y92.778 E-.48296
G1 X120.522 Y92.782 E-.094
G1 X120.522 Y90.851 E-.44599
G1 X120.929 Y90.851 E-.09399
G1 X120.929 Y91.774 E-.21306
;WIPE_END
G1 E-.07 F2100
G1 Z.45 F10800
G1 X130.251 Y95.135
G1 Z.25
G1 E1.4 F2100
G1 F600
G1 X132.558 Y95.135 E.08785
G1 X132.558 Y97.442 E.08785
G1 X134.865 Y97.442 E.08785
G1 X134.865 Y112.558 E.57555
G1 X132.558 Y112.558 E.08785
G1 X132.558 Y114.664 E.08021
G1 X117.442 Y114.664 E.57555
G1 X117.442 Y112.558 E.08021
G1 X115.135 Y112.558 E.08785
G1 X115.135 Y97.442 E.57555
G1 X117.442 Y97.442 E.08785
M73 P2 R29
G1 X117.442 Y95.135 E.08785
G1 X119.749 Y95.135 E.08785
G1 X119.749 Y94.734 E.01527
G1 X130.251 Y94.734 E.39986
G1 X130.251 Y95.08 E.01318
G1 X134.362 Y112.393 F10800
G1 F600
G1 X134.362 Y97.772 E.55672
G1 X133.955 Y97.772 E.0155
G1 X133.955 Y112.228 E.55044
G1 X133.548 Y112.228 E.0155
M73 P2 R28
G1 X133.548 Y97.772 E.55044
G1 X133.141 Y97.772 E.0155
G1 X133.141 Y112.228 E.55044
G1 X132.734 Y112.228 E.0155
G1 X132.734 Y97.772 E.55044
G1 X132.327 Y97.772 E.0155
G1 X132.327 Y112.228 E.55044
G1 X132.228 Y112.228 E.00377
G1 X132.228 Y114.335 E.08021
G1 X131.92 Y114.335 E.01173
G1 X131.92 Y95.465 E.7185
G1 X131.513 Y95.465 E.0155
G1 X131.513 Y114.335 E.7185
G1 X131.106 Y114.335 E.0155
G1 X131.106 Y95.465 E.7185
G1 X130.699 Y95.465 E.0155
G1 X130.699 Y114.335 E.7185
G1 X130.292 Y114.335 E.0155
M73 P3 R28
G1 X130.292 Y95.465 E.7185
G1 X129.921 Y95.465 E.01412
G1 X129.921 Y95.064 E.01527
G1 X129.885 Y95.064 E.00138
G1 X129.885 Y114.335 E.73378
G1 X129.478 Y114.335 E.0155
G1 X129.478 Y95.064 E.73378
G1 X129.071 Y95.064 E.0155
G1 X129.071 Y114.335 E.73378
G1 X128.663 Y114.335 E.0155
G1 X128.663 Y95.064 E.73378
G1 X128.256 Y95.064 E.0155
G1 X128.256 Y114.335 E.73378
G1 X127.849 Y114.335 E.0155
G1 X127.849 Y95.064 E.73378
G1 X127.442 Y95.064 E.0155
G1 X127.442 Y114.335 E.73378
G1 X127.035 Y114.335 E.0155
G1 X127.035 Y95.064 E.73378
G1 X126.628 Y95.064 E.0155
M73 P4 R28
G1 X126.628 Y114.335 E.73378
G1 X126.221 Y114.335 E.0155
G1 X126.221 Y95.064 E.73378
G1 X125.814 Y95.064 E.0155
G1 X125.814 Y114.335 E.73378
G1 X125.407 Y114.335 E.0155
G1 X125.407 Y95.064 E.73378
G1 X125 Y95.064 E.0155
G1 X125 Y114.335 E.73378
G1 X124.593 Y114.335 E.0155
G1 X124.593 Y95.064 E.73378
G1 X124.186 Y95.064 E.0155
G1 X124.186 Y114.335 E.73378
G1 X123.779 Y114.335 E.0155
G1 X123.779 Y95.064 E.73378
G1 X123.372 Y95.064 E.0155
G1 X123.372 Y114.335 E.73378
G1 X122.965 Y114.335 E.0155
M73 P5 R28
G1 X122.965 Y95.064 E.73378
G1 X122.558 Y95.064 E.0155
G1 X122.558 Y114.335 E.73378
G1 X122.151 Y114.335 E.0155
G1 X122.151 Y95.064 E.73378
G1 X121.744 Y95.064 E.0155
G1 X121.744 Y114.335 E.73378
G1 X121.337 Y114.335 E.0155
G1 X121.337 Y95.064 E.73378
G1 X120.929 Y95.064 E.0155
M73 P5 R27
G1 X120.929 Y114.335 E.73378
G1 X120.522 Y114.335 E.0155
G1 X120.522 Y95.064 E.73378
G1 X120.115 Y95.064 E.0155
G1 X120.115 Y114.335 E.73378
G1 X119.708 Y114.335 E.0155
G1 X119.708 Y95.465 E.7185
G1 X119.301 Y95.465 E.0155
M73 P6 R27
G1 X119.301 Y114.335 E.7185
G1 X118.894 Y114.335 E.0155
G1 X118.894 Y95.465 E.7185
G1 X118.487 Y95.465 E.0155
G1 X118.487 Y114.335 E.7185
G1 X118.08 Y114.335 E.0155
G1 X118.08 Y95.465 E.7185
G1 X117.772 Y95.465 E.01173
G1 X117.772 Y97.772 E.08785
G1 X117.673 Y97.772 E.00377
G1 X117.673 Y112.228 E.55044
G1 X117.266 Y112.228 E.0155
G1 X117.266 Y97.772 E.55044
G1 X116.859 Y97.772 E.0155
G1 X116.859 Y112.228 E.55044
G1 X116.452 Y112.228 E.0155
G1 X116.452 Y97.772 E.55044
G1 X116.045 Y97.772 E.0155
G1 X116.045 Y112.228 E.55044
G1 X115.638 Y112.228 E.0155
G1 X115.638 Y97.607 E.55672
;WIPE_START
G1 F8640
G1 X115.638 Y103.367 E-1.33
;WIPE_END
G1 E-.07 F2100
M73 P7 R27
G1 Z.45 F10800
G1 X135.942 Y94.037
G1 Z.25
G1 E1.4 F2100
;TYPE:Perimeter
;WIDTH:0.419999
G1 F600
G1 X136.467 Y94.061 E.02001
G1 X139.985 Y93.868 E.13413
G1 X141.505 Y115.615 E.83006
G1 X136.521 Y115.905 E.1901
;WIDTH:0.454397
G1 X136.134 Y115.901 E.01611
;WIDTH:0.488794
G1 X135.748 Y115.897 E.01749
G1 X135.954 Y115.678 E.01361
;WIDTH:0.454397
G1 X136.16 Y115.459 E.01253
;WIDTH:0.419999
G1 X136.176 Y115.326 E.0051
G1 X136.166 Y95.229 E.76524
G1 X136.047 Y94.135 E.0419
G1 X135.986 Y94.078 E.00317
;WIPE_START
G1 F8640
G1 X136.467 Y94.061 E-.1112
G1 X139.985 Y93.868 E-.81335
G1 X140.107 Y95.62 E-.40545
;WIPE_END
G1 E-.07 F2100
G1 Z.45 F10800
G1 X114.028 Y94.038
G1 Z.25
G1 E1.4 F2100
G1 F600
G1 X113.956 Y94.117 E.00407
G1 X113.865 Y94.769 E.02508
G1 X113.824 Y95.785 E.0387
G1 X113.824 Y115.326 E.74408
G1 X113.84 Y115.459 E.0051
;WIDTH:0.450006
G1 X114.096 Y115.682 E.01401
;WIDTH:0.480012
G1 X114.353 Y115.905 E.01507
G1 X113.914 Y115.905 E.01946
;WIDTH:0.450006
G1 X113.475 Y115.905 E.01809
;WIDTH:0.419999
G1 X108.495 Y115.615 E.18994
G1 X110.015 Y93.868 E.83006
G1 X113.326 Y94.05 E.12623
G1 X113.968 Y94.039 E.02447
;WIPE_START
G1 F8640
G1 X113.956 Y94.117 E-.01814
G1 X113.865 Y94.769 E-.15209
G1 X113.824 Y95.785 E-.23467
G1 X113.824 Y99.791 E-.92509
;WIPE_END
G1 E-.07 F2100
G1 Z.45 F10800
G1 X109.675 Y93.483
G1 Z.25
G1 E1.4 F2100
;TYPE:External perimeter
;WIDTH:0.420002
G1 F600
G1 X113.346 Y93.684 E.13997
G1 X113.871 Y93.68 E.02003
G1 X114.531 Y93.646 E.02516
G1 X119.064 Y93.732 E.17262
;WIDTH:0.414132
G1 X119.759 Y93.742 E.02603
;WIDTH:0.407316
G1 X124.998 Y93.788 E.19261
;WIDTH:0.376833
G1 X125.002 Y93.788 E.00013
;WIDTH:0.407338
G1 X130.243 Y93.742 E.19268
;WIDTH:0.414132
G1 X130.936 Y93.732 E.02597
;WIDTH:0.420024
G1 X135.469 Y93.646 E.17263
;WIDTH:0.420002
G1 X136.447 Y93.695 E.03732
G1 X140.325 Y93.483 E.14787
G1 X141.897 Y115.959 E.85792
G1 X136.542 Y116.271 E.20422
G1 X130.773 Y116.472 E.21983
M73 P8 R27
G1 X125 Y116.539 E.21983
G1 X119.227 Y116.472 E.21983
G1 X113.458 Y116.271 E.21983
G1 X108.103 Y115.959 E.20422
G1 X109.671 Y93.543 E.85563
G1 X110.025 Y93.677 F10800
;WIPE_START
G1 F8640
G1 X113.346 Y93.684 E-.84911
G1 X113.871 Y93.68 E-.12144
G1 X114.531 Y93.646 E-.15257
G1 X115.427 Y93.663 E-.20688
;WIPE_END
G1 E-.07 F2100
G1 Z.45 F10800
G1 X114.318 Y94.169
G1 Z.25
G1 E1.4 F2100
;WIDTH:0.419999
G1 F600
G1 X114.49 Y94.013 E.00885
G1 X119.057 Y94.092 E.17393
;WIDTH:0.414132
G1 X119.754 Y94.096 E.02609
;WIDTH:0.407338
G1 X124.996 Y94.111 E.19273
;WIDTH:0.376833
G1 X125.004 Y94.111 E.00025
;WIDTH:0.407316
G1 X130.244 Y94.096 E.19261
;WIDTH:0.414132
G1 X130.943 Y94.092 E.02619
;WIDTH:0.420024
G1 X135.475 Y94.012 E.17263
G1 X135.682 Y94.175 E.01003
G1 X135.802 Y95.269 E.0419
G1 X135.81 Y115.326 E.76378
G1 X135.665 Y115.505 E.00879
G1 X135.627 Y115.509 E.00145
G1 X119.238 Y115.509 E.62407
;WIDTH:0.419999
G1 X114.373 Y115.509 E.18526
G1 X114.195 Y115.37 E.00859
G1 X114.19 Y95.785 E.74577
G1 X114.231 Y94.784 E.03813
G1 X114.31 Y94.228 E.02138
G1 X114.214 Y93.961 F10800
;WIPE_START
G1 F8640
G1 X114.49 Y94.013 E-.06492
G1 X119.057 Y94.092 E-1.05472
G1 X119.754 Y94.096 E-.16078
G1 X119.968 Y94.096 E-.04958
;WIPE_END
G1 E-.07 F2100
G1 Z.45 F10800
G1 X135.748 Y115.897
G1 Z.25
G1 E1.4 F2100
;TYPE:Perimeter
;WIDTH:0.488794
G1 F600
G1 X135.627 Y115.906 E.00548
;WIDTH:0.522824
G1 X134.411 Y115.927 E.05932
;WIDTH:0.565281
G1 X133.194 Y115.948 E.06469
;WIDTH:0.607739
G1 X131.978 Y115.969 E.07006
;WIDTH:0.650196
G1 X130.762 Y115.991 E.07543
;WIDTH:0.68372
G1 X127.881 Y116.007 E.18866
;WIDTH:0.717244
G1 X125 Y116.024 E.1987
G1 X122.119 Y116.007 E.1987
;WIDTH:0.683719
G1 X119.238 Y115.991 E.18866
;WIDTH:0.650194
G1 X118.022 Y115.969 E.07543
;WIDTH:0.607737
G1 X116.806 Y115.948 E.07006
;WIDTH:0.56528
G1 X115.589 Y115.927 E.06469
;WIDTH:0.522823
G1 X114.373 Y115.906 E.05932
;WIDTH:0.480366
G1 X114.353 Y115.905 E.0009
;WIPE_START
M73 P8 R26
G1 F8640
G1 X114.373 Y115.906 E-.00467
G1 X115.589 Y115.927 E-.28089
G1 X116.806 Y115.948 E-.28089
G1 X118.022 Y115.969 E-.28089
G1 X119.238 Y115.991 E-.28089
G1 X120.112 Y115.996 E-.20176
;WIPE_END
G1 E-.07 F2100
G1 Z.45 F10800
G1 X113.08 Y94.146
G1 Z.25
G1 E1.4 F2100
;TYPE:Solid infill
;WIDTH:0.423208
G1 F600
G1 X113.602 Y94.668 E.02835
G1 X113.574 Y95.163 E.01903
G1 X112.702 Y94.291 E.04737
G1 X112.149 Y94.26 E.02127
M73 P9 R26
G1 X113.554 Y95.665 E.07631
G1 X113.549 Y96.183 E.01989
G1 X111.596 Y94.23 E.10608
G1 X111.044 Y94.2 E.02127
G1 X113.549 Y96.706 E.13612
G1 X113.549 Y97.228 E.02007
G1 X110.491 Y94.17 E.16615
G1 X110.271 Y94.158 E.00847
G1 X110.25 Y94.452 E.01132
G1 X113.549 Y97.751 E.17922
G1 X113.549 Y98.273 E.02007
G1 X110.216 Y94.94 E.18108
G1 X110.182 Y95.429 E.01881
G1 X113.549 Y98.796 E.18293
G1 X113.549 Y99.319 E.02007
G1 X110.148 Y95.917 E.18478
G1 X110.113 Y96.405 E.01881
G1 X113.549 Y99.841 E.18664
G1 X113.549 Y100.364 E.02007
G1 X110.079 Y96.894 E.18849
G1 X110.045 Y97.382 E.01881
G1 X113.549 Y100.887 E.19035
G1 X113.549 Y101.409 E.02007
G1 X110.011 Y97.871 E.1922
G1 X109.977 Y98.359 E.01881
G1 X113.549 Y101.932 E.19406
G1 X113.549 Y102.454 E.02007
G1 X109.943 Y98.848 E.19591
G1 X109.908 Y99.336 E.01881
G1 X113.549 Y102.977 E.19777
G1 X113.549 Y103.5 E.02007
G1 X109.874 Y99.825 E.19962
G1 X109.84 Y100.313 E.01881
G1 X113.549 Y104.022 E.20148
G1 X113.549 Y104.545 E.02007
G1 X109.806 Y100.802 E.20333
G1 X109.772 Y101.29 E.01881
G1 X113.549 Y105.068 E.20519
G1 X113.549 Y105.59 E.02007
G1 X109.738 Y101.779 E.20704
G1 X109.704 Y102.267 E.01881
G1 X113.549 Y106.113 E.2089
G1 X113.549 Y106.635 E.02007
G1 X109.669 Y102.756 E.21075
G1 X109.635 Y103.244 E.01881
G1 X113.549 Y107.158 E.21261
G1 X113.549 Y107.681 E.02007
G1 X109.601 Y103.733 E.21446
G1 X109.567 Y104.221 E.01881
G1 X113.549 Y108.203 E.21632
G1 X113.549 Y108.726 E.02007
G1 X109.533 Y104.71 E.21817
G1 X109.499 Y105.198 E.01881
G1 X113.549 Y109.249 E.22003
G1 X113.549 Y109.771 E.02007
G1 X109.464 Y105.687 E.22188
G1 X109.43 Y106.175 E.01881
G1 X113.549 Y110.294 E.22374
G1 X113.549 Y110.816 E.02007
G1 X109.396 Y106.663 E.22559
G1 X109.362 Y107.152 E.01881
G1 X113.549 Y111.339 E.22745
G1 X113.549 Y111.862 E.02007
G1 X109.328 Y107.64 E.2293
G1 X109.294 Y108.129 E.01881
M73 P10 R26
G1 X113.549 Y112.384 E.23116
G1 X113.549 Y112.907 E.02007
G1 X109.259 Y108.617 E.23301
G1 X109.225 Y109.106 E.01881
G1 X113.549 Y113.43 E.23487
G1 X113.549 Y113.952 E.02007
G1 X109.191 Y109.594 E.23672
G1 X109.157 Y110.083 E.01881
G1 X113.549 Y114.475 E.23858
G1 X113.549 Y114.997 E.02007
G1 X109.123 Y110.571 E.24043
G1 X109.089 Y111.06 E.01881
G1 X113.638 Y115.609 E.24713
G1 X113.631 Y115.628 E.00078
G1 X113.105 Y115.599 E.02023
G1 X109.055 Y111.548 E.22002
G1 X109.02 Y112.037 E.01881
G1 X112.551 Y115.568 E.1918
G1 X111.997 Y115.536 E.0213
G1 X108.986 Y112.525 E.16358
G1 X108.952 Y113.014 E.01881
G1 X111.444 Y115.505 E.13535
G1 X110.89 Y115.474 E.0213
G1 X108.918 Y113.502 E.10713
G1 X108.884 Y113.991 E.01881
G1 X110.336 Y115.443 E.0789
G1 X109.783 Y115.412 E.0213
G1 X108.85 Y114.479 E.05068
G1 X108.815 Y114.968 E.01881
G1 X109.404 Y115.556 E.03196
;WIPE_START
G1 F8640
G1 X108.815 Y114.968 E-.19211
G1 X108.85 Y114.479 E-.11307
G1 X109.783 Y115.412 E-.30465
G1 X110.336 Y115.443 E-.12806
G1 X108.884 Y113.991 E-.47432
G1 X108.918 Y113.502 E-.11307
G1 X108.932 Y113.517 E-.00473
;WIPE_END
G1 E-.07 F2100
G1 Z.45 F10800
G1 X139.938 Y94.781
G1 Z.25
G1 E1.4 F2100
;WIDTH:0.420231
G1 F600
G1 X139.336 Y94.179 E.03245
G1 X138.845 Y94.206 E.01876
G1 X139.8 Y95.161 E.05146
G1 X139.839 Y95.718 E.02129
G1 X138.353 Y94.233 E.08004
G1 X137.862 Y94.26 E.01876
G1 X139.878 Y96.276 E.10863
G1 X139.917 Y96.833 E.02129
G1 X137.37 Y94.287 E.13722
G1 X136.878 Y94.314 E.01876
G1 X139.955 Y97.391 E.1658
G1 X139.994 Y97.948 E.02129
G1 X136.379 Y94.332 E.19484
G1 X136.344 Y94.331 E.00132
G1 X136.401 Y94.873 E.02077
G1 X140.033 Y98.505 E.19572
G1 X140.072 Y99.063 E.02129
G1 X136.445 Y95.435 E.19549
G1 X136.445 Y95.953 E.01976
G1 X140.111 Y99.62 E.19758
G1 X140.15 Y100.178 E.02129
G1 X136.445 Y96.472 E.19967
G1 X136.445 Y96.991 E.01976
G1 X140.189 Y100.735 E.20176
G1 X140.228 Y101.292 E.02129
G1 X136.445 Y97.509 E.20385
G1 X136.445 Y98.028 E.01976
G1 X140.267 Y101.85 E.20594
G1 X140.306 Y102.407 E.02129
G1 X136.446 Y98.546 E.20803
G1 X136.446 Y99.065 E.01976
G1 X140.345 Y102.965 E.21012
G1 X140.384 Y103.522 E.02129
G1 X136.446 Y99.584 E.21221
G1 X136.446 Y100.102 E.01976
G1 X140.423 Y104.079 E.2143
G1 X140.462 Y104.637 E.02129
G1 X136.446 Y100.621 E.2164
G1 X136.446 Y101.139 E.01976
M73 P11 R26
G1 X140.501 Y105.194 E.21849
G1 X140.54 Y105.752 E.02129
G1 X136.447 Y101.658 E.22058
G1 X136.447 Y102.177 E.01976
