; generated by PrusaSlicer 2.5.0+win64 on 2023-02-21 at 19:08:57 UTC

; 

; external perimeters extrusion width = 0.45mm
; perimeters extrusion width = 0.45mm
; infill extrusion width = 0.45mm
; solid infill extrusion width = 0.45mm
; top infill extrusion width = 0.40mm
; first layer extrusion width = 0.42mm

M73 P0 R12
M107
;TYPE:Custom
M862.3 P "MK2.5S" ; printer model check
M862.1 P0.4 ; nozzle diameter check
M115 U3.10.0 ; tell printer latest fw version
G90 ; use absolute coordinates
M83  ; extruder relative mode
M104 S250 ; set extruder temp
M140 S90 ; set bed temp
M190 S90 ; wait for bed temp
M109 S250 ; wait for extruder temp
G28 W ; home all without mesh bed level
G80 ; mesh bed leveling
G1 Y-3.0 F1000.0 ; go outside print area
G92 E0.0
G1 X60.0 E9.0 F1000.0 ; intro line
G1 X100.0 E12.5 F1000.0 ; intro line
G92 E0.0
G21 ; set units to millimeters
G90 ; use absolute coordinates
M83 ; use relative distances for extrusion
M900 K0.08 ; Filament gcode LA 1.5
M900 K45 ; Filament gcode LA 1.0
M107
;LAYER_CHANGE
;Z:0.2
;HEIGHT:0.2
;BEFORE_LAYER_CHANGE
G92 E0.0
;0.2


G1 E-1.4 F2100
G1 Z.2 F10800
;AFTER_LAYER_CHANGE
;0.2
G1 Z.4
G1 X105.919 Y38.777
G1 Z.2
G1 E1.4 F2100
M204 S1000
;TYPE:Skirt/Brim
;WIDTH:0.42
G1 F600
G1 X107.053 Y37.84 E.04612
G1 X108.176 Y37.601 E.03599
G1 X139.587 Y37.601 E.98488
G1 X141.004 Y37.994 E.04612
M73 P1 R12
G1 X142.018 Y39.06 E.04612
G1 X142.335 Y40.163 E.03599
G1 X143.963 Y63.456 E.73212
G1 X143.67 Y64.898 E.04612
G1 X142.677 Y65.983 E.04612
G1 X141.376 Y66.398 E.04283
G1 X135.539 Y66.737 E.18332
G1 X129.696 Y66.941 E.18332
G1 X123.913 Y67.008 E.18131
G1 X118.003 Y66.939 E.18533
M73 P2 R12
G1 X112.16 Y66.734 E.18332
G1 X106.387 Y66.398 E.18131
G1 X104.995 Y65.924 E.04612
G1 X104.045 Y64.8 E.04612
G1 X103.799 Y63.456 E.04283
G1 X105.428 Y40.163 E.73212
G1 X105.899 Y38.833 E.04424
G1 X106.264 Y38.971 F10800
G1 F600
G1 X106.286 Y38.913 E.00195
G1 X107.391 Y38.112 E.04278
G1 X108.176 Y37.978 E.02497
G1 X139.587 Y37.978 E.98488
G1 X140.894 Y38.37 E.04278
M73 P3 R12
G1 X141.771 Y39.416 E.04278
G1 X141.958 Y40.19 E.02497
G1 X143.587 Y63.483 E.73212
G1 X143.288 Y64.814 E.04278
M73 P3 R11
G1 X142.306 Y65.761 E.04278
G1 X141.354 Y66.022 E.03093
G1 X135.581 Y66.358 E.18131
G1 X129.747 Y66.562 E.18305
G1 X123.909 Y66.631 E.18305
G1 X118.016 Y66.562 E.18478
G1 X112.182 Y66.358 E.18305
G1 X106.409 Y66.022 E.18131
G1 X105.127 Y65.555 E.04278
G1 X104.313 Y64.46 E.04278
M73 P4 R11
G1 X104.176 Y63.483 E.03093
G1 X105.804 Y40.19 E.73212
G1 X106.243 Y39.027 E.03895
; printing object TopWedge.STL id:0 copy 0
;WIPE_START
G1 F8640
G1 X106.286 Y38.913 E-.0282
G1 X107.391 Y38.112 E-.31505
G1 X108.176 Y37.978 E-.18389
G1 X111.653 Y37.978 E-.80286
;WIPE_END
G1 E-.07 F2100
G1 Z.4 F10800
G1 X108.907 Y41.186
G1 Z.2
G1 E1.4 F2100
;TYPE:Perimeter
;WIDTH:0.419999
G1 F600
G1 X113.376 Y41.447 E.14038
G1 X118.631 Y41.63 E.16485
G1 X123.888 Y41.691 E.16485
G1 X129.145 Y41.63 E.16485
G1 X134.387 Y41.447 E.16444
G1 X138.856 Y41.186 E.14038
G1 X140.375 Y62.909 E.68276
G1 X135.406 Y63.199 E.15606
M73 P5 R11
G1 X129.645 Y63.4 E.18073
G1 X123.881 Y63.467 E.18074
G1 X118.117 Y63.4 E.18074
G1 X112.357 Y63.199 E.18073
G1 X107.388 Y62.909 E.15606
G1 X108.902 Y41.246 E.68088
G1 X108.556 Y40.788 F10800
;TYPE:External perimeter
G1 F600
G1 X113.389 Y41.07 E.15179
G1 X118.635 Y41.253 E.16458
G1 X123.884 Y41.314 E.16458
G1 X129.132 Y41.253 E.16458
M73 P6 R11
G1 X134.373 Y41.07 E.16444
G1 X139.206 Y40.788 E.15179
G1 X140.778 Y63.263 E.70641
G1 X135.424 Y63.575 E.16816
G1 X129.654 Y63.777 E.18101
G1 X123.881 Y63.844 E.18102
G1 X118.109 Y63.777 E.18102
G1 X112.339 Y63.575 E.18101
G1 X106.985 Y63.263 E.16816
G1 X108.552 Y40.848 E.70453
M73 P7 R11
G1 X108.906 Y40.983 F10800
;WIPE_START
G1 F8640
G1 X113.389 Y41.07 E-1.11806
G1 X114.307 Y41.102 E-.21194
;WIPE_END
G1 E-.07 F2100
G1 Z.4 F10800
G1 X120.553 Y48.573
G1 Z.2
G1 E1.4 F2100
;TYPE:Perimeter
G1 F600
G1 X121.245 Y48.01 E.028
G1 X121.871 Y47.661 E.02245
G1 X122.634 Y47.384 E.02545
G1 X123.459 Y47.238 E.02628
G1 X124.271 Y47.235 E.02546
G1 X125.042 Y47.361 E.02447
G1 X125.782 Y47.613 E.0245
G1 X126.523 Y48.013 E.02641
G1 X127.158 Y48.516 E.02541
G1 X127.7 Y49.12 E.02544
G1 X128.135 Y49.811 E.02559
G1 X128.445 Y50.561 E.02546
G1 X128.622 Y51.349 E.02531
G1 X128.662 Y52.213 E.02713
G1 X128.57 Y52.962 E.02366
G1 X128.338 Y53.748 E.02567
G1 X127.979 Y54.476 E.02547
G1 X127.484 Y55.152 E.02628
G1 X126.921 Y55.701 E.02463
G1 X126.285 Y56.141 E.02424
G1 X125.551 Y56.488 E.02547
G1 X124.736 Y56.713 E.02651
G1 X123.929 Y56.789 E.02541
G1 X123.12 Y56.729 E.02543
G1 X122.328 Y56.531 E.02559
G1 X121.562 Y56.189 E.02629
G1 X120.908 Y55.754 E.02463
G1 X120.344 Y55.225 E.02424
G1 X119.834 Y54.556 E.02639
G1 X119.457 Y53.829 E.02569
G1 X119.213 Y53.059 E.02533
G1 X119.102 Y52.251 E.02557
G1 X119.129 Y51.443 E.02533
G1 X119.302 Y50.619 E.0264
G1 X119.589 Y49.887 E.02465
G1 X119.987 Y49.225 E.02424
G1 X120.507 Y48.612 E.02519
G1 X120.795 Y48.856 F10800
;TYPE:External perimeter
G1 F600
G1 X121.429 Y48.339 E.02565
G1 X122.055 Y47.99 E.02245
G1 X122.759 Y47.739 E.02345
G1 X123.521 Y47.61 E.02423
G1 X124.269 Y47.612 E.02345
G1 X124.977 Y47.733 E.02253
G1 X125.657 Y47.969 E.02254
G1 X126.34 Y48.343 E.02445
G1 X126.921 Y48.809 E.02335
G1 X127.417 Y49.369 E.02344
G1 X127.814 Y50.008 E.02359
G1 X128.095 Y50.702 E.02346
G1 X128.253 Y51.428 E.02332
G1 X128.288 Y52.146 E.02255
G1 X128.196 Y52.916 E.02431
G1 X127.978 Y53.637 E.02362
G1 X127.642 Y54.306 E.02346
G1 X127.182 Y54.926 E.02422
G1 X126.661 Y55.428 E.02268
G1 X126.074 Y55.829 E.02228
G1 X125.393 Y56.145 E.02354
G1 X124.639 Y56.348 E.02448
M73 P8 R11
G1 X123.897 Y56.414 E.02335
G1 X123.152 Y56.353 E.02345
G1 X122.423 Y56.166 E.02359
G1 X121.72 Y55.846 E.02423
G1 X121.12 Y55.442 E.02268
G1 X120.605 Y54.953 E.02228
G1 X120.136 Y54.33 E.02444
G1 X119.794 Y53.659 E.02362
G1 X119.574 Y52.948 E.02332
G1 X119.476 Y52.203 E.02358
G1 X119.506 Y51.459 E.02332
G1 X119.67 Y50.7 E.02435
G1 X119.939 Y50.029 E.02268
G1 X120.308 Y49.422 E.02228
G1 X120.756 Y48.902 E.02152
G1 X120.698 Y48.468 F10800
;WIPE_START
G1 F8640
G1 X121.429 Y48.339 E-.20253
G1 X122.055 Y47.99 E-.16536
G1 X122.759 Y47.739 E-.17272
G1 X123.521 Y47.61 E-.17841
G1 X124.269 Y47.612 E-.17269
G1 X124.977 Y47.733 E-.16594
G1 X125.657 Y47.969 E-.16602
G1 X126.06 Y48.19 E-.10633
;WIPE_END
G1 E-.07 F2100
G1 Z.4 F10800
G1 X138.03 Y41.348
G1 Z.2
G1 E1.4 F2100
;TYPE:Solid infill
;WIDTH:0.42015
G1 F600
G1 X138.626 Y41.943 E.02641
G1 X138.666 Y42.517 E.01804
G1 X137.687 Y41.538 E.04343
G1 X137.183 Y41.567 E.01584
G1 X138.706 Y43.09 E.06757
G1 X138.746 Y43.664 E.01804
G1 X136.678 Y41.596 E.09171
G1 X136.174 Y41.626 E.01584
G1 X138.786 Y44.238 E.11586
G1 X138.826 Y44.811 E.01804
G1 X135.67 Y41.655 E.14
G1 X135.166 Y41.684 E.01584
G1 X138.866 Y45.385 E.16414
G1 X138.906 Y45.958 E.01804
G1 X134.662 Y41.714 E.18829
G1 X134.152 Y41.738 E.016
G1 X138.946 Y46.532 E.21267
G1 X138.987 Y47.106 E.01804
G1 X133.637 Y41.756 E.23731
G1 X133.121 Y41.774 E.01618
G1 X139.027 Y47.679 E.26196
G1 X139.067 Y48.253 E.01804
G1 X132.606 Y41.792 E.2866
G1 X132.09 Y41.81 E.01618
M73 P9 R11
G1 X139.107 Y48.826 E.31125
G1 X139.147 Y49.4 E.01804
G1 X131.575 Y41.828 E.3359
G1 X131.059 Y41.846 E.01618
G1 X139.187 Y49.974 E.36054
G1 X139.227 Y50.547 E.01804
G1 X130.544 Y41.864 E.38519
G1 X130.028 Y41.882 E.01618
G1 X139.267 Y51.121 E.40983
G1 X139.307 Y51.694 E.01804
G1 X129.513 Y41.9 E.43448
G1 X128.994 Y41.914 E.01629
M73 P10 R11
G1 X139.348 Y52.268 E.45928
G1 X139.388 Y52.842 E.01804
G1 X128.467 Y41.92 E.48446
G1 X127.939 Y41.926 E.01654
G1 X139.428 Y53.415 E.50963
G1 X139.468 Y53.989 E.01804
G1 X127.412 Y41.933 E.5348
G1 X126.885 Y41.939 E.01654
G1 X139.508 Y54.562 E.55997
G1 X139.548 Y55.136 E.01804
M73 P11 R11
G1 X126.357 Y41.945 E.58514
G1 X125.83 Y41.951 E.01654
M73 P11 R10
G1 X139.588 Y55.709 E.61031
G1 X139.628 Y56.283 E.01804
G1 X125.302 Y41.957 E.63549
G1 X124.775 Y41.963 E.01654
M73 P12 R10
G1 X139.668 Y56.857 E.66066
G1 X139.709 Y57.43 E.01804
G1 X124.248 Y41.969 E.68583
G1 X123.717 Y41.972 E.01666
G1 X139.749 Y58.004 E.71116
G1 X139.789 Y58.577 E.01804
G1 X123.177 Y41.966 E.73689
G1 X122.637 Y41.959 E.01693
M73 P13 R10
G1 X139.829 Y59.151 E.76261
G1 X139.869 Y59.725 E.01804
G1 X122.097 Y41.953 E.78834
G1 X121.558 Y41.947 E.01693
G1 X139.909 Y60.298 E.81406
G1 X139.949 Y60.872 E.01804
M73 P14 R10
G1 X121.018 Y41.94 E.83978
G1 X120.478 Y41.934 E.01693
G1 X125.913 Y47.369 E.2411
G1 X126.666 Y47.77 E.02675
G1 X127.341 Y48.301 E.02695
G1 X127.917 Y48.938 E.02695
G1 X128.417 Y49.737 E.02957
G1 X128.504 Y49.96 E.00749
G1 X139.989 Y61.445 E.50949
G1 X140.029 Y62.019 E.01804
M73 P15 R10
G1 X128.786 Y50.776 E.49873
G1 X128.916 Y51.439 E.02121
G1 X140.07 Y62.593 E.49475
G1 X140.073 Y62.643 E.0016
G1 X139.614 Y62.67 E.01444
G1 X128.935 Y51.992 E.47368
G1 X128.944 Y52.237 E.00769
G1 X128.911 Y52.501 E.00835
G1 X139.11 Y62.7 E.45239
G1 X138.605 Y62.729 E.01584
G1 X128.853 Y52.976 E.43261
G1 X128.736 Y53.393 E.01357
M73 P16 R10
G1 X138.101 Y62.758 E.41543
G1 X137.597 Y62.788 E.01584
G1 X128.616 Y53.806 E.39842
G1 X128.444 Y54.168 E.01257
G1 X137.093 Y62.817 E.38365
G1 X136.589 Y62.846 E.01584
G1 X128.269 Y54.527 E.36906
G1 X128.056 Y54.847 E.01207
G1 X136.085 Y62.876 E.35615
G1 X135.581 Y62.905 E.01584
G1 X127.831 Y55.156 E.34376
G1 X127.706 Y55.327 E.00666
M73 P17 R10
G1 X127.586 Y55.444 E.00525
G1 X135.069 Y62.927 E.33196
G1 X134.554 Y62.945 E.01618
G1 X127.315 Y55.707 E.3211
G1 X127.042 Y55.967 E.01184
G1 X134.039 Y62.963 E.31036
G1 X133.523 Y62.981 E.01618
G1 X126.721 Y56.18 E.30171
G1 X126.401 Y56.393 E.01207
G1 X133.008 Y62.999 E.29307
G1 X132.492 Y63.017 E.01618
G1 X126.043 Y56.568 E.28609
G1 X125.673 Y56.732 E.01267
G1 X131.977 Y63.035 E.2796
G1 X131.461 Y63.053 E.01618
M73 P18 R10
G1 X125.268 Y56.86 E.27472
G1 X124.842 Y56.967 E.01379
G1 X130.946 Y63.071 E.27077
G1 X130.43 Y63.089 E.01618
G1 X124.375 Y57.034 E.26859
G1 X123.882 Y57.074 E.01553
G1 X129.915 Y63.107 E.26762
G1 X129.394 Y63.12 E.01635
G1 X123.301 Y57.027 E.27027
G1 X123.089 Y57.01 E.00667
G1 X122.639 Y56.899 E.01453
G1 X129.034 Y63.294 E.28368
;WIPE_START
G1 F8640
G1 X124.961 Y59.221 E-1.33
;WIPE_END
G1 E-.07 F2100
G1 Z.4 F10800
G1 X119.767 Y41.756
G1 Z.2
G1 E1.4 F2100
G1 F600
G1 X125.106 Y47.096 E.23686
G1 X124.461 Y46.984 E.02055
G1 X119.399 Y41.922 E.22456
G1 X118.859 Y41.915 E.01693
M73 P19 R10
G1 X123.898 Y46.955 E.22355
G1 X123.376 Y46.966 E.01639
G1 X118.312 Y41.902 E.22463
G1 X117.759 Y41.883 E.01735
G1 X122.923 Y47.047 E.22908
G1 X122.481 Y47.138 E.01416
G1 X117.206 Y41.863 E.234
G1 X116.654 Y41.844 E.01735
M73 P19 R9
G1 X122.091 Y47.282 E.2412
G1 X121.705 Y47.429 E.01295
G1 X116.101 Y41.825 E.24862
G1 X115.548 Y41.805 E.01735
G1 X121.363 Y47.62 E.25795
G1 X121.031 Y47.822 E.01218
G1 X114.995 Y41.786 E.26774
G1 X114.442 Y41.767 E.01735
G1 X120.734 Y48.058 E.27908
G1 X120.436 Y48.294 E.01191
M73 P20 R9
G1 X113.89 Y41.748 E.29041
G1 X113.336 Y41.728 E.01737
G1 X120.179 Y48.57 E.30354
G1 X119.928 Y48.853 E.01185
G1 X112.77 Y41.695 E.31752
G1 X112.203 Y41.662 E.0178
G1 X119.704 Y49.162 E.33271
G1 X119.499 Y49.491 E.01215
G1 X111.637 Y41.629 E.34875
G1 X111.07 Y41.596 E.0178
G1 X119.309 Y49.834 E.36544
G1 X119.158 Y50.217 E.01291
G1 X110.504 Y41.563 E.3839
G1 X109.937 Y41.53 E.0178
M73 P21 R9
G1 X119.015 Y50.608 E.40269
G1 X118.922 Y51.048 E.01413
G1 X109.371 Y41.497 E.4237
G1 X109.169 Y41.485 E.00634
G1 X109.147 Y41.806 E.01009
G1 X118.845 Y51.504 E.43018
G1 X118.829 Y52.021 E.01624
G1 X109.112 Y42.305 E.43102
G1 X109.077 Y42.803 E.01568
G1 X118.86 Y52.586 E.43396
G1 X118.914 Y53.008 E.01335
M73 P22 R9
G1 X118.982 Y53.241 E.00762
G1 X109.042 Y43.302 E.44091
G1 X109.007 Y43.8 E.01568
G1 X119.265 Y54.058 E.45501
G1 X119.532 Y54.606 E.01911
G1 X120.06 Y55.33 E.02812
G1 X120.7 Y55.952 E.02799
G1 X121.438 Y56.443 E.02782
G1 X121.818 Y56.611 E.01303
G1 X128.339 Y63.132 E.28926
G1 X127.812 Y63.138 E.01654
G1 X108.972 Y44.299 E.83569
G1 X108.938 Y44.798 E.01568
M73 P23 R9
G1 X127.284 Y63.144 E.81385
G1 X126.757 Y63.151 E.01654
G1 X108.903 Y45.296 E.792
G1 X108.868 Y45.795 E.01568
G1 X126.23 Y63.157 E.77015
G1 X125.702 Y63.163 E.01654
M73 P24 R9
G1 X108.833 Y46.294 E.74831
G1 X108.798 Y46.792 E.01568
G1 X125.175 Y63.169 E.72646
G1 X124.648 Y63.175 E.01654
G1 X108.763 Y47.291 E.70461
G1 X108.728 Y47.789 E.01568
M73 P25 R9
G1 X124.12 Y63.181 E.68277
G1 X123.586 Y63.181 E.01675
G1 X108.694 Y48.288 E.66062
G1 X108.659 Y48.787 E.01568
G1 X123.046 Y63.174 E.63822
G1 X122.506 Y63.168 E.01693
G1 X108.624 Y49.285 E.61583
G1 X108.589 Y49.784 E.01568
M73 P26 R9
G1 X121.967 Y63.162 E.59343
G1 X121.427 Y63.155 E.01693
G1 X108.554 Y50.283 E.57103
G1 X108.519 Y50.781 E.01568
G1 X120.887 Y63.149 E.54864
G1 X120.347 Y63.143 E.01693
G1 X108.484 Y51.28 E.52624
G1 X108.449 Y51.778 E.01568
M73 P27 R9
G1 X119.808 Y63.137 E.50384
G1 X119.268 Y63.13 E.01693
G1 X108.415 Y52.277 E.48145
G1 X108.38 Y52.776 E.01568
M73 P27 R8
G1 X118.728 Y63.124 E.45905
G1 X118.188 Y63.118 E.01693
G1 X108.345 Y53.274 E.43665
G1 X108.31 Y53.773 E.01568
G1 X117.637 Y63.1 E.41375
G1 X117.084 Y63.081 E.01735
M73 P28 R8
G1 X108.275 Y54.271 E.39077
G1 X108.24 Y54.77 E.01568
G1 X116.532 Y63.061 E.3678
G1 X115.979 Y63.042 E.01735
G1 X108.205 Y55.269 E.34482
G1 X108.171 Y55.767 E.01568
G1 X115.426 Y63.023 E.32185
G1 X114.873 Y63.003 E.01735
G1 X108.136 Y56.266 E.29887
G1 X108.101 Y56.765 E.01568
G1 X114.32 Y62.984 E.2759
G1 X113.768 Y62.965 E.01735
M73 P29 R8
G1 X108.066 Y57.263 E.25292
G1 X108.031 Y57.762 E.01568
G1 X113.215 Y62.946 E.22995
G1 X112.662 Y62.926 E.01735
G1 X107.996 Y58.26 E.20697
G1 X107.961 Y58.759 E.01568
G1 X112.103 Y62.9 E.18371
G1 X111.536 Y62.868 E.0178
G1 X107.926 Y59.258 E.16013
G1 X107.892 Y59.756 E.01568
G1 X110.97 Y62.835 E.13655
G1 X110.403 Y62.802 E.0178
G1 X107.857 Y60.255 E.11297
G1 X107.822 Y60.753 E.01568
G1 X109.837 Y62.769 E.08939
G1 X109.27 Y62.736 E.0178
G1 X107.787 Y61.252 E.0658
G1 X107.752 Y61.751 E.01568
G1 X108.704 Y62.703 E.04222
G1 X108.137 Y62.67 E.0178
G1 X107.558 Y62.09 E.02569
; stop printing object TopWedge.STL id:0 copy 0
;LAYER_CHANGE
;Z:0.4
;HEIGHT:0.2
;BEFORE_LAYER_CHANGE
G92 E0.0
;0.4


;WIPE_START
G1 F8640
G1 X108.137 Y62.67 E-.18913
G1 X108.704 Y62.703 E-.13102
G1 X107.752 Y61.751 E-.31081
G1 X107.787 Y61.252 E-.11541
G1 X109.27 Y62.736 E-.48441
G1 X109.699 Y62.761 E-.09921
;WIPE_END
G1 E-.07 F2100
G1 Z.4 F10800
;AFTER_LAYER_CHANGE
;0.4
G1 Z.6
G1 X109.477 Y66.578
G1 Z.4
G1 E1.4 F2100
;TYPE:Skirt/Brim
;WIDTH:0.42
G1 F3000
G1 X106.387 Y66.398 E.09706
G1 X104.995 Y65.924 E.04612
G1 X104.045 Y64.8 E.04612
G1 X103.799 Y63.456 E.04283
G1 X105.428 Y40.163 E.73212
G1 X105.919 Y38.777 E.04612
G1 X107.053 Y37.84 E.04612
G1 X108.176 Y37.601 E.03599
G1 X139.587 Y37.601 E.98488
G1 X141.004 Y37.994 E.04612
M73 P30 R8
G1 X142.018 Y39.06 E.04612
G1 X142.335 Y40.163 E.03599
G1 X143.963 Y63.456 E.73212
G1 X143.67 Y64.898 E.04612
G1 X142.677 Y65.983 E.04612
G1 X141.376 Y66.398 E.04283
G1 X135.539 Y66.737 E.18332
G1 X129.696 Y66.941 E.18332
G1 X123.913 Y67.008 E.18131
G1 X118.003 Y66.939 E.18533
G1 X112.16 Y66.734 E.18332
G1 X109.537 Y66.582 E.08238
G1 X109.559 Y66.205 F10800
G1 F3000
G1 X106.409 Y66.022 E.09894
G1 X105.127 Y65.555 E.04278
G1 X104.313 Y64.46 E.04278
G1 X104.176 Y63.483 E.03093
G1 X105.804 Y40.19 E.73212
G1 X106.286 Y38.913 E.04278
G1 X107.391 Y38.112 E.04278
G1 X108.176 Y37.978 E.02497
G1 X139.587 Y37.978 E.98488
G1 X140.894 Y38.37 E.04278
G1 X141.771 Y39.416 E.04278
G1 X141.958 Y40.19 E.02497
G1 X143.587 Y63.483 E.73212
G1 X143.288 Y64.814 E.04278
G1 X142.306 Y65.761 E.04278
G1 X141.354 Y66.022 E.03093
G1 X135.581 Y66.358 E.18131
G1 X129.747 Y66.562 E.18305
G1 X123.909 Y66.631 E.18305
G1 X118.016 Y66.562 E.18478
G1 X112.182 Y66.358 E.18305
G1 X109.619 Y66.209 E.08049
; printing object TopWedge.STL id:0 copy 0
;WIPE_START
G1 F8640
G1 X106.409 Y66.022 E-.74246
G1 X105.127 Y65.555 E-.31505
G1 X104.423 Y64.608 E-.27249
;WIPE_END
G1 E-.07 F2100
G1 Z.6 F10800
G1 X107.222 Y63.055
G1 Z.4
G1 E1.4 F2100
M204 S800
;TYPE:Perimeter
;WIDTH:0.449999
G1 F3000
