; generated by PrusaSlicer 2.5.0+win64 on 2023-02-20 at 16:54:09 UTC

; 

; external perimeters extrusion width = 0.45mm
; perimeters extrusion width = 0.45mm
; infill extrusion width = 0.45mm
; solid infill extrusion width = 0.45mm
; top infill extrusion width = 0.40mm
; first layer extrusion width = 0.42mm

M73 P0 R13
M107
;TYPE:Custom
M862.3 P "MK2.5S" ; printer model check
M862.1 P0.4 ; nozzle diameter check
M115 U3.10.0 ; tell printer latest fw version
G90 ; use absolute coordinates
M83  ; extruder relative mode
M104 S235 ; set extruder temp
M140 S90 ; set bed temp
M190 S90 ; wait for bed temp
M109 S235 ; wait for extruder temp
G28 W ; home all without mesh bed level
G80 ; mesh bed leveling
G1 Y-3.0 F1000.0 ; go outside print area
G92 E0.0
G1 X60.0 E9.0 F1000.0 ; intro line
G1 X100.0 E12.5 F1000.0 ; intro line
G92 E0.0
G21 ; set units to millimeters
G90 ; use absolute coordinates
M83 ; use relative distances for extrusion
M900 K0.08 ; Filament gcode LA 1.5
M900 K45 ; Filament gcode LA 1.0
M107
;LAYER_CHANGE
;Z:0.2
;HEIGHT:0.2
;BEFORE_LAYER_CHANGE
G92 E0.0
;0.2


G1 E-1.4 F2100
G1 Z.2 F10800
;AFTER_LAYER_CHANGE
;0.2
G1 Z.4
G1 X102.264 Y19.532
G1 Z.2
G1 E1.4 F2100
M204 S1000
;TYPE:Skirt/Brim
;WIDTH:0.42
G1 F600
G1 X103.066 Y17.913 E.05664
G1 X106.15 Y15.2 E.12881
G1 X107.72 Y14.608 E.05261
G1 X142.28 Y14.608 E1.08359
G1 X143.85 Y15.2 E.05261
M73 P1 R13
G1 X146.934 Y17.913 E.12881
G1 X147.736 Y19.532 E.05664
G1 X149.626 Y46.558 E.84945
G1 X149.039 Y48.294 E.05744
G1 X146.281 Y51.43 E.13094
G1 X144.634 Y52.233 E.05744
G1 X136.839 Y52.686 E.24484
G1 X130.92 Y52.891 E.18568
G1 X124.971 Y52.96 E.18655
G1 X119.08 Y52.891 E.18473
M73 P2 R13
G1 X113.161 Y52.686 E.18568
G1 X105.366 Y52.233 E.24484
G1 X103.719 Y51.43 E.05744
G1 X100.961 Y48.294 E.13094
G1 X100.374 Y46.558 E.05744
G1 X102.26 Y19.592 E.84757
;WIPE_START
G1 F8640
G1 X103.066 Y17.913 E-.42999
G1 X105.992 Y15.339 E-.90001
;WIPE_END
G1 E-.07 F2100
G1 Z.4 F10800
G1 X105.056 Y20.371
G1 Z.2
G1 E1.4 F2100
G1 F600
G1 X105.776 Y19.137 E.04479
G1 X106.738 Y18.238 E.04128
G1 X107.883 Y17.625 E.04074
G1 X109.118 Y17.371 E.03952
G1 X114.731 Y17.68 E.17628
G1 X119.866 Y17.859 E.1611
G1 X125 Y17.919 E.16098
G1 X130.134 Y17.859 E.16098
M73 P3 R13
G1 X135.268 Y17.68 E.16107
G1 X140.89 Y17.374 E.17655
G1 X142.139 Y17.636 E.04
G1 X143.356 Y18.304 E.04354
G1 X144.493 Y19.488 E.05148
G1 X144.948 Y20.384 E.0315
G1 X145.192 Y21.333 E.03072
G1 X146.859 Y45.185 E.74967
G1 X146.532 Y46.748 E.05009
G1 X146.067 Y47.61 E.0307
G1 X145.399 Y48.402 E.03249
G1 X144.505 Y49.095 E.03547
G1 X142.933 Y49.664 E.05242
G1 X136.761 Y50.023 E.19385
G1 X130.898 Y50.228 E.18392
G1 X125.02 Y50.296 E.18433
G1 X119.097 Y50.228 E.18571
G1 X113.222 Y50.022 E.18433
G1 X107.152 Y49.669 E.19066
M73 P4 R13
G1 X105.909 Y49.31 E.04057
G1 X104.869 Y48.653 E.03856
G1 X103.864 Y47.509 E.04774
G1 X103.361 Y46.441 E.03701
G1 X103.141 Y45.173 E.04035
G1 X104.807 Y21.348 E.74884
G1 X105.041 Y20.429 E.02973
G1 X105.406 Y20.523 F10800
G1 F600
G1 X106.054 Y19.392 E.04087
G1 X106.94 Y18.558 E.03816
G1 X107.989 Y17.988 E.03743
G1 X109.122 Y17.749 E.03632
G1 X114.714 Y18.057 E.17561
G1 X119.857 Y18.236 E.16136
G1 X125 Y18.296 E.16126
G1 X130.143 Y18.236 E.16126
G1 X135.285 Y18.057 E.16133
G1 X140.886 Y17.752 E.17589
G1 X141.984 Y17.981 E.03516
G1 X143.106 Y18.588 E.04
G1 X144.171 Y19.686 E.04796
G1 X144.589 Y20.5 E.02867
G1 X144.817 Y21.377 E.02843
G1 X146.482 Y45.185 E.7483
G1 X146.187 Y46.595 E.04516
M73 P5 R13
G1 X145.766 Y47.382 E.02799
G1 X145.123 Y48.144 E.03126
G1 X144.347 Y48.752 E.03092
G1 X142.883 Y49.289 E.04889
G1 X136.745 Y49.646 E.19276
G1 X130.892 Y49.851 E.18364
G1 X125.018 Y49.919 E.18419
G1 X119.108 Y49.851 E.1853
G1 X113.237 Y49.645 E.18419
G1 X107.194 Y49.294 E.1898
G1 X106.085 Y48.976 E.03617
G1 X105.132 Y48.381 E.03521
G1 X104.192 Y47.322 E.04442
G1 X103.728 Y46.349 E.03379
G1 X103.519 Y45.176 E.03736
G1 X105.182 Y21.392 E.74756
G1 X105.391 Y20.581 E.02624
M73 P6 R13
G1 X105.756 Y20.677 F10800
G1 F600
G1 X105.773 Y20.611 E.00213
G1 X106.334 Y19.647 E.03498
G1 X107.144 Y18.875 E.03507
G1 X108.096 Y18.35 E.03411
G1 X109.127 Y18.126 E.03307
G1 X114.697 Y18.434 E.17491
M73 P6 R12
G1 X119.849 Y18.613 E.16161
G1 X125 Y18.673 E.16153
G1 X130.151 Y18.613 E.16153
G1 X135.302 Y18.434 E.16158
G1 X140.883 Y18.129 E.17525
G1 X141.831 Y18.326 E.03038
G1 X142.858 Y18.873 E.03647
G1 X143.85 Y19.886 E.04444
G1 X144.23 Y20.617 E.02583
G1 X144.442 Y21.421 E.02609
G1 X146.104 Y45.185 E.74691
G1 X145.841 Y46.443 E.04028
G1 X145.465 Y47.155 E.02525
G1 X144.847 Y47.886 E.03003
G1 X144.186 Y48.409 E.02641
G1 X142.832 Y48.914 E.04532
G1 X136.73 Y49.269 E.19165
G1 X130.885 Y49.474 E.18337
M73 P7 R12
G1 X125.015 Y49.542 E.18406
G1 X119.119 Y49.474 E.18489
G1 X113.253 Y49.269 E.18405
G1 X107.236 Y48.918 E.18896
G1 X106.26 Y48.641 E.03184
G1 X105.394 Y48.109 E.03185
G1 X104.519 Y47.133 E.0411
G1 X104.094 Y46.255 E.03057
G1 X103.897 Y45.178 E.03433
G1 X105.557 Y21.436 E.74624
G1 X105.74 Y20.735 E.02273
G1 X106.104 Y20.831 F10800
G1 F600
G1 X106.131 Y20.732 E.00321
G1 X106.613 Y19.901 E.03013
G1 X107.387 Y19.165 E.03348
G1 X108.206 Y18.712 E.02935
G1 X109.133 Y18.504 E.02979
G1 X114.68 Y18.81 E.1742
G1 X119.84 Y18.99 E.16187
G1 X125 Y19.05 E.16181
G1 X130.16 Y18.99 E.16181
M73 P8 R12
G1 X135.319 Y18.81 E.16184
G1 X140.879 Y18.507 E.1746
G1 X141.681 Y18.673 E.02567
G1 X142.612 Y19.16 E.03294
G1 X143.529 Y20.085 E.04085
G1 X143.885 Y20.772 E.02426
G1 X144.067 Y21.465 E.02247
G1 X145.726 Y45.186 E.74555
G1 X145.494 Y46.292 E.03544
G1 X145.163 Y46.928 E.02248
G1 X144.57 Y47.63 E.02881
G1 X144.024 Y48.068 E.02196
G1 X142.781 Y48.54 E.04168
G1 X136.714 Y48.893 E.19053
G1 X130.879 Y49.097 E.18309
G1 X125.013 Y49.165 E.18392
G1 X119.13 Y49.097 E.18447
G1 X113.268 Y48.892 E.18391
G1 X107.278 Y48.543 E.18812
G1 X106.432 Y48.304 E.02757
M73 P9 R12
G1 X105.654 Y47.834 E.0285
G1 X104.845 Y46.941 E.03779
G1 X104.459 Y46.159 E.02734
G1 X104.275 Y45.18 E.03124
G1 X105.932 Y21.48 E.7449
G1 X106.089 Y20.889 E.01918
G1 X106.448 Y20.983 F10800
G1 F600
G1 X106.47 Y20.899 E.00271
G1 X106.925 Y20.115 E.02843
G1 X107.626 Y19.457 E.03014
G1 X108.362 Y19.056 E.0263
G1 X109.138 Y18.882 E.02492
G1 X114.663 Y19.187 E.1735
G1 X119.831 Y19.367 E.16212
G1 X125 Y19.428 E.16208
G1 X130.169 Y19.367 E.16208
G1 X135.336 Y19.187 E.1621
G1 X140.83 Y18.882 E.17253
G1 X141.534 Y19.021 E.02249
G1 X142.367 Y19.448 E.02938
G1 X143.209 Y20.287 E.03726
G1 X143.527 Y20.89 E.02138
G1 X143.692 Y21.51 E.0201
G1 X145.347 Y45.185 E.74412
G1 X145.132 Y46.185 E.0321
M73 P10 R12
G1 X144.841 Y46.731 E.0194
G1 X144.296 Y47.37 E.02634
G1 X143.813 Y47.754 E.01935
G1 X142.73 Y48.165 E.03629
G1 X136.699 Y48.516 E.18942
G1 X130.868 Y48.72 E.18295
G1 X125.011 Y48.788 E.18365
G1 X119.141 Y48.72 E.18406
G1 X113.288 Y48.515 E.18364
G1 X107.322 Y48.168 E.18738
G1 X106.562 Y47.95 E.02479
G1 X105.876 Y47.528 E.02524
G1 X105.144 Y46.709 E.03444
G1 X104.824 Y46.062 E.02264
G1 X104.653 Y45.181 E.02814
G1 X106.307 Y21.524 E.74357
G1 X106.433 Y21.041 E.01565
G1 X106.792 Y21.132 F10800
G1 F600
G1 X106.809 Y21.065 E.00216
G1 X107.237 Y20.329 E.02668
G1 X107.864 Y19.75 E.02678
G1 X108.474 Y19.417 E.02179
G1 X109.145 Y19.26 E.02161
G1 X114.646 Y19.564 E.17276
M73 P11 R12
G1 X119.822 Y19.744 E.16238
G1 X125 Y19.805 E.16236
G1 X130.178 Y19.744 E.16236
G1 X135.353 Y19.564 E.16237
G1 X140.784 Y19.257 E.17054
G1 X141.39 Y19.371 E.01934
G1 X142.125 Y19.739 E.02579
G1 X142.891 Y20.491 E.03365
G1 X143.169 Y21.011 E.01848
G1 X143.317 Y21.555 E.01768
G1 X144.969 Y45.183 E.74264
G1 X144.77 Y46.076 E.02868
G1 X144.52 Y46.532 E.0163
G1 X144.022 Y47.11 E.02392
G1 X143.603 Y47.44 E.01675
G1 X142.68 Y47.79 E.03094
G1 X136.684 Y48.139 E.18832
G1 X130.857 Y48.343 E.18281
G1 X125.009 Y48.411 E.18337
G1 X119.152 Y48.343 E.18365
G1 X113.307 Y48.139 E.18336
M73 P12 R12
G1 X107.366 Y47.793 E.18662
G1 X106.694 Y47.596 E.02194
G1 X106.1 Y47.224 E.02197
G1 X105.443 Y46.479 E.03113
G1 X105.189 Y45.963 E.01806
G1 X105.031 Y45.181 E.025
G1 X106.682 Y21.566 E.74224
G1 X106.778 Y21.19 E.01216
G1 X107.142 Y21.285 F10800
G1 F600
G1 X107.168 Y21.185 E.00323
G1 X107.514 Y20.587 E.02166
G1 X108.103 Y20.043 E.02517
G1 X108.585 Y19.778 E.01722
G1 X109.204 Y19.634 E.01994
G1 X114.629 Y19.94 E.17037
G1 X119.813 Y20.121 E.16265
G1 X125 Y20.182 E.16263
G1 X130.187 Y20.121 E.16263
G1 X135.37 Y19.94 E.16263
G1 X140.783 Y19.634 E.16997
G1 X141.249 Y19.721 E.01487
G1 X141.886 Y20.032 E.02222
G1 X142.574 Y20.698 E.03004
G1 X142.812 Y21.134 E.01558
G1 X142.942 Y21.601 E.01519
G1 X144.591 Y45.182 E.74116
G1 X144.426 Y45.92 E.02374
M73 P13 R12
G1 X144.221 Y46.302 E.01357
G1 X143.747 Y46.851 E.02274
G1 X143.437 Y47.1 E.01246
G1 X142.627 Y47.415 E.02725
G1 X136.668 Y47.762 E.18716
G1 X130.846 Y47.966 E.18268
G1 X125.007 Y48.034 E.1831
M73 P13 R11
G1 X119.163 Y47.966 E.18323
G1 X113.323 Y47.762 E.18323
G1 X107.409 Y47.417 E.18575
G1 X106.868 Y47.26 E.01765
G1 X106.362 Y46.951 E.0186
G1 X105.768 Y46.286 E.02796
G1 X105.552 Y45.859 E.01499
G1 X105.409 Y45.181 E.02175
G1 X107.057 Y21.611 E.74083
G1 X107.127 Y21.343 E.00866
M73 P14 R11
G1 X107.487 Y21.433 F10800
G1 F600
G1 X107.508 Y21.35 E.00268
G1 X107.825 Y20.802 E.01985
G1 X108.339 Y20.337 E.02175
G1 X108.7 Y20.138 E.01293
G1 X109.212 Y20.012 E.01653
G1 X114.612 Y20.317 E.16958
G1 X119.805 Y20.498 E.16291
G1 X125 Y20.559 E.16291
G1 X130.195 Y20.498 E.16291
G1 X135.388 Y20.317 E.16291
G1 X140.741 Y20.01 E.16812
G1 X141.113 Y20.074 E.01184
G1 X141.649 Y20.327 E.01859
G1 X142.26 Y20.908 E.02642
G1 X142.456 Y21.261 E.01267
G1 X142.568 Y21.648 E.01263
G1 X144.213 Y45.179 E.73959
G1 X144.065 Y45.806 E.02022
G1 X143.902 Y46.1 E.01053
G1 X143.475 Y46.59 E.02037
G1 X143.226 Y46.787 E.00996
G1 X142.576 Y47.041 E.0219
G1 X136.653 Y47.386 E.18602
G1 X130.835 Y47.589 E.18254
G1 X125.004 Y47.657 E.18282
G1 X119.17 Y47.589 E.18296
M73 P15 R11
G1 X113.343 Y47.385 E.18281
G1 X107.451 Y47.042 E.18504
G1 X107.043 Y46.925 E.01332
G1 X106.583 Y46.645 E.01687
G1 X106.067 Y46.056 E.02454
G1 X105.915 Y45.754 E.01062
G1 X105.787 Y45.179 E.01847
G1 X107.432 Y21.653 E.73945
G1 X107.472 Y21.492 E.0052
G1 X107.834 Y21.576 F10800
G1 F600
G1 X107.849 Y21.514 E.002
G1 X108.135 Y21.019 E.01793
G1 X108.573 Y20.634 E.01827
G1 X108.821 Y20.495 E.00891
G1 X109.222 Y20.39 E.01301
G1 X114.595 Y20.694 E.16873
G1 X119.796 Y20.875 E.16318
G1 X125 Y20.936 E.16318
G1 X130.204 Y20.875 E.16318
G1 X135.405 Y20.694 E.16318
G1 X140.705 Y20.385 E.16643
G1 X140.984 Y20.428 E.00885
G1 X141.416 Y20.625 E.0149
G1 X141.945 Y21.118 E.02266
G1 X142.116 Y21.425 E.01103
G1 X142.193 Y21.694 E.00876
G1 X143.835 Y45.174 E.73801
G1 X143.707 Y45.686 E.01655
M73 P16 R11
G1 X143.587 Y45.892 E.00748
G1 X143.205 Y46.326 E.01812
G1 X143.017 Y46.472 E.00745
G1 X142.524 Y46.666 E.01663
G1 X136.633 Y47.009 E.185
G1 X130.824 Y47.212 E.18227
G1 X125.002 Y47.28 E.18254
G1 X119.176 Y47.212 E.18268
G1 X113.362 Y47.009 E.1824
G1 X107.493 Y46.667 E.18435
G1 X107.217 Y46.589 E.00899
G1 X106.806 Y46.339 E.01508
G1 X106.369 Y45.829 E.02106
G1 X106.276 Y45.644 E.00648
G1 X106.165 Y45.175 E.01511
G1 X107.821 Y21.634 E.73993
G1 X108.185 Y21.724 F10800
M73 P17 R11
G1 F600
G1 X108.208 Y21.63 E.00304
G1 X108.408 Y21.281 E.0126
G1 X108.808 Y20.929 E.01669
G1 X108.941 Y20.854 E.00481
G1 X109.289 Y20.762 E.01128
G1 X114.577 Y21.07 E.16609
G1 X119.787 Y21.252 E.16346
G1 X125 Y21.313 E.16346
G1 X130.213 Y21.252 E.16346
G1 X135.423 Y21.07 E.16346
G1 X140.708 Y20.763 E.16599
G1 X140.86 Y20.785 E.00481
G1 X141.188 Y20.927 E.01123
G1 X141.631 Y21.329 E.01876
G1 X141.776 Y21.589 E.00933
G1 X141.818 Y21.739 E.00488
G1 X143.456 Y45.17 E.73645
G1 X143.366 Y45.523 E.01145
G1 X143.29 Y45.659 E.00488
G1 X142.932 Y46.066 E.017
G1 X142.845 Y46.135 E.00347
G1 X142.469 Y46.291 E.01279
G1 X136.614 Y46.632 E.18389
G1 X130.813 Y46.835 E.18199
G1 X125 Y46.903 E.18227
G1 X119.187 Y46.835 E.18227
G1 X113.382 Y46.632 E.18213
M73 P18 R11
G1 X107.533 Y46.292 E.18369
G1 X107.383 Y46.251 E.00488
G1 X107.069 Y46.066 E.01143
G1 X106.69 Y45.631 E.01809
G1 X106.634 Y45.526 E.00373
G1 X106.544 Y45.17 E.01152
G1 X108.179 Y21.783 E.73505
G1 X108.555 Y21.81 F10800
G1 F600
G1 X108.565 Y21.752 E.00185
G1 X108.682 Y21.542 E.00752
G1 X109.044 Y21.224 E.0151
G1 X109.302 Y21.141 E.0085
G1 X114.559 Y21.447 E.16514
G1 X119.778 Y21.629 E.16373
G1 X125 Y21.69 E.16373
G1 X130.222 Y21.629 E.16373
G1 X135.441 Y21.447 E.16373
G1 X140.712 Y21.14 E.16558
G1 X140.967 Y21.233 E.0085
G1 X141.318 Y21.542 E.01466
G1 X141.443 Y21.783 E.0085
G1 X143.078 Y45.161 E.73479
G1 X142.995 Y45.423 E.00863
M73 P19 R11
G1 X142.662 Y45.801 E.01579
G1 X142.413 Y45.917 E.00863
G1 X136.594 Y46.256 E.18276
G1 X130.806 Y46.458 E.18158
G1 X124.998 Y46.526 E.18213
G1 X119.198 Y46.458 E.18186
G1 X113.402 Y46.256 E.18185
G1 X107.573 Y45.916 E.18307
G1 X107.328 Y45.791 E.00863
G1 X107.005 Y45.423 E.01534
G1 X106.922 Y45.161 E.00863
G1 X108.551 Y21.87 E.73206
G1 X108.927 Y21.896 F10800
G1 F600
G1 X108.962 Y21.798 E.00327
G1 X109.251 Y21.544 E.01205
G1 X109.321 Y21.52 E.00233
G1 X114.542 Y21.824 E.16397
G1 X119.77 Y22.006 E.16401
G1 X125 Y22.067 E.16401
M73 P20 R11
G1 X130.23 Y22.006 E.16401
G1 X135.458 Y21.824 E.16401
G1 X140.679 Y21.52 E.16397
G1 X140.749 Y21.544 E.00233
G1 X141.038 Y21.798 E.01205
G1 X141.071 Y21.865 E.00233
G1 X142.699 Y45.145 E.73173
G1 X142.675 Y45.217 E.00237
G1 X142.417 Y45.51 E.01224
G1 X142.349 Y45.543 E.00237
G1 X136.574 Y45.879 E.18136
G1 X130.795 Y46.081 E.1813
M73 P20 R10
G1 X124.996 Y46.149 E.18186
G1 X119.205 Y46.081 E.18158
G1 X113.417 Y45.879 E.18158
G1 X107.651 Y45.543 E.18109
G1 X107.583 Y45.51 E.00237
G1 X107.325 Y45.217 E.01224
G1 X107.301 Y45.145 E.00237
G1 X108.923 Y21.956 E.72886
G1 X109.297 Y22.005 F10800
M73 P21 R10
G1 F600
G1 X109.414 Y21.903 E.00486
G1 X114.524 Y22.201 E.16051
G1 X119.761 Y22.383 E.16428
G1 X125 Y22.444 E.16429
G1 X130.239 Y22.383 E.16429
G1 X135.476 Y22.201 E.16428
G1 X140.586 Y21.903 E.16051
G1 X140.703 Y22.005 E.00486
G1 X142.314 Y45.055 E.72448
G1 X142.21 Y45.173 E.00494
G1 X136.559 Y45.502 E.1775
G1 X130.784 Y45.704 E.18117
G1 X124.998 Y45.771 E.18144
M73 P22 R10
G1 X119.216 Y45.704 E.18131
G1 X113.437 Y45.502 E.18131
G1 X107.79 Y45.173 E.17736
G1 X107.686 Y45.055 E.00494
G1 X109.293 Y22.065 E.7226
; printing object Wedgev2.STL id:0 copy 0
G1 X110.025 Y22.715 F10800
;TYPE:Perimeter
;WIDTH:0.419999
G1 F600
G1 X114.495 Y22.976 E.14038
G1 X119.749 Y23.159 E.16485
G1 X125.007 Y23.22 E.16485
G1 X130.264 Y23.159 E.16485
G1 X135.505 Y22.976 E.16444
G1 X139.975 Y22.715 E.14038
G1 X141.494 Y44.438 E.68276
G1 X136.525 Y44.728 E.15606
M73 P23 R10
G1 X130.764 Y44.929 E.18073
G1 X125 Y44.996 E.18074
G1 X119.236 Y44.929 E.18074
G1 X113.475 Y44.728 E.18073
G1 X108.506 Y44.438 E.15606
G1 X110.021 Y22.775 E.68088
G1 X109.675 Y22.317 F10800
;TYPE:External perimeter
G1 F600
G1 X114.508 Y22.599 E.15179
G1 X119.754 Y22.782 E.16458
G1 X125.002 Y22.843 E.16458
M73 P24 R10
G1 X130.251 Y22.782 E.16458
G1 X135.492 Y22.599 E.16444
G1 X140.325 Y22.317 E.15179
G1 X141.897 Y44.792 E.70641
G1 X136.542 Y45.104 E.16816
G1 X130.773 Y45.306 E.18101
G1 X125 Y45.373 E.18102
G1 X119.227 Y45.306 E.18102
G1 X113.458 Y45.104 E.18101
G1 X108.103 Y44.792 E.16816
G1 X109.671 Y22.377 E.70453
G1 X110.025 Y22.512 F10800
;WIPE_START
M73 P25 R10
G1 F8640
G1 X114.508 Y22.599 E-1.11806
G1 X115.425 Y22.631 E-.21194
;WIPE_END
G1 E-.07 F2100
G1 Z.4 F10800
G1 X121.647 Y32.803
G1 Z.2
G1 E1.4 F2100
;TYPE:Perimeter
G1 F600
G1 X121.794 Y32.296 E.01655
G1 X122.049 Y31.772 E.01827
G1 X122.389 Y31.299 E.01827
G1 X122.804 Y30.89 E.01826
G1 X123.282 Y30.557 E.01829
G1 X123.81 Y30.309 E.01827
G1 X124.372 Y30.155 E.01827
G1 X124.913 Y30.1 E.01703
G1 X125.526 Y30.138 E.01927
G1 X126.099 Y30.277 E.0185
G1 X126.634 Y30.51 E.01827
G1 X127.121 Y30.83 E.01827
G1 X127.548 Y31.227 E.01827
G1 X127.901 Y31.691 E.01827
G1 X128.17 Y32.207 E.01827
G1 X128.349 Y32.762 E.01827
G1 X128.431 Y33.339 E.01827
G1 X128.414 Y33.922 E.01827
G1 X128.299 Y34.493 E.01827
G1 X128.09 Y35.037 E.01827
G1 X127.791 Y35.537 E.01827
G1 X127.412 Y35.98 E.01827
G1 X126.964 Y36.353 E.01827
