; generated by PrusaSlicer 2.5.0+win64 on 2023-02-20 at 16:21:55 UTC

; 

; external perimeters extrusion width = 0.45mm
; perimeters extrusion width = 0.45mm
; infill extrusion width = 0.45mm
; solid infill extrusion width = 0.45mm
; top infill extrusion width = 0.40mm
; first layer extrusion width = 0.42mm

M73 P0 R13
M107
;TYPE:Custom
M862.3 P "MK2.5S" ; printer model check
M862.1 P0.4 ; nozzle diameter check
M115 U3.10.0 ; tell printer latest fw version
G90 ; use absolute coordinates
M83  ; extruder relative mode
M104 S235 ; set extruder temp
M140 S90 ; set bed temp
M190 S90 ; wait for bed temp
M109 S235 ; wait for extruder temp
G28 W ; home all without mesh bed level
G80 ; mesh bed leveling
G1 Y-3.0 F1000.0 ; go outside print area
G92 E0.0
G1 X60.0 E9.0 F1000.0 ; intro line
G1 X100.0 E12.5 F1000.0 ; intro line
G92 E0.0
G21 ; set units to millimeters
G90 ; use absolute coordinates
M83 ; use relative distances for extrusion
M900 K0.08 ; Filament gcode LA 1.5
M900 K45 ; Filament gcode LA 1.0
M107
;LAYER_CHANGE
;Z:0.2
;HEIGHT:0.2
;BEFORE_LAYER_CHANGE
G92 E0.0
;0.2


G1 E-1.4 F2100
G1 Z.2 F10800
;AFTER_LAYER_CHANGE
;0.2
G1 Z.4
G1 X104.918 Y25.887
G1 Z.2
G1 E1.4 F2100
M204 S1000
;TYPE:Skirt/Brim
;WIDTH:0.42
G1 F600
G1 X105.719 Y24.268 E.05664
G1 X108.804 Y21.555 E.12881
G1 X110.374 Y20.963 E.05262
G1 X144.941 Y20.969 E1.08381
G1 X146.512 Y21.562 E.05266
M73 P1 R13
G1 X149.59 Y24.275 E.12863
G1 X150.39 Y25.892 E.05658
G1 X152.279 Y52.913 E.8493
G1 X151.693 Y54.649 E.05744
G1 X148.935 Y57.785 E.13094
G1 X147.288 Y58.588 E.05744
G1 X139.492 Y59.041 E.24484
G1 X133.574 Y59.247 E.18568
G1 X127.625 Y59.315 E.18655
M73 P2 R13
G1 X121.733 Y59.247 E.18473
G1 X115.815 Y59.041 E.18568
G1 X108.019 Y58.588 E.24484
G1 X106.373 Y57.785 E.05744
G1 X103.614 Y54.649 E.13094
G1 X103.028 Y52.913 E.05744
G1 X104.914 Y25.947 E.84757
;WIPE_START
G1 F8640
G1 X105.719 Y24.268 E-.42999
G1 X108.646 Y21.694 E-.90001
;WIPE_END
G1 E-.07 F2100
G1 Z.4 F10800
G1 X107.682 Y26.795
G1 Z.2
G1 E1.4 F2100
G1 F600
G1 X108.421 Y25.502 E.04671
G1 X109.387 Y24.597 E.04148
G1 X110.522 Y23.985 E.04044
G1 X111.709 Y23.731 E.03805
G1 X117.384 Y24.035 E.17819
G1 X122.52 Y24.215 E.16113
G1 X127.654 Y24.274 E.16098
G1 X132.788 Y24.215 E.16098
M73 P3 R13
G1 X137.923 Y24.035 E.16113
G1 X143.59 Y23.732 E.17794
G1 X144.891 Y24.028 E.04182
G1 X146.058 Y24.706 E.0423
G1 X147.148 Y25.848 E.0495
G1 X147.602 Y26.742 E.03146
G1 X147.846 Y27.691 E.03071
G1 X149.512 Y51.529 E.74924
G1 X149.289 Y52.812 E.04083
G1 X148.789 Y53.864 E.03654
G1 X147.698 Y55.078 E.05117
G1 X146.67 Y55.7 E.03765
G1 X145.495 Y56.024 E.03823
G1 X139.423 Y56.378 E.19071
G1 X133.557 Y56.583 E.18405
G1 X127.656 Y56.652 E.18502
G1 X121.769 Y56.583 E.18461
G1 X115.893 Y56.378 E.18433
G1 X109.803 Y56.024 E.19129
M73 P4 R13
G1 X108.544 Y55.656 E.04113
G1 X107.46 Y54.954 E.04048
G1 X106.479 Y53.806 E.04735
G1 X106.014 Y52.792 E.03498
G1 X105.795 Y51.529 E.04022
G1 X107.461 Y27.708 E.74868
G1 X107.668 Y26.854 E.02758
G1 X108.034 Y26.943 F10800
G1 F600
G1 X108.701 Y25.756 E.0427
G1 X109.59 Y24.916 E.03835
G1 X110.63 Y24.347 E.03718
G1 X111.715 Y24.109 E.03481
G1 X117.367 Y24.412 E.17749
G1 X122.511 Y24.592 E.16138
G1 X127.654 Y24.652 E.16126
G1 X132.796 Y24.592 E.16126
G1 X137.94 Y24.412 E.16138
G1 X143.583 Y24.11 E.17719
G1 X144.777 Y24.388 E.03844
G1 X145.805 Y24.986 E.03727
G1 X146.826 Y26.045 E.04612
G1 X147.243 Y26.858 E.02864
M73 P5 R13
G1 X147.471 Y27.735 E.02842
G1 X149.135 Y51.531 E.74795
G1 X148.923 Y52.719 E.03783
M73 P5 R12
G1 X148.462 Y53.675 E.03328
G1 X147.438 Y54.803 E.04775
G1 X146.5 Y55.362 E.03425
G1 X145.454 Y55.649 E.03401
G1 X139.408 Y56.001 E.18989
G1 X133.546 Y56.206 E.18391
G1 X127.658 Y56.275 E.18461
G1 X121.775 Y56.206 E.18447
G1 X115.909 Y56.001 E.18405
G1 X109.845 Y55.649 E.19043
G1 X108.723 Y55.324 E.03663
G1 X107.727 Y54.686 E.03708
G1 X106.81 Y53.622 E.04405
G1 X106.381 Y52.701 E.03186
G1 X106.173 Y51.531 E.03726
G1 X107.836 Y27.751 E.74743
G1 X108.02 Y27.002 E.0242
M73 P6 R12
G1 X108.385 Y27.093 F10800
G1 F600
G1 X108.402 Y27.027 E.00212
G1 X108.982 Y26.01 E.03673
G1 X109.794 Y25.233 E.03524
G1 X110.741 Y24.709 E.03392
G1 X111.721 Y24.487 E.03152
G1 X117.35 Y24.789 E.17676
G1 X122.502 Y24.969 E.16163
G1 X127.654 Y25.029 E.16153
G1 X132.805 Y24.969 E.16153
G1 X137.957 Y24.789 E.16162
G1 X143.577 Y24.488 E.17647
G1 X144.614 Y24.729 E.03339
G1 X145.554 Y25.269 E.03397
G1 X146.504 Y26.244 E.04271
G1 X146.884 Y26.975 E.02581
G1 X147.096 Y27.779 E.02609
G1 X148.757 Y51.534 E.74662
G1 X148.557 Y52.625 E.03478
G1 X148.136 Y53.484 E.03001
M73 P7 R12
G1 X147.179 Y54.527 E.04438
G1 X146.374 Y55.006 E.02936
G1 X145.411 Y55.274 E.03134
G1 X139.392 Y55.624 E.18904
G1 X133.535 Y55.829 E.18378
G1 X127.66 Y55.898 E.1842
G1 X121.782 Y55.829 E.18433
G1 X115.924 Y55.625 E.18378
G1 X109.889 Y55.274 E.18953
G1 X108.856 Y54.97 E.03378
G1 X107.994 Y54.418 E.03209
G1 X107.139 Y53.437 E.0408
G1 X106.747 Y52.608 E.02874
G1 X106.551 Y51.534 E.03426
G1 X108.211 Y27.794 E.74615
G1 X108.371 Y27.151 E.02078
G1 X108.736 Y27.243 F10800
G1 F600
G1 X108.761 Y27.145 E.00319
G1 X109.262 Y26.263 E.03179
G1 X110.038 Y25.523 E.03362
G1 X110.853 Y25.069 E.02924
G1 X111.728 Y24.865 E.02819
G1 X117.334 Y25.166 E.17601
G1 X122.494 Y25.346 E.16188
G1 X127.654 Y25.406 E.16181
M73 P8 R12
G1 X132.814 Y25.346 E.16181
G1 X137.973 Y25.166 E.16187
G1 X143.569 Y24.866 E.1757
G1 X144.499 Y25.089 E.02999
G1 X145.303 Y25.552 E.0291
G1 X146.183 Y26.444 E.03927
G1 X146.539 Y27.13 E.02424
G1 X146.721 Y27.823 E.02247
G1 X148.379 Y51.535 E.7453
G1 X148.192 Y52.528 E.03168
G1 X147.811 Y53.291 E.02673
G1 X146.922 Y54.25 E.04099
G1 X146.206 Y54.668 E.026
G1 X145.37 Y54.899 E.02721
G1 X139.377 Y55.247 E.18822
G1 X133.524 Y55.452 E.18364
G1 X127.663 Y55.52 E.18378
G1 X121.788 Y55.452 E.18419
G1 X115.939 Y55.248 E.1835
G1 X109.932 Y54.898 E.18867
M73 P9 R12
G1 X109.034 Y54.636 E.02935
G1 X108.258 Y54.148 E.02874
G1 X107.467 Y53.249 E.03754
G1 X107.113 Y52.513 E.02561
G1 X106.929 Y51.535 E.0312
G1 X108.586 Y27.838 E.74484
G1 X108.721 Y27.302 E.01734
G1 X109.081 Y27.39 F10800
G1 F600
G1 X109.102 Y27.308 E.00267
G1 X109.575 Y26.475 E.03005
G1 X110.278 Y25.813 E.03026
G1 X110.967 Y25.429 E.02472
G1 X111.736 Y25.243 E.02482
G1 X117.317 Y25.542 E.17523
G1 X122.485 Y25.723 E.16213
G1 X127.654 Y25.783 E.16208
G1 X132.823 Y25.723 E.16208
G1 X137.991 Y25.542 E.16213
G1 X143.511 Y25.239 E.17335
G1 X144.338 Y25.431 E.02663
G1 X145.056 Y25.838 E.02585
G1 X145.863 Y26.646 E.03581
G1 X146.181 Y27.248 E.02136
G1 X146.346 Y27.868 E.0201
G1 X148.001 Y51.536 E.74393
G1 X147.827 Y52.429 E.02851
M73 P10 R12
G1 X147.488 Y53.095 E.02344
G1 X146.668 Y53.97 E.03761
G1 X146.041 Y54.328 E.02262
G1 X145.328 Y54.523 E.02317
G1 X139.357 Y54.871 E.18754
G1 X133.513 Y55.075 E.18337
G1 X127.66 Y55.143 E.18351
G1 X121.799 Y55.075 E.18378
G1 X115.959 Y54.871 E.18323
G1 X109.976 Y54.523 E.1879
G1 X109.167 Y54.283 E.02646
G1 X108.485 Y53.846 E.02542
G1 X107.768 Y53.022 E.03424
G1 X107.478 Y52.417 E.02103
G1 X107.306 Y51.536 E.02813
G1 X108.961 Y27.88 E.74355
G1 X109.067 Y27.449 E.01391
M73 P11 R12
G1 X109.432 Y27.541 F10800
G1 F600
G1 X109.461 Y27.425 E.00375
G1 X109.855 Y26.73 E.02504
G1 X110.519 Y26.105 E.02859
G1 X111.124 Y25.773 E.02165
G1 X111.795 Y25.616 E.02159
G1 X117.3 Y25.919 E.17286
G1 X122.476 Y26.1 E.16239
G1 X127.654 Y26.16 E.16236
G1 X132.832 Y26.1 E.16236
G1 X138.007 Y25.919 E.16239
G1 X143.503 Y25.617 E.17257
G1 X144.223 Y25.791 E.02323
G1 X144.809 Y26.124 E.02112
G1 X145.545 Y26.85 E.03241
G1 X145.823 Y27.369 E.01847
G1 X145.971 Y27.913 E.01768
G1 X147.623 Y51.537 E.74251
G1 X147.463 Y52.327 E.02527
G1 X147.166 Y52.896 E.02014
G1 X146.415 Y53.689 E.03425
G1 X145.879 Y53.987 E.01923
G1 X145.287 Y54.148 E.01923
G1 X139.342 Y54.494 E.18672
G1 X133.502 Y54.698 E.18323
G1 X127.663 Y54.766 E.18309
M73 P12 R12
G1 X121.806 Y54.698 E.18364
G1 X115.974 Y54.495 E.18295
G1 X110.019 Y54.148 E.18703
G1 X109.345 Y53.949 E.02205
G1 X108.749 Y53.575 E.02207
G1 X108.095 Y52.832 E.03105
G1 X107.842 Y52.317 E.01798
G1 X107.684 Y51.537 E.02497
G1 X109.336 Y27.923 E.7422
G1 X109.417 Y27.599 E.01048
M73 P12 R11
G1 X109.778 Y27.687 F10800
G1 F600
G1 X109.803 Y27.587 E.00321
G1 X110.168 Y26.942 E.02325
G1 X110.757 Y26.398 E.02514
G1 X111.239 Y26.133 E.01726
G1 X111.803 Y25.994 E.0182
G1 X117.283 Y26.296 E.17207
G1 X122.467 Y26.477 E.16265
G1 X127.654 Y26.537 E.16263
G1 X132.84 Y26.477 E.16263
G1 X138.025 Y26.296 E.16266
G1 X143.445 Y25.991 E.17022
M73 P13 R11
G1 X144.065 Y26.134 E.01994
G1 X144.566 Y26.412 E.01796
G1 X145.228 Y27.056 E.02897
G1 X145.466 Y27.492 E.01557
G1 X145.596 Y27.959 E.01519
G1 X147.245 Y51.536 E.74105
G1 X147.1 Y52.221 E.02195
G1 X146.847 Y52.694 E.01684
G1 X146.165 Y53.405 E.03089
G1 X145.721 Y53.644 E.01581
G1 X145.246 Y53.773 E.01542
G1 X139.327 Y54.117 E.18591
G1 X133.491 Y54.321 E.18309
G1 X127.66 Y54.389 E.18282
G1 X121.817 Y54.321 E.18323
G1 X115.994 Y54.118 E.18268
G1 X110.062 Y53.773 E.1863
G1 X109.523 Y53.616 E.01761
G1 X108.974 Y53.271 E.02033
G1 X108.396 Y52.604 E.02766
G1 X108.206 Y52.216 E.01356
G1 X108.063 Y51.536 E.02178
G1 X109.711 Y27.964 E.74087
G1 X109.764 Y27.745 E.00708
M73 P14 R11
G1 X110.129 Y27.836 F10800
G1 F600
G1 X110.161 Y27.706 E.00422
G1 X110.478 Y27.158 E.01985
G1 X110.993 Y26.693 E.02175
G1 X111.354 Y26.493 E.01293
G1 X111.866 Y26.367 E.01653
G1 X117.266 Y26.672 E.16958
G1 X122.458 Y26.854 E.16291
G1 X127.654 Y26.914 E.16291
G1 X132.849 Y26.854 E.16291
G1 X138.042 Y26.672 E.16292
G1 X143.437 Y26.369 E.16944
G1 X143.95 Y26.494 E.01654
G1 X144.323 Y26.702 E.01341
G1 X144.914 Y27.266 E.02559
G1 X145.11 Y27.619 E.01267
G1 X145.222 Y28.006 E.01263
G1 X146.867 Y51.534 E.73952
G1 X146.738 Y52.113 E.01859
G1 X146.555 Y52.455 E.01216
G1 X145.956 Y53.09 E.02739
G1 X145.597 Y53.288 E.01284
G1 X145.203 Y53.397 E.01282
G1 X139.307 Y53.741 E.18519
G1 X133.484 Y53.944 E.18268
M73 P15 R11
G1 X127.663 Y54.012 E.18254
G1 X121.828 Y53.944 E.18296
G1 X116.009 Y53.741 E.18254
G1 X110.105 Y53.397 E.18545
G1 X109.696 Y53.28 E.01332
G1 X109.237 Y53 E.01687
G1 X108.721 Y52.411 E.02454
G1 X108.568 Y52.109 E.01062
G1 X108.441 Y51.534 E.01847
G1 X110.086 Y28.008 E.73945
G1 X110.114 Y27.894 E.00367
G1 X110.477 Y27.979 F10800
G1 F600
G1 X110.503 Y27.869 E.00354
G1 X110.789 Y27.374 E.01793
G1 X111.226 Y26.989 E.01827
G1 X111.474 Y26.851 E.00891
G1 X111.876 Y26.745 E.01301
G1 X117.248 Y27.049 E.16873
G1 X122.45 Y27.231 E.16318
G1 X127.654 Y27.291 E.16318
G1 X132.858 Y27.231 E.16318
G1 X138.06 Y27.049 E.1632
M73 P16 R11
G1 X143.375 Y26.742 E.16695
G1 X143.835 Y26.854 E.01484
G1 X144.083 Y26.993 E.00891
G1 X144.599 Y27.476 E.02215
G1 X144.77 Y27.783 E.01103
G1 X144.847 Y28.051 E.00876
G1 X146.489 Y51.531 E.73797
G1 X146.378 Y51.998 E.01506
G1 X146.238 Y52.25 E.00905
G1 X145.748 Y52.774 E.0225
G1 X145.435 Y52.947 E.0112
G1 X145.161 Y53.022 E.00889
G1 X139.291 Y53.364 E.18436
G1 X133.473 Y53.567 E.18254
G1 X127.66 Y53.635 E.18227
G1 X121.834 Y53.567 E.18268
G1 X116.029 Y53.365 E.18213
G1 X110.146 Y53.022 E.18476
G1 X109.87 Y52.945 E.00899
G1 X109.46 Y52.694 E.01508
G1 X109.023 Y52.184 E.02106
G1 X108.93 Y52 E.00648
G1 X108.819 Y51.531 E.01511
G1 X110.463 Y28.037 E.73842
G1 X110.836 Y28.091 F10800
M73 P17 R11
G1 F600
G1 X110.862 Y27.985 E.00342
G1 X111.062 Y27.636 E.0126
G1 X111.461 Y27.285 E.01669
G1 X111.595 Y27.209 E.00481
G1 X111.942 Y27.118 E.01128
G1 X117.231 Y27.426 E.16609
G1 X122.441 Y27.608 E.16346
G1 X127.654 Y27.668 E.16346
G1 X132.867 Y27.608 E.16346
G1 X138.077 Y27.426 E.16347
G1 X143.366 Y27.12 E.1661
G1 X143.713 Y27.212 E.01127
G1 X143.845 Y27.286 E.00475
G1 X144.285 Y27.687 E.01865
G1 X144.43 Y27.947 E.00933
G1 X144.472 Y28.097 E.00488
G1 X146.11 Y51.525 E.73637
G1 X146.02 Y51.879 E.01145
G1 X145.944 Y52.013 E.00483
G1 X145.537 Y52.46 E.01895
G1 X145.273 Y52.605 E.00947
G1 X145.12 Y52.647 E.00496
G1 X139.272 Y52.987 E.18369
G1 X133.467 Y53.19 E.18213
M73 P18 R11
G1 X127.663 Y53.258 E.18199
G1 X121.841 Y53.19 E.18254
G1 X116.045 Y52.988 E.18185
G1 X110.187 Y52.647 E.18396
G1 X110.037 Y52.606 E.00488
G1 X109.723 Y52.422 E.01143
G1 X109.344 Y51.986 E.01809
G1 X109.288 Y51.881 E.00373
G1 X109.197 Y51.525 E.01152
G1 X110.832 Y28.151 E.73467
G1 X111.208 Y28.177 F10800
G1 F600
G1 X111.219 Y28.107 E.00223
G1 X111.336 Y27.897 E.00752
G1 X111.697 Y27.579 E.0151
G1 X111.955 Y27.496 E.0085
G1 X117.213 Y27.802 E.16514
G1 X122.432 Y27.985 E.16373
G1 X127.654 Y28.045 E.16373
G1 X132.875 Y27.985 E.16373
G1 X138.095 Y27.802 E.16374
G1 X143.353 Y27.499 E.16514
M73 P19 R11
G1 X143.611 Y27.582 E.0085
G1 X143.972 Y27.9 E.01509
G1 X144.097 Y28.14 E.0085
G1 X145.732 Y51.516 E.73472
G1 X145.649 Y51.779 E.00863
G1 X145.326 Y52.146 E.01534
G1 X145.081 Y52.271 E.00863
G1 X139.252 Y52.611 E.18307
G1 X133.46 Y52.813 E.18172
G1 X127.66 Y52.881 E.18186
G1 X121.852 Y52.813 E.18213
G1 X116.064 Y52.611 E.18158
G1 X110.227 Y52.271 E.18334
M73 P19 R10
G1 X109.982 Y52.146 E.00863
G1 X109.659 Y51.779 E.01534
G1 X109.576 Y51.516 E.00863
G1 X111.204 Y28.237 E.73168
G1 X111.58 Y28.263 F10800
M73 P20 R10
G1 F600
G1 X111.616 Y28.153 E.00364
G1 X111.904 Y27.899 E.01205
G1 X111.975 Y27.875 E.00233
G1 X117.196 Y28.179 E.16397
G1 X122.423 Y28.362 E.16401
G1 X127.654 Y28.423 E.16401
G1 X132.884 Y28.362 E.16401
G1 X138.112 Y28.179 E.16401
G1 X143.333 Y27.877 E.16397
G1 X143.403 Y27.902 E.00233
G1 X143.692 Y28.155 E.01204
G1 X143.725 Y28.222 E.00233
G1 X145.352 Y51.5 E.73165
G1 X145.328 Y51.572 E.00237
G1 X145.07 Y51.865 E.01224
G1 X145.002 Y51.898 E.00237
G1 X139.237 Y52.234 E.18109
G1 X133.449 Y52.436 E.18158
G1 X127.658 Y52.504 E.18158
G1 X121.858 Y52.436 E.18186
M73 P21 R10
G1 X116.08 Y52.235 E.1813
G1 X110.305 Y51.898 E.18136
G1 X110.237 Y51.865 E.00237
G1 X109.979 Y51.572 E.01224
G1 X109.955 Y51.5 E.00237
G1 X111.576 Y28.323 E.72847
G1 X111.951 Y28.36 F10800
G1 F600
G1 X112.067 Y28.258 E.00486
G1 X117.178 Y28.556 E.16051
G1 X122.414 Y28.739 E.16428
G1 X127.654 Y28.8 E.16429
G1 X132.893 Y28.739 E.16429
G1 X138.129 Y28.556 E.16429
G1 X143.24 Y28.261 E.16051
G1 X143.357 Y28.363 E.00486
G1 X144.968 Y51.41 E.7244
G1 X144.864 Y51.529 E.00494
M73 P22 R10
G1 X139.217 Y51.858 E.17736
G1 X133.438 Y52.059 E.18131
G1 X127.656 Y52.127 E.18131
G1 X121.869 Y52.059 E.18144
G1 X116.095 Y51.858 E.18117
G1 X110.443 Y51.529 E.1775
G1 X110.339 Y51.41 E.00494
G1 X111.947 Y28.42 E.7226
; printing object Wedge.STL id:0 copy 0
G1 X112.679 Y29.071 F10800
;TYPE:Perimeter
;WIDTH:0.419999
G1 F600
G1 X117.149 Y29.331 E.14038
G1 X122.403 Y29.514 E.16485
G1 X127.66 Y29.575 E.16485
G1 X132.918 Y29.514 E.16485
M73 P23 R10
G1 X138.159 Y29.331 E.16444
G1 X142.629 Y29.073 E.14038
G1 X144.148 Y50.793 E.6827
G1 X139.179 Y51.083 E.15606
G1 X133.418 Y51.284 E.18073
G1 X127.654 Y51.351 E.18074
G1 X121.89 Y51.284 E.18074
G1 X116.129 Y51.083 E.18073
G1 X111.16 Y50.793 E.15606
G1 X112.675 Y29.131 E.68088
G1 X112.329 Y28.673 F10800
;TYPE:External perimeter
M73 P24 R10
G1 F600
G1 X117.162 Y28.954 E.15179
G1 X122.407 Y29.137 E.16458
G1 X127.656 Y29.198 E.16458
G1 X132.904 Y29.137 E.16458
G1 X138.146 Y28.954 E.16444
G1 X142.979 Y28.675 E.15179
G1 X144.55 Y51.148 E.70634
G1 X139.196 Y51.46 E.16816
G1 X133.427 Y51.661 E.18101
G1 X127.654 Y51.728 E.18102
G1 X121.881 Y51.661 E.18102
M73 P25 R10
G1 X116.111 Y51.46 E.18101
G1 X110.757 Y51.148 E.16816
G1 X112.325 Y28.732 E.70453
G1 X112.678 Y28.867 F10800
;WIPE_START
G1 F8640
G1 X117.162 Y28.954 E-1.11806
G1 X118.079 Y28.986 E-.21194
;WIPE_END
G1 E-.07 F2100
G1 Z.4 F10800
G1 X125.082 Y37.616
G1 Z.2
G1 E1.4 F2100
;TYPE:Perimeter
G1 F600
G1 X125.458 Y37.245 E.01653
G1 X125.936 Y36.912 E.01829
G1 X126.464 Y36.665 E.01827
G1 X127.026 Y36.51 E.01827
G1 X127.566 Y36.456 E.01703
G1 X128.18 Y36.493 E.01927
G1 X128.753 Y36.633 E.0185
G1 X129.288 Y36.865 E.01827
G1 X129.775 Y37.185 E.01827
G1 X129.935 Y37.327 E.00672
G1 X130.265 Y37.654 E.01455
G1 X130.605 Y38.128 E.01827
G1 X130.83 Y38.575 E.01572
G1 X131.002 Y39.117 E.01783
G1 X131.084 Y39.694 E.01827
G1 X131.068 Y40.277 E.01827
G1 X130.953 Y40.848 E.01827
G1 X130.743 Y41.392 E.01827
G1 X130.445 Y41.893 E.01827
