; generated by PrusaSlicer 2.5.0+win64 on 2023-02-21 at 12:46:19 UTC

; 

; external perimeters extrusion width = 0.45mm
; perimeters extrusion width = 0.45mm
; infill extrusion width = 0.45mm
; solid infill extrusion width = 0.45mm
; top infill extrusion width = 0.40mm
; first layer extrusion width = 0.42mm

M73 P0 R14
M107
;TYPE:Custom
M862.3 P "MK2.5S" ; printer model check
M862.1 P0.4 ; nozzle diameter check
M115 U3.10.0 ; tell printer latest fw version
G90 ; use absolute coordinates
M83  ; extruder relative mode
M104 S250 ; set extruder temp
M140 S90 ; set bed temp
M190 S90 ; wait for bed temp
M109 S250 ; wait for extruder temp
G28 W ; home all without mesh bed level
G80 ; mesh bed leveling
G1 Y-3.0 F1000.0 ; go outside print area
G92 E0.0
G1 X60.0 E9.0 F1000.0 ; intro line
G1 X100.0 E12.5 F1000.0 ; intro line
G92 E0.0
G21 ; set units to millimeters
G90 ; use absolute coordinates
M83 ; use relative distances for extrusion
M900 K0.08 ; Filament gcode LA 1.5
M900 K45 ; Filament gcode LA 1.0
M107
;LAYER_CHANGE
;Z:0.2
;HEIGHT:0.2
;BEFORE_LAYER_CHANGE
G92 E0.0
;0.2


G1 E-1.4 F2100
M73 P0 R13
G1 Z.2 F10800
;AFTER_LAYER_CHANGE
;0.2
G1 Z.4
G1 X102.264 Y16.478
G1 Z.2
G1 E1.4 F2100
M204 S1000
;TYPE:Skirt/Brim
;WIDTH:0.42
G1 F600
G1 X103.066 Y14.859 E.05664
G1 X106.15 Y12.146 E.12881
G1 X107.72 Y11.554 E.05261
G1 X142.28 Y11.554 E1.08359
G1 X143.85 Y12.146 E.05261
M73 P1 R13
G1 X146.934 Y14.859 E.12881
G1 X147.736 Y16.478 E.05664
G1 X149.626 Y43.504 E.84945
G1 X149.039 Y45.24 E.05744
G1 X146.281 Y48.376 E.13094
G1 X144.634 Y49.179 E.05744
G1 X136.924 Y49.628 E.24215
G1 X130.92 Y49.837 E.18837
G1 X124.971 Y49.906 E.18655
G1 X119.022 Y49.836 E.18655
M73 P2 R13
G1 X113.076 Y49.628 E.18655
G1 X105.366 Y49.179 E.24215
G1 X103.719 Y48.376 E.05744
G1 X100.961 Y45.24 E.13094
G1 X100.374 Y43.504 E.05744
G1 X102.26 Y16.538 E.84757
;WIPE_START
G1 F8640
G1 X103.066 Y14.859 E-.42999
G1 X105.992 Y12.285 E-.90001
;WIPE_END
G1 E-.07 F2100
G1 Z.4 F10800
G1 X105.056 Y17.317
G1 Z.2
G1 E1.4 F2100
G1 F600
G1 X105.776 Y16.083 E.04479
G1 X106.738 Y15.184 E.04128
G1 X107.883 Y14.571 E.04074
G1 X109.118 Y14.317 E.03952
G1 X114.731 Y14.626 E.17628
G1 X119.866 Y14.805 E.1611
G1 X125 Y14.865 E.16098
G1 X130.134 Y14.805 E.16098
G1 X135.268 Y14.626 E.16107
M73 P3 R13
G1 X140.89 Y14.32 E.17655
G1 X142.139 Y14.582 E.04
G1 X143.356 Y15.25 E.04354
G1 X144.493 Y16.434 E.05148
G1 X144.948 Y17.33 E.0315
G1 X145.192 Y18.279 E.03072
G1 X146.859 Y42.131 E.74967
G1 X146.532 Y43.694 E.05009
G1 X146.067 Y44.556 E.0307
G1 X145.399 Y45.348 E.03249
G1 X144.505 Y46.041 E.03547
G1 X142.933 Y46.61 E.05242
G1 X136.761 Y46.969 E.19385
G1 X130.898 Y47.174 E.18392
G1 X125.02 Y47.242 E.18433
G1 X119.097 Y47.173 E.18571
G1 X113.222 Y46.968 E.18433
G1 X107.152 Y46.615 E.19066
G1 X105.909 Y46.256 E.04057
M73 P4 R13
G1 X104.869 Y45.599 E.03856
G1 X103.864 Y44.455 E.04774
G1 X103.361 Y43.387 E.03701
G1 X103.141 Y42.119 E.04035
G1 X104.807 Y18.294 E.74884
G1 X105.041 Y17.375 E.02973
G1 X105.406 Y17.469 F10800
G1 F600
G1 X106.054 Y16.338 E.04087
G1 X106.94 Y15.503 E.03816
G1 X107.989 Y14.934 E.03743
G1 X109.122 Y14.694 E.03632
G1 X114.714 Y15.003 E.17561
G1 X119.857 Y15.182 E.16136
G1 X125 Y15.242 E.16126
G1 X130.143 Y15.182 E.16126
G1 X135.285 Y15.003 E.16133
G1 X140.886 Y14.698 E.1759
G1 X141.984 Y14.927 E.03516
G1 X143.106 Y15.534 E.04
G1 X144.171 Y16.632 E.04796
G1 X144.589 Y17.446 E.02867
G1 X144.817 Y18.323 E.02843
G1 X146.482 Y42.131 E.7483
G1 X146.187 Y43.541 E.04516
M73 P5 R13
G1 X145.766 Y44.328 E.02799
G1 X145.123 Y45.09 E.03126
G1 X144.347 Y45.698 E.03092
G1 X142.883 Y46.235 E.04889
G1 X136.745 Y46.592 E.19276
G1 X130.892 Y46.797 E.18364
G1 X125.018 Y46.865 E.18419
G1 X119.108 Y46.797 E.1853
G1 X113.237 Y46.591 E.18419
G1 X107.194 Y46.239 E.1898
G1 X106.085 Y45.922 E.03617
G1 X105.132 Y45.327 E.03521
G1 X104.192 Y44.268 E.04442
G1 X103.728 Y43.295 E.03379
G1 X103.519 Y42.122 E.03736
G1 X105.182 Y18.338 E.74756
G1 X105.391 Y17.527 E.02624
M73 P6 R13
G1 X105.756 Y17.623 F10800
G1 F600
G1 X105.773 Y17.557 E.00213
G1 X106.334 Y16.593 E.03498
G1 X107.144 Y15.821 E.03507
G1 X108.096 Y15.296 E.03411
G1 X109.127 Y15.072 E.03307
G1 X114.697 Y15.379 E.17491
G1 X119.849 Y15.559 E.16161
G1 X125 Y15.619 E.16153
G1 X130.151 Y15.559 E.16153
G1 X135.302 Y15.38 E.16158
G1 X140.883 Y15.075 E.17525
G1 X141.831 Y15.272 E.03038
G1 X142.858 Y15.819 E.03647
G1 X143.85 Y16.832 E.04444
G1 X144.23 Y17.563 E.02583
G1 X144.442 Y18.367 E.02609
G1 X146.104 Y42.131 E.74691
G1 X145.841 Y43.389 E.04028
G1 X145.465 Y44.101 E.02525
G1 X144.847 Y44.832 E.03003
G1 X144.186 Y45.355 E.02641
G1 X142.832 Y45.86 E.04532
G1 X136.73 Y46.215 E.19165
G1 X130.885 Y46.42 E.18337
G1 X125.015 Y46.488 E.18406
M73 P7 R13
G1 X119.119 Y46.42 E.18489
G1 X113.253 Y46.215 E.18405
G1 X107.236 Y45.864 E.18896
G1 X106.26 Y45.587 E.03184
G1 X105.394 Y45.055 E.03185
G1 X104.519 Y44.079 E.0411
G1 X104.094 Y43.201 E.03057
G1 X103.897 Y42.124 E.03433
G1 X105.557 Y18.382 E.74624
G1 X105.74 Y17.681 E.02273
G1 X106.104 Y17.777 F10800
G1 F600
G1 X106.131 Y17.678 E.00321
G1 X106.613 Y16.847 E.03013
G1 X107.387 Y16.111 E.03348
G1 X108.206 Y15.658 E.02935
G1 X109.133 Y15.45 E.02979
G1 X114.68 Y15.756 E.1742
M73 P7 R12
G1 X119.84 Y15.936 E.16187
G1 X125 Y15.996 E.16181
G1 X130.16 Y15.936 E.16181
G1 X135.319 Y15.756 E.16184
G1 X140.879 Y15.453 E.1746
G1 X141.681 Y15.619 E.02567
M73 P8 R12
G1 X142.612 Y16.106 E.03294
G1 X143.529 Y17.031 E.04084
G1 X143.885 Y17.718 E.02426
G1 X144.067 Y18.411 E.02247
G1 X145.726 Y42.131 E.74555
G1 X145.494 Y43.238 E.03544
G1 X145.163 Y43.874 E.02248
G1 X144.57 Y44.576 E.02881
G1 X144.024 Y45.014 E.02196
G1 X142.781 Y45.486 E.04168
G1 X136.714 Y45.839 E.19053
G1 X130.879 Y46.042 E.18309
G1 X125.013 Y46.111 E.18392
G1 X119.13 Y46.043 E.18447
G1 X113.268 Y45.838 E.18391
G1 X107.278 Y45.489 E.18812
G1 X106.432 Y45.25 E.02757
G1 X105.654 Y44.78 E.0285
G1 X104.845 Y43.887 E.03779
G1 X104.459 Y43.105 E.02734
G1 X104.275 Y42.126 E.03124
G1 X105.932 Y18.426 E.7449
G1 X106.089 Y17.835 E.01918
M73 P9 R12
G1 X106.448 Y17.929 F10800
G1 F600
G1 X106.47 Y17.845 E.00271
G1 X106.925 Y17.061 E.02843
G1 X107.626 Y16.403 E.03014
G1 X108.362 Y16.002 E.0263
G1 X109.138 Y15.828 E.02492
G1 X114.663 Y16.133 E.1735
G1 X119.831 Y16.313 E.16212
G1 X125 Y16.374 E.16208
G1 X130.169 Y16.313 E.16208
G1 X135.336 Y16.133 E.1621
G1 X140.83 Y15.828 E.17253
G1 X141.534 Y15.967 E.02249
G1 X142.367 Y16.394 E.02938
G1 X143.209 Y17.233 E.03726
G1 X143.527 Y17.836 E.02138
G1 X143.692 Y18.456 E.0201
G1 X145.347 Y42.131 E.74412
G1 X145.132 Y43.131 E.0321
G1 X144.841 Y43.677 E.0194
G1 X144.296 Y44.316 E.02634
G1 X143.813 Y44.7 E.01935
M73 P10 R12
G1 X142.73 Y45.111 E.03629
G1 X136.699 Y45.462 E.18942
G1 X130.868 Y45.666 E.18295
G1 X125.011 Y45.734 E.18365
G1 X119.141 Y45.666 E.18406
G1 X113.288 Y45.461 E.18364
G1 X107.322 Y45.114 E.18738
G1 X106.562 Y44.896 E.02479
G1 X105.876 Y44.474 E.02524
G1 X105.144 Y43.655 E.03444
G1 X104.824 Y43.008 E.02264
G1 X104.653 Y42.127 E.02814
G1 X106.307 Y18.47 E.74357
G1 X106.433 Y17.987 E.01565
G1 X106.792 Y18.078 F10800
G1 F600
G1 X106.809 Y18.011 E.00216
G1 X107.237 Y17.275 E.02668
G1 X107.864 Y16.696 E.02678
G1 X108.474 Y16.363 E.02179
G1 X109.145 Y16.206 E.02161
G1 X114.646 Y16.51 E.17276
G1 X119.822 Y16.69 E.16238
G1 X125 Y16.751 E.16236
G1 X130.178 Y16.69 E.16236
M73 P11 R12
G1 X135.353 Y16.51 E.16237
G1 X140.784 Y16.203 E.17054
G1 X141.39 Y16.317 E.01934
G1 X142.125 Y16.685 E.02579
G1 X142.891 Y17.437 E.03365
G1 X143.169 Y17.957 E.01848
G1 X143.317 Y18.501 E.01768
G1 X144.969 Y42.129 E.74264
G1 X144.77 Y43.022 E.02868
G1 X144.52 Y43.478 E.0163
G1 X144.022 Y44.056 E.02392
G1 X143.603 Y44.386 E.01675
G1 X142.68 Y44.736 E.03094
G1 X136.684 Y45.085 E.18832
G1 X130.857 Y45.289 E.18281
G1 X125.009 Y45.357 E.18337
G1 X119.152 Y45.289 E.18365
G1 X113.307 Y45.085 E.18336
G1 X107.366 Y44.739 E.18662
G1 X106.694 Y44.542 E.02194
G1 X106.1 Y44.17 E.02197
G1 X105.443 Y43.425 E.03113
M73 P12 R12
G1 X105.189 Y42.909 E.01806
G1 X105.031 Y42.127 E.025
G1 X106.682 Y18.512 E.74224
G1 X106.778 Y18.136 E.01216
G1 X107.142 Y18.231 F10800
G1 F600
G1 X107.168 Y18.131 E.00323
G1 X107.514 Y17.533 E.02166
G1 X108.103 Y16.989 E.02517
G1 X108.585 Y16.724 E.01722
G1 X109.204 Y16.58 E.01994
G1 X114.629 Y16.886 E.17037
G1 X119.813 Y17.067 E.16265
G1 X125 Y17.128 E.16263
G1 X130.187 Y17.067 E.16263
G1 X135.37 Y16.886 E.16263
G1 X140.783 Y16.58 E.16997
G1 X141.249 Y16.667 E.01487
G1 X141.886 Y16.978 E.02222
G1 X142.574 Y17.644 E.03004
G1 X142.812 Y18.08 E.01558
G1 X142.942 Y18.547 E.01519
G1 X144.591 Y42.128 E.74116
G1 X144.426 Y42.866 E.02374
M73 P13 R12
G1 X144.221 Y43.248 E.01357
G1 X143.747 Y43.797 E.02274
G1 X143.437 Y44.046 E.01246
G1 X142.627 Y44.361 E.02725
G1 X136.668 Y44.708 E.18716
G1 X130.846 Y44.912 E.18268
G1 X125.007 Y44.98 E.1831
G1 X119.163 Y44.912 E.18323
G1 X113.323 Y44.708 E.18323
G1 X107.409 Y44.363 E.18575
G1 X106.868 Y44.206 E.01765
G1 X106.362 Y43.897 E.0186
G1 X105.768 Y43.232 E.02796
G1 X105.552 Y42.805 E.01499
G1 X105.409 Y42.127 E.02175
G1 X107.057 Y18.557 E.74083
G1 X107.127 Y18.289 E.00866
G1 X107.487 Y18.379 F10800
G1 F600
G1 X107.508 Y18.296 E.00268
G1 X107.825 Y17.748 E.01985
G1 X108.339 Y17.283 E.02175
G1 X108.7 Y17.084 E.01293
G1 X109.212 Y16.958 E.01653
G1 X114.612 Y17.263 E.16958
G1 X119.805 Y17.444 E.16291
G1 X125 Y17.505 E.16291
G1 X130.195 Y17.444 E.16291
M73 P14 R12
G1 X135.388 Y17.263 E.16291
G1 X140.741 Y16.955 E.16812
G1 X141.113 Y17.02 E.01184
G1 X141.649 Y17.273 E.01859
G1 X142.26 Y17.854 E.02642
G1 X142.456 Y18.207 E.01267
G1 X142.568 Y18.594 E.01263
G1 X144.213 Y42.125 E.73959
G1 X144.065 Y42.752 E.02022
G1 X143.902 Y43.046 E.01053
G1 X143.475 Y43.536 E.02037
G1 X143.226 Y43.732 E.00996
G1 X142.576 Y43.987 E.0219
G1 X136.653 Y44.331 E.18602
G1 X130.835 Y44.535 E.18254
G1 X125.004 Y44.603 E.18282
G1 X119.17 Y44.535 E.18296
G1 X113.343 Y44.331 E.18281
M73 P14 R11
G1 X107.451 Y43.988 E.18504
G1 X107.043 Y43.871 E.01332
G1 X106.583 Y43.59 E.01687
G1 X106.067 Y43.002 E.02454
G1 X105.915 Y42.7 E.01062
M73 P15 R11
G1 X105.787 Y42.125 E.01847
G1 X107.432 Y18.598 E.73945
G1 X107.472 Y18.438 E.0052
G1 X107.834 Y18.522 F10800
G1 F600
G1 X107.849 Y18.46 E.002
G1 X108.135 Y17.965 E.01793
G1 X108.573 Y17.58 E.01827
G1 X108.821 Y17.441 E.00891
G1 X109.222 Y17.336 E.01301
G1 X114.595 Y17.64 E.16873
G1 X119.796 Y17.821 E.16318
G1 X125 Y17.882 E.16318
G1 X130.204 Y17.821 E.16318
G1 X135.405 Y17.64 E.16318
G1 X140.705 Y17.331 E.16643
G1 X140.984 Y17.374 E.00885
G1 X141.416 Y17.571 E.0149
G1 X141.945 Y18.064 E.02266
G1 X142.116 Y18.371 E.01103
G1 X142.193 Y18.64 E.00876
G1 X143.835 Y42.12 E.73801
G1 X143.707 Y42.632 E.01655
G1 X143.587 Y42.838 E.00748
M73 P16 R11
G1 X143.205 Y43.272 E.01812
G1 X143.017 Y43.418 E.00745
G1 X142.524 Y43.612 E.01663
G1 X136.633 Y43.955 E.185
G1 X130.824 Y44.158 E.18227
G1 X125.002 Y44.226 E.18254
G1 X119.176 Y44.158 E.18268
G1 X113.362 Y43.955 E.1824
G1 X107.493 Y43.613 E.18435
G1 X107.217 Y43.535 E.00899
G1 X106.806 Y43.285 E.01508
G1 X106.369 Y42.775 E.02106
G1 X106.276 Y42.59 E.00648
G1 X106.165 Y42.121 E.01511
G1 X107.821 Y18.58 E.73993
G1 X108.185 Y18.67 F10800
G1 F600
G1 X108.208 Y18.576 E.00304
G1 X108.408 Y18.227 E.0126
G1 X108.808 Y17.875 E.01669
G1 X108.941 Y17.8 E.00481
G1 X109.289 Y17.708 E.01128
G1 X114.577 Y18.016 E.16609
G1 X119.787 Y18.198 E.16346
G1 X125 Y18.259 E.16346
G1 X130.213 Y18.198 E.16346
G1 X135.423 Y18.016 E.16346
M73 P17 R11
G1 X140.708 Y17.709 E.16599
G1 X140.86 Y17.731 E.00481
G1 X141.188 Y17.873 E.01123
G1 X141.631 Y18.275 E.01876
G1 X141.776 Y18.535 E.00933
G1 X141.818 Y18.685 E.00488
G1 X143.456 Y42.116 E.73645
G1 X143.366 Y42.469 E.01145
G1 X143.29 Y42.605 E.00488
G1 X142.932 Y43.012 E.017
G1 X142.845 Y43.081 E.00347
G1 X142.469 Y43.237 E.01279
G1 X136.614 Y43.578 E.18389
G1 X130.813 Y43.781 E.18199
G1 X125 Y43.849 E.18227
G1 X119.187 Y43.781 E.18227
G1 X113.382 Y43.578 E.18213
G1 X107.533 Y43.238 E.18369
G1 X107.383 Y43.197 E.00488
G1 X107.069 Y43.012 E.01143
G1 X106.69 Y42.577 E.01809
G1 X106.634 Y42.472 E.00373
G1 X106.544 Y42.116 E.01152
G1 X108.179 Y18.729 E.73505
G1 X108.555 Y18.756 F10800
M73 P18 R11
G1 F600
G1 X108.565 Y18.698 E.00185
G1 X108.682 Y18.488 E.00752
G1 X109.044 Y18.17 E.0151
G1 X109.302 Y18.087 E.0085
G1 X114.559 Y18.393 E.16514
G1 X119.778 Y18.575 E.16373
G1 X125 Y18.636 E.16373
G1 X130.222 Y18.575 E.16373
G1 X135.441 Y18.393 E.16373
G1 X140.712 Y18.086 E.16558
G1 X140.967 Y18.179 E.0085
G1 X141.318 Y18.488 E.01466
G1 X141.443 Y18.729 E.0085
G1 X143.078 Y42.107 E.73479
G1 X142.995 Y42.369 E.00863
G1 X142.662 Y42.747 E.01579
G1 X142.413 Y42.863 E.00863
G1 X136.594 Y43.202 E.18276
G1 X130.806 Y43.404 E.18158
G1 X124.998 Y43.472 E.18213
G1 X119.198 Y43.404 E.18186
M73 P19 R11
G1 X113.402 Y43.202 E.18185
G1 X107.573 Y42.862 E.18307
G1 X107.328 Y42.737 E.00863
G1 X107.005 Y42.369 E.01534
G1 X106.922 Y42.107 E.00863
G1 X108.551 Y18.816 E.73206
G1 X108.927 Y18.842 F10800
G1 F600
G1 X108.962 Y18.744 E.00327
G1 X109.251 Y18.49 E.01205
G1 X109.321 Y18.466 E.00233
G1 X114.542 Y18.77 E.16397
G1 X119.77 Y18.952 E.16401
G1 X125 Y19.013 E.16401
G1 X130.23 Y18.952 E.16401
G1 X135.458 Y18.77 E.16401
G1 X140.679 Y18.466 E.16397
G1 X140.749 Y18.49 E.00233
G1 X141.038 Y18.744 E.01205
G1 X141.071 Y18.81 E.00233
G1 X142.699 Y42.091 E.73173
G1 X142.675 Y42.163 E.00237
M73 P20 R11
G1 X142.417 Y42.456 E.01224
G1 X142.349 Y42.489 E.00237
G1 X136.574 Y42.825 E.18136
G1 X130.795 Y43.027 E.1813
G1 X124.996 Y43.094 E.18186
G1 X119.205 Y43.027 E.18158
G1 X113.417 Y42.825 E.18158
G1 X107.651 Y42.489 E.18109
G1 X107.583 Y42.456 E.00237
G1 X107.325 Y42.163 E.01224
G1 X107.301 Y42.091 E.00237
G1 X108.923 Y18.902 E.72886
G1 X109.297 Y18.951 F10800
G1 F600
G1 X109.414 Y18.849 E.00486
G1 X114.524 Y19.147 E.16051
G1 X119.761 Y19.329 E.16428
G1 X125 Y19.39 E.16429
M73 P21 R11
G1 X130.239 Y19.329 E.16429
G1 X135.476 Y19.147 E.16428
G1 X140.586 Y18.849 E.16051
G1 X140.703 Y18.951 E.00486
G1 X142.314 Y42.001 E.72448
G1 X142.21 Y42.119 E.00494
G1 X136.559 Y42.448 E.1775
G1 X130.784 Y42.65 E.18117
G1 X124.998 Y42.717 E.18144
G1 X119.216 Y42.65 E.18131
G1 X113.437 Y42.448 E.18131
G1 X107.79 Y42.119 E.17736
M73 P21 R10
G1 X107.686 Y42.001 E.00494
G1 X109.293 Y19.011 E.7226
; printing object Wedgev3.STL id:0 copy 0
G1 X110.025 Y19.661 F10800
;TYPE:Perimeter
;WIDTH:0.419999
M73 P22 R10
G1 F600
G1 X114.495 Y19.922 E.14038
G1 X119.749 Y20.105 E.16485
G1 X125.007 Y20.166 E.16485
G1 X130.264 Y20.105 E.16485
G1 X135.505 Y19.922 E.16444
G1 X139.975 Y19.661 E.14038
G1 X141.494 Y41.384 E.68276
G1 X136.525 Y41.674 E.15606
G1 X130.764 Y41.875 E.18073
G1 X125 Y41.942 E.18074
G1 X119.236 Y41.875 E.18074
M73 P23 R10
G1 X113.475 Y41.674 E.18073
G1 X108.506 Y41.384 E.15606
G1 X110.021 Y19.721 E.68088
G1 X109.675 Y19.263 F10800
;TYPE:External perimeter
G1 F600
G1 X114.508 Y19.545 E.15179
G1 X119.754 Y19.728 E.16458
G1 X125.002 Y19.789 E.16458
G1 X130.251 Y19.728 E.16458
G1 X135.492 Y19.545 E.16444
G1 X140.325 Y19.263 E.15179
G1 X141.897 Y41.738 E.70641
G1 X136.542 Y42.05 E.16816
M73 P24 R10
G1 X130.773 Y42.252 E.18101
G1 X125 Y42.319 E.18102
G1 X119.227 Y42.252 E.18102
G1 X113.458 Y42.05 E.18101
G1 X108.103 Y41.738 E.16816
G1 X109.671 Y19.323 E.70453
G1 X110.025 Y19.458 F10800
;WIPE_START
G1 F8640
G1 X114.508 Y19.545 E-1.11806
G1 X115.425 Y19.577 E-.21194
;WIPE_END
G1 E-.07 F2100
G1 Z.4 F10800
G1 X122.849 Y27.805
G1 Z.2
G1 E1.4 F2100
;TYPE:Perimeter
G1 F600
G1 X123.282 Y27.503 E.01656
G1 X123.81 Y27.255 E.01827
G1 X124.372 Y27.101 E.01827
G1 X124.913 Y27.046 E.01703
G1 X125.526 Y27.084 E.01927
G1 X126.099 Y27.223 E.0185
G1 X126.634 Y27.456 E.01827
G1 X127.121 Y27.776 E.01827
G1 X127.548 Y28.173 E.01827
G1 X127.901 Y28.637 E.01827
G1 X128.17 Y29.153 E.01827
G1 X128.349 Y29.708 E.01827
G1 X128.431 Y30.285 E.01827
G1 X128.414 Y30.868 E.01827
G1 X128.299 Y31.439 E.01827
G1 X128.09 Y31.983 E.01827
G1 X127.791 Y32.483 E.01827
G1 X127.412 Y32.926 E.01827
G1 X126.964 Y33.299 E.01827
G1 X126.459 Y33.59 E.01827
M73 P25 R10
G1 X125.912 Y33.792 E.01827
G1 X125.071 Y33.912 E.02663
