; generated by PrusaSlicer 2.5.0+win64 on 2023-02-10 at 15:45:35 UTC

; 

; external perimeters extrusion width = 0.45mm
; perimeters extrusion width = 0.45mm
; infill extrusion width = 0.45mm
; solid infill extrusion width = 0.45mm
; top infill extrusion width = 0.40mm
; first layer extrusion width = 0.42mm

M73 P0 R47
M107
;TYPE:Custom
M862.3 P "MK2.5S" ; printer model check
M862.1 P0.4 ; nozzle diameter check
M115 U3.10.0 ; tell printer latest fw version
G90 ; use absolute coordinates
M83  ; extruder relative mode
M104 S240 ; set extruder temp
M140 S85 ; set bed temp
M190 S85 ; wait for bed temp
M109 S240 ; wait for extruder temp
G28 W ; home all without mesh bed level
G80 ; mesh bed leveling
G1 Y-3.0 F1000.0 ; go outside print area
G92 E0.0
G1 X60.0 E9.0 F1000.0 ; intro line
G1 X100.0 E12.5 F1000.0 ; intro line
G92 E0.0
G21 ; set units to millimeters
G90 ; use absolute coordinates
M83 ; use relative distances for extrusion
M900 K0.08 ; Filament gcode LA 1.5
M900 K45 ; Filament gcode LA 1.0
M107
;LAYER_CHANGE
;Z:0.2
;HEIGHT:0.2
;BEFORE_LAYER_CHANGE
G92 E0.0
;0.2


G1 E-1 F2100
G1 Z.2 F10800
;AFTER_LAYER_CHANGE
;0.2
G1 Z.4
G1 X99.879 Y30.625
G1 Z.2
G1 E1 F2100
M204 S1000
;TYPE:Skirt/Brim
;WIDTH:0.42
G1 F1200
G1 X100.856 Y28.043 E.08656
G1 X102.086 Y25.6 E.08577
G1 X103.736 Y23.054 E.09513
G1 X105.484 Y20.917 E.08656
G1 X107.445 Y18.974 E.08656
G1 X109.599 Y17.247 E.08656
G1 X111.921 Y15.754 E.08656
G1 X114.159 Y14.614 E.07877
G1 X116.732 Y13.612 E.08656
G1 X119.395 Y12.885 E.08656
G1 X122.12 Y12.44 E.08656
G1 X124.876 Y12.283 E.08656
G1 X127.508 Y12.408 E.08262
G1 X130.605 Y12.885 E.09827
G1 X133.268 Y13.612 E.08656
G1 X135.841 Y14.614 E.08656
G1 X138.295 Y15.878 E.08656
G1 X140.603 Y17.393 E.08656
G1 X142.74 Y19.14 E.08656
G1 X144.683 Y21.102 E.08656
G1 X146.41 Y23.255 E.08656
G1 X147.903 Y25.578 E.08656
G1 X149.144 Y28.043 E.08656
G1 X150.121 Y30.625 E.08656
G1 X150.823 Y33.295 E.08656
G1 X151.216 Y35.776 E.07877
G1 X151.374 Y38.532 E.08656
G1 X151.242 Y41.29 E.08656
G1 X150.823 Y44.018 E.08655
G1 X150.121 Y46.688 E.08656
G1 X149.144 Y49.27 E.08656
G1 X147.914 Y51.713 E.08577
G1 X146.264 Y54.259 E.09513
G1 X144.516 Y56.397 E.08656
G1 X142.555 Y58.339 E.08656
G1 X140.401 Y60.067 E.08656
G1 X138.079 Y61.559 E.08656
G1 X135.614 Y62.801 E.08656
G1 X133.032 Y63.778 E.08656
G1 X130.362 Y64.48 E.08656
G1 X127.88 Y64.873 E.07877
G1 X125.124 Y65.031 E.08656
G1 X122.367 Y64.899 E.08656
G1 X119.638 Y64.48 E.08656
G1 X116.968 Y63.778 E.08656
G1 X114.386 Y62.801 E.08656
G1 X111.943 Y61.571 E.08577
G1 X109.397 Y59.92 E.09513
G1 X107.26 Y58.173 E.08656
G1 X105.317 Y56.212 E.08656
G1 X103.59 Y54.058 E.08656
G1 X102.097 Y51.736 E.08656
G1 X100.856 Y49.27 E.08656
G1 X99.879 Y46.688 E.08656
G1 X99.177 Y44.018 E.08656
G1 X98.784 Y41.537 E.07877
G1 X98.626 Y38.781 E.08656
G1 X98.758 Y36.023 E.08656
G1 X99.177 Y33.295 E.08656
G1 X99.863 Y30.683 E.08468
; printing object PullyCore.STL id:0 copy 0
;WIPE_START
G1 F8640
G1 X100.856 Y28.043 E-.65122
G1 X101.438 Y26.887 E-.29878
;WIPE_END
G1 E-.05 F2100
G1 Z.4 F10800
G1 X102.924 Y31.484
G1 Z.2
G1 E1 F2100
;TYPE:Perimeter
;WIDTH:0.419999
G1 F1200
G1 X103.795 Y29.216 E.07618
G1 X104.898 Y27.051 E.07618
G1 X106.221 Y25.013 E.07618
G1 X107.75 Y23.125 E.07618
G1 X109.468 Y21.407 E.07618
G1 X111.356 Y19.878 E.07618
G1 X113.394 Y18.555 E.07618
G1 X115.559 Y17.452 E.07618
G1 X117.827 Y16.581 E.07618
G1 X120.174 Y15.952 E.07618
G1 X122.574 Y15.572 E.07618
G1 X125 Y15.445 E.07618
G1 X127.426 Y15.572 E.07618
G1 X129.826 Y15.952 E.07618
G1 X132.173 Y16.581 E.07618
G1 X134.441 Y17.452 E.07618
G1 X136.606 Y18.555 E.07618
G1 X138.644 Y19.878 E.07618
G1 X140.532 Y21.407 E.07618
G1 X142.25 Y23.125 E.07618
G1 X143.779 Y25.013 E.07618
G1 X145.102 Y27.051 E.07618
G1 X146.205 Y29.216 E.07618
G1 X147.076 Y31.484 E.07618
G1 X147.705 Y33.831 E.07618
G1 X148.085 Y36.23 E.07618
G1 X148.212 Y38.657 E.07618
G1 X148.085 Y41.083 E.07618
G1 X147.705 Y43.483 E.07618
G1 X147.076 Y45.83 E.07618
G1 X146.205 Y48.098 E.07618
G1 X145.102 Y50.263 E.07618
G1 X143.779 Y52.3 E.07618
G1 X142.25 Y54.188 E.07618
G1 X140.532 Y55.906 E.07618
G1 X138.655 Y57.426 E.07573
G1 X136.606 Y58.759 E.07664
G1 X134.441 Y59.862 E.07617
G1 X132.173 Y60.732 E.07618
G1 X129.826 Y61.361 E.07618
G1 X127.426 Y61.741 E.07618
G1 X125 Y61.869 E.07618
G1 X122.574 Y61.741 E.07618
G1 X120.174 Y61.361 E.07618
G1 X117.827 Y60.732 E.07618
G1 X115.559 Y59.862 E.07618
G1 X113.394 Y58.759 E.07618
G1 X111.356 Y57.435 E.07618
G1 X109.468 Y55.906 E.07618
G1 X107.75 Y54.188 E.07618
G1 X106.23 Y52.311 E.07573
G1 X104.898 Y50.262 E.07664
G1 X103.795 Y48.098 E.07617
G1 X102.924 Y45.83 E.07618
G1 X102.295 Y43.483 E.07618
G1 X101.915 Y41.083 E.07618
G1 X101.788 Y38.657 E.07618
G1 X101.915 Y36.23 E.07618
G1 X102.295 Y33.831 E.07618
G1 X102.909 Y31.542 E.0743
G1 X102.565 Y31.367 F10800
;TYPE:External perimeter
G1 F1200
G1 X103.45 Y29.062 E.07742
G1 X104.571 Y26.862 E.07742
G1 X105.916 Y24.791 E.07742
G1 X107.47 Y22.872 E.07742
G1 X109.216 Y21.126 E.07742
G1 X111.134 Y19.572 E.07742
G1 X113.205 Y18.228 E.07742
G1 X115.405 Y17.107 E.07742
G1 X117.71 Y16.222 E.07742
G1 X120.095 Y15.583 E.07742
G1 X122.534 Y15.196 E.07742
G1 X125 Y15.067 E.07742
G1 X127.466 Y15.196 E.07742
G1 X129.905 Y15.583 E.07742
G1 X132.29 Y16.222 E.07742
G1 X134.595 Y17.107 E.07742
G1 X136.795 Y18.228 E.07742
G1 X138.866 Y19.572 E.07742
G1 X140.784 Y21.126 E.07742
G1 X142.53 Y22.872 E.07742
G1 X144.084 Y24.791 E.07742
G1 X145.429 Y26.862 E.07742
G1 X146.55 Y29.062 E.07742
G1 X147.435 Y31.367 E.07742
G1 X148.074 Y33.752 E.07742
G1 X148.46 Y36.191 E.07742
G1 X148.589 Y38.657 E.07742
G1 X148.46 Y41.122 E.07742
G1 X148.074 Y43.561 E.07742
G1 X147.435 Y45.946 E.07742
G1 X146.55 Y48.251 E.07742
G1 X145.429 Y50.451 E.07742
G1 X144.084 Y52.522 E.07742
G1 X142.53 Y54.441 E.07742
G1 X140.784 Y56.187 E.07742
G1 X138.877 Y57.732 E.07696
G1 X136.795 Y59.086 E.07787
G1 X134.595 Y60.207 E.07742
G1 X132.29 Y61.092 E.07742
G1 X129.905 Y61.731 E.07742
G1 X127.466 Y62.117 E.07742
G1 X125 Y62.246 E.07742
G1 X122.534 Y62.117 E.07742
G1 X120.095 Y61.731 E.07742
G1 X117.71 Y61.092 E.07742
G1 X115.405 Y60.207 E.07742
G1 X113.205 Y59.086 E.07742
G1 X111.134 Y57.741 E.07742
G1 X109.216 Y56.187 E.07742
G1 X107.47 Y54.441 E.07742
G1 X105.925 Y52.534 E.07696
M73 P1 R47
G1 X104.571 Y50.451 E.07787
G1 X103.45 Y48.251 E.07742
G1 X102.565 Y45.946 E.07742
G1 X101.926 Y43.561 E.07742
G1 X101.54 Y41.122 E.07742
G1 X101.411 Y38.657 E.07742
G1 X101.54 Y36.191 E.07742
G1 X101.926 Y33.752 E.07742
G1 X102.55 Y31.425 E.07554
G1 X102.956 Y31.284 F10800
;WIPE_START
G1 F8640
G1 X103.45 Y29.062 E-.58392
G1 X104.17 Y27.649 E-.36608
;WIPE_END
G1 E-.05 F2100
G1 Z.4 F10800
G1 X123.112 Y35.851
G1 Z.2
G1 E1 F2100
;TYPE:Perimeter
G1 F1200
G1 X123.562 Y35.591 E.01627
G1 X124.1 Y35.392 E.018
G1 X124.661 Y35.288 E.01787
G1 X125.243 Y35.28 E.01828
G1 X125.807 Y35.368 E.01788
G1 X126.351 Y35.552 E.01801
G1 X126.811 Y35.8 E.0164
G1 X127.308 Y36.179 E.0196
G1 X127.694 Y36.605 E.01801
G1 X128.002 Y37.09 E.01801
G1 X128.223 Y37.619 E.01801
G1 X128.352 Y38.179 E.01801
G1 X128.385 Y38.752 E.01801
G1 X128.32 Y39.323 E.01801
G1 X128.164 Y39.862 E.01758
G1 X127.908 Y40.391 E.01843
G1 X127.573 Y40.858 E.01801
G1 X127.164 Y41.261 E.01801
G1 X126.693 Y41.589 E.01801
G1 X126.173 Y41.833 E.01801
G1 X125.619 Y41.986 E.01801
G1 X125.048 Y42.043 E.01801
G1 X124.475 Y42.002 E.01801
G1 X123.917 Y41.865 E.01801
G1 X123.391 Y41.636 E.01801
G1 X122.91 Y41.321 E.01801
G1 X122.49 Y40.93 E.01801
G1 X122.142 Y40.473 E.01801
G1 X121.876 Y39.964 E.01801
G1 X121.7 Y39.417 E.01801
G1 X121.619 Y38.848 E.01801
G1 X121.635 Y38.274 E.01801
G1 X121.749 Y37.711 E.01801
G1 X121.955 Y37.175 E.01801
G1 X122.249 Y36.682 E.01801
G1 X122.623 Y36.245 E.01801
G1 X123.061 Y35.881 E.01786
G1 X123.301 Y36.172 F10800
;TYPE:External perimeter
G1 F1200
G1 X123.746 Y35.92 E.016
G1 X124.226 Y35.748 E.016
G1 X124.724 Y35.659 E.01587
G1 X125.243 Y35.657 E.01628
G1 X125.743 Y35.74 E.01588
G1 X126.225 Y35.907 E.01601
G1 X126.672 Y36.154 E.01601
G1 X127.071 Y36.472 E.01601
G1 X127.411 Y36.854 E.01601
G1 X127.681 Y37.287 E.01601
G1 X127.873 Y37.76 E.01601
G1 X127.984 Y38.258 E.01601
G1 X128.008 Y38.768 E.01601
G1 X127.946 Y39.275 E.01601
G1 X127.799 Y39.764 E.01601
G1 X127.572 Y40.221 E.01601
G1 X127.27 Y40.633 E.01601
G1 X126.903 Y40.989 E.01601
G1 X126.482 Y41.277 E.01601
G1 X126.018 Y41.49 E.01601
G1 X125.524 Y41.621 E.01601
G1 X125.016 Y41.667 E.01601
G1 X124.507 Y41.626 E.01601
G1 X124.012 Y41.5 E.01601
G1 X123.546 Y41.292 E.01601
G1 X123.121 Y41.009 E.01601
G1 X122.742 Y40.648 E.01642
G1 X122.439 Y40.239 E.01595
G1 X122.21 Y39.787 E.01588
G1 X122.061 Y39.306 E.01578
G1 X121.993 Y38.8 E.01601
G1 X122.012 Y38.29 E.01601
G1 X122.117 Y37.791 E.01601
G1 X122.305 Y37.316 E.01601
G1 X122.57 Y36.88 E.01601
G1 X122.906 Y36.494 E.01601
G1 X123.255 Y36.209 E.01413
G1 X123.271 Y35.773 F10800
;WIPE_START
G1 F8640
G1 X123.746 Y35.92 E-.13151
G1 X124.226 Y35.748 E-.11786
G1 X124.724 Y35.659 E-.11686
G1 X125.243 Y35.657 E-.11987
G1 X125.743 Y35.74 E-.11693
G1 X126.225 Y35.907 E-.11788
G1 X126.672 Y36.154 E-.11789
G1 X127.049 Y36.454 E-.1112
;WIPE_END
G1 E-.05 F2100
G1 Z.4 F10800
G1 X143.192 Y24.468
G1 Z.2
G1 E1 F2100
;TYPE:Solid infill
;WIDTH:0.421375
G1 F1200
G1 X140.337 Y21.613 E.12705
G1 X138.477 Y20.107 E.0753
G1 X137.959 Y19.771 E.01942
G1 X143.886 Y25.697 E.26374
G1 X144.868 Y27.215 E.05689
G1 X136.442 Y18.788 E.375
G1 X135.351 Y18.232 E.03854
G1 X145.424 Y28.306 E.44831
G1 X145.967 Y29.384 E.03797
G1 X134.273 Y17.69 E.52041
G1 X133.404 Y17.357 E.02928
G1 X146.3 Y30.252 E.57391
G1 X146.634 Y31.121 E.02928
G1 X132.536 Y17.023 E.62741
G1 X132.085 Y16.85 E.01518
G1 X131.733 Y16.756 E.01147
G1 X146.901 Y31.923 E.67501
G1 X147.097 Y32.655 E.02382
G1 X131.002 Y16.56 E.71626
G1 X130.271 Y16.364 E.02382
G1 X147.293 Y33.386 E.75752
G1 X147.428 Y33.89 E.01641
G1 X147.459 Y34.087 E.0063
G1 X129.569 Y16.198 E.79614
G1 X128.934 Y16.097 E.02026
G1 X147.56 Y34.723 E.82893
G1 X147.66 Y35.359 E.02026
G1 X128.298 Y15.996 E.86171
G1 X127.662 Y15.896 E.02026
G1 X147.761 Y35.995 E.89449
G1 X147.803 Y36.26 E.00844
G1 X147.82 Y36.589 E.01038
G1 X127.067 Y15.836 E.92358
G1 X126.502 Y15.807 E.0178
M73 P1 R46
G1 X147.85 Y37.154 E.95004
G1 X147.88 Y37.719 E.0178
G1 X125.938 Y15.777 E.97649
G1 X125.373 Y15.748 E.0178
G1 X147.909 Y38.284 E1.00295
G1 X147.92 Y38.83 E.01718
G1 X124.827 Y15.737 E1.0277
G1 X124.318 Y15.764 E.01603
G1 X147.893 Y39.338 E1.04914
G1 X147.866 Y39.847 E.01603
G1 X123.81 Y15.79 E1.07059
G1 X123.301 Y15.817 E.01603
M73 P2 R46
G1 X147.84 Y40.355 E1.09204
G1 X147.813 Y40.864 E.01603
G1 X122.793 Y15.844 E1.11348
G1 X122.313 Y15.9 E.01519
G1 X147.757 Y41.343 E1.13233
G1 X147.684 Y41.805 E.01472
G1 X121.851 Y15.973 E1.14964
G1 X121.389 Y16.046 E.01472
G1 X147.611 Y42.267 E1.16694
G1 X147.538 Y42.729 E.01472
G1 X120.927 Y16.119 E1.18425
G1 X120.465 Y16.192 E.01472
G1 X147.464 Y43.191 E1.20155
G1 X147.371 Y43.634 E.01422
G1 X120.023 Y16.285 E1.21709
G1 X119.601 Y16.398 E.01375
G1 X147.258 Y44.056 E1.23085
G1 X147.145 Y44.478 E.01375
G1 X119.179 Y16.511 E1.2446
G1 X118.757 Y16.625 E.01375
G1 X147.032 Y44.9 E1.25835
G1 X146.919 Y45.322 E.01375
G1 X118.335 Y16.738 E1.2721
G1 X117.913 Y16.851 E.01375
G1 X146.806 Y45.744 E1.28584
G1 X146.657 Y46.131 E.01304
G1 X117.526 Y16.999 E1.29644
G1 X117.139 Y17.148 E.01304
G1 X146.509 Y46.517 E1.30705
G1 X146.36 Y46.904 E.01304
M73 P3 R46
G1 X116.752 Y17.296 E1.31765
G1 X116.366 Y17.445 E.01304
G1 X146.212 Y47.291 E1.32826
G1 X146.063 Y47.678 E.01304
G1 X115.979 Y17.593 E1.33886
G1 X115.599 Y17.749 E.01292
G1 X145.908 Y48.058 E1.34886
G1 X145.727 Y48.412 E.01252
G1 X115.244 Y17.929 E1.3566
G1 X114.89 Y18.11 E.01252
G1 X145.547 Y48.767 E1.36434
G1 X145.366 Y49.121 E.01252
G1 X114.535 Y18.291 E1.37208
G1 X114.181 Y18.471 E.01252
G1 X145.185 Y49.476 E1.37982
G1 X145.005 Y49.83 E.01252
G1 X113.826 Y18.652 E1.38756
G1 X113.477 Y18.838 E.01245
G1 X144.819 Y50.18 E1.39481
G1 X144.608 Y50.504 E.01218
M73 P3 R45
G1 X113.153 Y19.049 E1.39987
G1 X112.828 Y19.259 E.01218
G1 X144.397 Y50.829 E1.40494
G1 X144.187 Y51.153 E.01218
G1 X112.504 Y19.47 E1.41
G1 X112.179 Y19.681 E.01218
M73 P4 R45
G1 X143.976 Y51.478 E1.41506
G1 X143.765 Y51.802 E.01218
G1 X111.855 Y19.892 E1.42013
G1 X111.53 Y20.102 E.01218
G1 X143.554 Y52.127 E1.42519
G1 X143.316 Y52.423 E.01198
G1 X128.518 Y37.626 E.65852
G1 X128.63 Y38.126 E.01613
G1 X128.64 Y38.282 E.00492
G1 X143.076 Y52.719 E.64248
G1 X142.837 Y53.014 E.01198
G1 X128.66 Y38.838 E.63089
G1 X128.603 Y39.316 E.01514
G1 X142.597 Y53.31 E.6228
G1 X142.358 Y53.606 E.01198
G1 X128.494 Y39.742 E.617
G1 X128.411 Y40.014 E.00897
G1 X128.35 Y40.134 E.00421
G1 X142.118 Y53.902 E.61272
G1 X141.86 Y54.178 E.01192
G1 X128.171 Y40.489 E.60922
G1 X128.116 Y40.597 E.00381
G1 X127.955 Y40.809 E.00836
G1 X141.592 Y54.446 E.60691
G1 X141.325 Y54.714 E.01191
G1 X127.723 Y41.112 E.6053
G1 X127.451 Y41.375 E.01191
G1 X141.057 Y54.981 E.60551
G1 X140.789 Y55.249 E.01191
G1 X127.156 Y41.615 E.60674
G1 X126.837 Y41.832 E.01213
G1 X140.522 Y55.517 E.60902
G1 X140.245 Y55.775 E.01192
G1 X126.474 Y42.004 E.61286
G1 X126.284 Y42.094 E.00662
G1 X126.083 Y42.148 E.00654
G1 X139.949 Y56.014 E.61709
G1 X139.653 Y56.254 E.01198
G1 X125.662 Y42.263 E.62266
G1 X125.177 Y42.313 E.01534
G1 X139.358 Y56.493 E.63108
G1 X139.062 Y56.733 E.01198
G1 X124.625 Y42.296 E.64247
G1 X124.389 Y42.276 E.00748
G1 X123.952 Y42.158 E.01425
G1 X138.887 Y57.093 E.66467
;WIPE_START
G1 F8640
G1 X135.978 Y54.184 E-.95
;WIPE_END
G1 E-.05 F2100
G1 Z.4 F10800
G1 X126.312 Y35.42
G1 Z.2
G1 E1 F2100
G1 F1200
G1 X111.234 Y20.341 E.67104
G1 X110.938 Y20.581 E.01198
G1 X125.364 Y35.006 E.642
M73 P5 R45
G1 X124.822 Y34.999 E.01707
G1 X110.642 Y20.82 E.63103
G1 X110.347 Y21.06 E.01198
G1 X124.343 Y35.056 E.62289
G1 X124.118 Y35.094 E.00719
G1 X123.915 Y35.163 E.00674
G1 X110.051 Y21.299 E.617
G1 X109.755 Y21.539 E.01198
G1 X123.517 Y35.301 E.61246
G1 X123.171 Y35.49 E.01241
G1 X109.478 Y21.797 E.60938
G1 X109.211 Y22.065 E.01191
G1 X122.844 Y35.698 E.60673
G1 X122.548 Y35.937 E.01198
G1 X108.943 Y22.332 E.60547
G1 X108.675 Y22.6 E.01191
G1 X122.283 Y36.207 E.60557
G1 X122.035 Y36.495 E.01194
G1 X108.408 Y22.867 E.60646
G1 X108.14 Y23.135 E.01191
G1 X121.835 Y36.83 E.60946
G1 X121.695 Y37.063 E.00856
G1 X121.649 Y37.179 E.00393
G1 X107.882 Y23.412 E.61269
G1 X107.642 Y23.708 E.01198
G1 X121.497 Y37.562 E.61656
G1 X121.398 Y37.999 E.01409
G1 X107.403 Y24.003 E.62284
G1 X107.163 Y24.299 E.01198
G1 X121.349 Y38.484 E.63129
G1 X121.332 Y38.771 E.00903
G1 X121.363 Y39.034 E.00835
G1 X106.924 Y24.595 E.6426
G1 X106.684 Y24.89 E.01198
G1 X121.75 Y39.956 E.67047
;WIPE_START
G1 F8640
G1 X118.841 Y37.047 E-.95
;WIPE_END
G1 E-.05 F2100
G1 Z.4 F10800
G1 X106.324 Y25.066
G1 Z.2
G1 E1 F2100
G1 F1200
G1 X138.469 Y57.21 E1.43054
G1 X138.144 Y57.421 E.01217
G1 X106.235 Y25.511 E1.42008
G1 X106.024 Y25.836 E.01218
G1 X137.82 Y57.632 E1.41503
G1 X137.496 Y57.843 E.01217
G1 X105.813 Y26.16 E1.40997
G1 X105.603 Y26.485 E.01218
M73 P5 R44
G1 X137.171 Y58.054 E1.40492
G1 X136.847 Y58.265 E.01217
M73 P6 R44
G1 X105.392 Y26.809 E1.39986
G1 X105.181 Y27.134 E.01218
G1 X136.523 Y58.475 E1.39481
G1 X136.174 Y58.662 E.01245
G1 X104.995 Y27.483 E1.38755
G1 X104.814 Y27.837 E.01252
G1 X135.819 Y58.842 E1.37981
G1 X135.465 Y59.023 E.01252
G1 X104.634 Y28.192 E1.37208
G1 X104.453 Y28.547 E.01252
G1 X135.11 Y59.204 E1.36434
G1 X134.756 Y59.384 E.01252
G1 X104.273 Y28.901 E1.3566
G1 X104.092 Y29.256 E.01252
G1 X134.401 Y59.565 E1.34886
G1 X134.021 Y59.72 E.01292
G1 X103.937 Y29.636 E1.33886
G1 X103.788 Y30.022 E.01304
G1 X133.634 Y59.869 E1.32825
G1 X133.247 Y60.017 E.01304
G1 X103.64 Y30.409 E1.31765
G1 X103.491 Y30.796 E.01304
G1 X132.861 Y60.165 E1.30704
G1 X132.474 Y60.314 E.01304
G1 X103.343 Y31.183 E1.29644
G1 X103.194 Y31.569 E.01304
G1 X132.087 Y60.462 E1.28583
M73 P7 R44
G1 X131.665 Y60.576 E.01375
G1 X103.081 Y31.991 E1.2721
G1 X102.968 Y32.414 E.01375
G1 X131.243 Y60.689 E1.25835
G1 X130.821 Y60.802 E.01375
G1 X102.855 Y32.836 E1.24459
