; generated by PrusaSlicer 2.5.0+win64 on 2023-02-11 at 13:26:25 UTC

; 

; external perimeters extrusion width = 0.45mm
; perimeters extrusion width = 0.45mm
; infill extrusion width = 0.45mm
; solid infill extrusion width = 0.45mm
; top infill extrusion width = 0.40mm
; first layer extrusion width = 0.42mm

M73 P0 R34
M107
;TYPE:Custom
M862.3 P "MK2.5S" ; printer model check
M862.1 P0.4 ; nozzle diameter check
M115 U3.10.0 ; tell printer latest fw version
G90 ; use absolute coordinates
M83  ; extruder relative mode
M104 S230 ; set extruder temp
M140 S50 ; set bed temp
M190 S50 ; wait for bed temp
M109 S230 ; wait for extruder temp
G28 W ; home all without mesh bed level
G80 ; mesh bed leveling
G1 Y-3.0 F1000.0 ; go outside print area
G92 E0.0
G1 X60.0 E9.0 F1000.0 ; intro line
G1 X100.0 E12.5 F1000.0 ; intro line
G92 E0.0
G21 ; set units to millimeters
G90 ; use absolute coordinates
M83 ; use relative distances for extrusion
M900 K0
M107
;LAYER_CHANGE
;Z:0.2
;HEIGHT:0.2
;BEFORE_LAYER_CHANGE
G92 E0.0
;0.2


G1 E-1 F2100
G1 Z.2 F10800
;AFTER_LAYER_CHANGE
;0.2
G1 X95.822 Y32.914
G1 E1 F1500
M204 S1000
;TYPE:Skirt/Brim
;WIDTH:0.42
G1 F1200
G1 X95.892 Y32.711 E.00739
G1 X97.249 Y29.78 E.11141
G1 X98.901 Y27.004 E.11141
G1 X100.83 Y24.413 E.11141
G1 X103.015 Y22.034 E.11141
G1 X105.433 Y19.892 E.11141
G1 X108.058 Y18.01 E.11141
G1 X110.863 Y16.408 E.11141
G1 X113.818 Y15.103 E.11141
G1 X116.892 Y14.109 E.11141
G1 X120.051 Y13.436 E.11141
G1 X123.263 Y13.091 E.11141
G1 X125.076 Y13.041 E.06257
G1 X126.737 Y13.091 E.05732
G1 X129.949 Y13.436 E.11141
G1 X133.108 Y14.109 E.11141
G1 X136.182 Y15.103 E.11141
G1 X139.137 Y16.408 E.11141
G1 X141.942 Y18.01 E.11141
G1 X144.567 Y19.892 E.11141
G1 X146.985 Y22.034 E.11141
G1 X149.17 Y24.413 E.11141
G1 X151.099 Y27.004 E.11141
G1 X152.751 Y29.78 E.11141
G1 X154.016 Y32.484 E.10298
G1 X155.089 Y35.531 E.11141
G1 X155.844 Y38.672 E.11141
G1 X156.271 Y41.874 E.11141
G1 X156.367 Y45.103 E.11141
G1 X156.13 Y48.324 E.11141
G1 X155.563 Y51.504 E.11141
G1 X154.673 Y54.609 E.11141
G1 X153.467 Y57.606 E.11141
G1 X151.96 Y60.463 E.11141
G1 X150.168 Y63.15 E.11141
G1 X148.108 Y65.639 E.11141
G1 X145.825 Y67.881 E.11038
G1 X143.079 Y70.059 E.12086
G1 X140.347 Y71.782 E.11141
G1 X137.452 Y73.215 E.11141
G1 X134.425 Y74.342 E.11141
G1 X131.298 Y75.153 E.11141
G1 X128.104 Y75.637 E.11141
G1 X124.878 Y75.791 E.11141
G1 X121.652 Y75.612 E.11141
G1 X118.463 Y75.103 E.11141
G1 X115.575 Y74.342 E.10298
G1 X112.548 Y73.215 E.11141
G1 X109.653 Y71.782 E.11141
G1 X106.921 Y70.059 E.11141
G1 X104.38 Y68.064 E.11141
G1 X102.058 Y65.818 E.11141
G1 X99.832 Y63.15 E.11984
G1 X98.04 Y60.463 E.11141
G1 X96.533 Y57.606 E.11141
G1 X95.327 Y54.609 E.11141
G1 X94.437 Y51.504 E.11141
G1 X93.87 Y48.324 E.11141
G1 X93.633 Y45.103 E.11141
G1 X93.729 Y41.874 E.11141
G1 X94.156 Y38.672 E.11141
G1 X94.842 Y35.766 E.10298
G1 X95.802 Y32.97 E.10195
; printing object RubberSleeve.STL id:0 copy 0
G1 E-1 F2100
G1 X98.867 Y33.789 F10800
G1 E1 F1500
;TYPE:Perimeter
;WIDTH:0.419999
G1 F1200
G1 X100.098 Y31.158 E.10018
G1 X101.593 Y28.668 E.10018
G1 X103.337 Y26.345 E.10018
G1 X105.31 Y24.213 E.10018
G1 X107.491 Y22.296 E.10018
G1 X109.859 Y20.613 E.10018
G1 X112.387 Y19.182 E.10018
G1 X115.048 Y18.019 E.10018
G1 X117.815 Y17.135 E.10018
G1 X120.658 Y16.541 E.10018
G1 X123.558 Y16.242 E.10053
G1 X125.01 Y16.205 E.05009
G1 X126.442 Y16.242 E.04942
G1 X129.342 Y16.541 E.10053
G1 X132.185 Y17.135 E.10018
G1 X134.952 Y18.019 E.10018
G1 X137.613 Y19.182 E.10018
G1 X140.141 Y20.613 E.10018
G1 X142.509 Y22.296 E.10018
G1 X144.69 Y24.213 E.10018
G1 X146.663 Y26.345 E.10018
G1 X148.407 Y28.668 E.10018
G1 X149.902 Y31.158 E.10018
G1 X151.133 Y33.789 E.10018
G1 X152.088 Y36.532 E.10018
G1 X152.755 Y39.359 E.10018
G1 X153.13 Y42.329 E.10324
G1 X153.203 Y45.144 E.0971
G1 X152.978 Y48.039 E.10018
G1 X152.458 Y50.897 E.10018
M73 P1 R34
G1 X151.646 Y53.686 E.10018
G1 X150.552 Y56.377 E.10018
G1 X149.186 Y58.94 E.10018
G1 X147.565 Y61.35 E.10018
G1 X145.704 Y63.581 E.10018
G1 X143.638 Y65.594 E.09951
G1 X141.346 Y67.411 E.10085
G1 X138.896 Y68.969 E.10017
G1 X136.298 Y70.268 E.10018
G1 X133.58 Y71.293 E.10018
G1 X130.771 Y72.032 E.10018
G1 X127.901 Y72.479 E.10018
G1 X125 Y72.629 E.10018
G1 X122.099 Y72.479 E.10018
G1 X119.229 Y72.032 E.10018
G1 X116.42 Y71.293 E.10018
G1 X113.702 Y70.268 E.10018
G1 X111.104 Y68.969 E.10018
G1 X108.653 Y67.411 E.10018
G1 X106.376 Y65.608 E.10018
G1 X104.296 Y63.581 E.10018
G1 X102.435 Y61.35 E.10018
G1 X100.814 Y58.94 E.10018
G1 X99.448 Y56.377 E.10018
G1 X98.354 Y53.686 E.10018
G1 X97.542 Y50.897 E.10018
G1 X97.022 Y48.039 E.10018
G1 X96.797 Y45.144 E.10018
G1 X96.872 Y42.24 E.10018
G1 X97.245 Y39.359 E.10018
G1 X97.912 Y36.532 E.10018
G1 X98.847 Y33.846 E.09811
G1 X98.517 Y33.647 F10800
;TYPE:External perimeter
G1 F1200
G1 X99.765 Y30.981 E.10152
G1 X101.28 Y28.457 E.10152
G1 X103.047 Y26.103 E.10152
G1 X105.046 Y23.943 E.10152
G1 X107.257 Y22 E.10152
G1 X109.656 Y20.294 E.10152
G1 X112.218 Y18.844 E.10152
G1 X114.915 Y17.665 E.10152
G1 X117.719 Y16.77 E.10152
M73 P1 R33
G1 X120.6 Y16.168 E.10152
G1 X123.533 Y15.865 E.1017
G1 X125.01 Y15.827 E.05093
G1 X126.467 Y15.865 E.05026
G1 X129.4 Y16.168 E.1017
G1 X132.281 Y16.77 E.10152
G1 X135.085 Y17.665 E.10152
G1 X137.782 Y18.844 E.10152
G1 X140.344 Y20.294 E.10152
G1 X142.743 Y22 E.10152
G1 X144.954 Y23.943 E.10152
G1 X146.953 Y26.103 E.10152
G1 X148.72 Y28.457 E.10152
G1 X150.235 Y30.981 E.10152
G1 X151.483 Y33.647 E.10152
G1 X152.45 Y36.427 E.10152
G1 X153.126 Y39.292 E.10152
G1 X153.507 Y42.319 E.10525
G1 X153.58 Y45.153 E.09777
G1 X153.353 Y48.088 E.10152
G1 X152.825 Y50.984 E.10152
G1 X152.002 Y53.81 E.10152
G1 X150.894 Y56.537 E.10152
G1 X149.51 Y59.135 E.10152
G1 X147.867 Y61.577 E.10152
G1 X145.981 Y63.837 E.10152
G1 X143.887 Y65.878 E.10085
G1 X141.565 Y67.718 E.10219
G1 X139.082 Y69.298 E.10152
G1 X136.449 Y70.614 E.10152
G1 X133.694 Y71.652 E.10152
G1 X130.848 Y72.402 E.10152
G1 X127.94 Y72.855 E.10152
G1 X125 Y73.007 E.10152
G1 X122.06 Y72.855 E.10152
G1 X119.152 Y72.402 E.10152
G1 X116.306 Y71.652 E.10152
G1 X113.551 Y70.614 E.10152
G1 X110.918 Y69.298 E.10152
G1 X108.435 Y67.718 E.10152
G1 X106.127 Y65.892 E.10152
G1 X104.019 Y63.837 E.10152
G1 X102.133 Y61.577 E.10152
G1 X100.49 Y59.135 E.10152
G1 X99.106 Y56.537 E.10152
G1 X97.998 Y53.81 E.10152
G1 X97.175 Y50.984 E.10152
G1 X96.647 Y48.088 E.10152
G1 X96.42 Y45.153 E.10152
G1 X96.496 Y42.211 E.10152
G1 X96.874 Y39.292 E.10152
G1 X97.55 Y36.427 E.10152
G1 X98.497 Y33.703 E.09945
G1 X98.913 Y33.592 F10800
G1 E-1 F2100
G1 X103.084 Y32.839 F10800
G1 E1 F1500
;TYPE:Perimeter
G1 F1200
G1 X104.521 Y30.453 E.09605
G1 X106.246 Y28.21 E.09761
G1 X108.264 Y26.134 E.09983
G1 X110.457 Y24.345 E.09761
G1 X112.806 Y22.84 E.09624
G1 X115.321 Y21.599 E.09672
G1 X117.986 Y20.644 E.09764
G1 X120.742 Y19.999 E.09761
G1 X123.55 Y19.673 E.0975
G1 X124.966 Y19.631 E.04888
G1 X126.45 Y19.673 E.05121
G1 X129.258 Y19.999 E.0975
G1 X132.014 Y20.644 E.09761
G1 X134.619 Y21.573 E.09538
G1 X137.16 Y22.818 E.09761
G1 X139.543 Y24.345 E.09761
G1 X141.736 Y26.134 E.09761
G1 X143.711 Y28.161 E.09761
G1 X143.977 Y28.5 E.01485
G1 X145.442 Y30.4 E.08276
G1 X146.937 Y32.879 E.09983
G1 X148.086 Y35.394 E.09538
G1 X148.964 Y38.085 E.09761
G1 X149.53 Y40.858 E.09761
G1 X149.775 Y43.677 E.09761
G1 X149.693 Y46.57 E.09983
G1 X149.299 Y49.308 E.09538
G1 X148.583 Y52.046 E.09761
G1 X147.56 Y54.684 E.09761
G1 X146.242 Y57.191 E.09768
G1 X144.648 Y59.527 E.09754
G1 X142.798 Y61.669 E.09761
G1 X140.665 Y63.626 E.09983
G1 X138.428 Y65.251 E.09538
G1 X135.965 Y66.646 E.09761
G1 X133.36 Y67.751 E.09761
G1 X130.646 Y68.552 E.09761
G1 X127.858 Y69.038 E.09761
G1 X127.626 Y69.055 E.00801
G1 X124.968 Y69.204 E.09183
G1 X122.142 Y69.038 E.09761
G1 X119.417 Y68.567 E.09538
G1 X116.701 Y67.773 E.09761
G1 X114.128 Y66.69 E.09627
G1 X111.627 Y65.287 E.09891
G1 X109.335 Y63.626 E.09764
G1 X108.686 Y63.036 E.03025
G1 X107.247 Y61.715 E.06736
G1 X105.391 Y59.579 E.09761
G1 X103.788 Y57.241 E.09775
G1 X102.467 Y54.743 E.09746
G1 X101.417 Y52.046 E.09983
M73 P2 R33
G1 X100.714 Y49.371 E.09538
G1 X100.307 Y46.57 E.09761
G1 X100.225 Y43.677 E.09983
G1 X100.461 Y40.922 E.09538
G1 X101.02 Y38.147 E.09761
G1 X101.891 Y35.454 E.09761
G1 X103.057 Y32.892 E.0971
G1 X103.416 Y33.016 F10800
;TYPE:External perimeter
G1 F1200
G1 X104.844 Y30.648 E.09538
G1 X106.545 Y28.44 E.09613
G1 X108.487 Y26.44 E.09613
G1 X110.643 Y24.675 E.09613
G1 X112.973 Y23.178 E.09552
G1 X115.488 Y21.937 E.09672
G1 X118.113 Y20.999 E.09614
G1 X120.827 Y20.366 E.09613
G1 X123.595 Y20.048 E.09609
G1 X124.976 Y20.008 E.04765
G1 X126.407 Y20.048 E.0494
G1 X129.173 Y20.366 E.09602
G1 X131.887 Y20.999 E.09613
G1 X134.492 Y21.928 E.09538
G1 X136.994 Y23.157 E.09613
G1 X139.339 Y24.663 E.09613
G1 X140.101 Y25.284 E.0339
G1 X141.498 Y26.426 E.06223
G1 X143.441 Y28.424 E.09613
G1 X145.191 Y30.706 E.09921
G1 X146.585 Y33.018 E.09311
G1 X147.751 Y35.571 E.09678
G1 X148.611 Y38.222 E.09613
G1 X149.163 Y40.954 E.09613
G1 X149.4 Y43.731 E.09613
G1 X149.321 Y46.495 E.09538
G1 X148.926 Y49.254 E.09613
G1 X148.74 Y49.965 E.02534
G1 X148.219 Y51.95 E.07078
G1 X147.208 Y54.55 E.09622
G1 X145.909 Y57.014 E.09605
G1 X144.337 Y59.315 E.0961
G1 X142.498 Y61.437 E.09687
G1 X140.46 Y63.307 E.09538
G1 X138.206 Y64.946 E.09613
G1 X135.78 Y66.318 E.09613
G1 X133.213 Y67.404 E.09613
G1 X130.539 Y68.19 E.09613
G1 X130.06 Y68.275 E.01679
G1 X127.79 Y68.667 E.07945
G1 X124.989 Y68.827 E.09676
G1 X122.228 Y68.669 E.09538
G1 X119.482 Y68.195 E.09613
G1 X116.807 Y67.411 E.09613
G1 X114.275 Y66.343 E.09479
G1 X111.812 Y64.958 E.09745
G1 X109.556 Y63.321 E.09614
G1 X107.502 Y61.437 E.09613
G1 X107.15 Y61.033 E.0185
G1 X105.676 Y59.332 E.07763
G1 X104.091 Y57.013 E.09687
G1 X102.8 Y54.567 E.09538
G1 X101.788 Y51.97 E.09613
G1 X101.074 Y49.254 E.09687
G1 X100.679 Y46.495 E.09613
G1 X100.6 Y43.709 E.09613
G1 X100.837 Y40.954 E.09538
G1 X101.389 Y38.222 E.09613
G1 X102.249 Y35.571 E.09613
G1 X103.39 Y33.07 E.0948
G1 X103.203 Y32.678 F10800
G1 E-1 F2100
G1 X148.37 Y28.827 F10800
G1 E1 F1500
;TYPE:Solid infill
;WIDTH:0.420172
G1 F1200
G1 X141.393 Y21.849 E.34048
G1 X139.989 Y20.852 E.05942
G1 X139.695 Y20.685 E.01167
G1 X148.677 Y29.667 E.43829
G1 X149.478 Y31.002 E.05375
G1 X138.466 Y19.989 E.5374
G1 X137.487 Y19.435 E.03881
G1 X137.294 Y19.351 E.00727
G1 X150.02 Y32.077 E.62101
G1 X150.489 Y33.08 E.03821
G1 X136.346 Y18.937 E.69016
G1 X135.398 Y18.523 E.03569
G1 X150.924 Y34.048 E.75763
G1 X151.209 Y34.866 E.02989
G1 X134.52 Y18.178 E.81437
G1 X133.736 Y17.928 E.02839
G1 X151.493 Y35.685 E.8665
G1 X151.778 Y36.503 E.02989
G1 X145.922 Y30.647 E.28576
G1 X146.739 Y31.997 E.05444
G1 X151.959 Y37.217 E.25473
G1 X152.123 Y37.915 E.02476
G1 X147.377 Y33.169 E.23161
G1 X147.828 Y34.154 E.03738
G1 X152.288 Y38.613 E.21763
G1 X152.453 Y39.312 E.02476
G1 X148.28 Y35.139 E.20364
G1 X148.345 Y35.282 E.00543
G1 X148.565 Y35.957 E.02451
G1 X152.544 Y39.937 E.19419
G1 X152.624 Y40.55 E.02132
G1 X148.822 Y36.748 E.18553
G1 X149.078 Y37.538 E.02867
G1 X152.703 Y41.162 E.17687
G1 X152.782 Y41.775 E.02132
G1 X149.298 Y38.291 E.17004
G1 X149.433 Y38.959 E.02353
G1 X152.848 Y42.375 E.16667
G1 X152.862 Y42.922 E.0189
M73 P3 R33
G1 X149.568 Y39.628 E.16077
G1 X149.703 Y40.296 E.02353
G1 X152.877 Y43.47 E.15487
G1 X152.891 Y44.018 E.0189
G1 X149.825 Y40.951 E.14962
G1 X149.874 Y41.535 E.02021
G1 X152.905 Y44.565 E.14787
G1 X152.919 Y45.113 E.0189
G1 X149.924 Y42.118 E.14612
G1 X149.974 Y42.702 E.02021
G1 X152.883 Y45.61 E.14192
G1 X152.844 Y46.105 E.01714
G1 X150.024 Y43.285 E.13761
G1 X150.056 Y43.851 E.01953
G1 X152.806 Y46.601 E.1342
G1 X152.768 Y47.096 E.01714
G1 X150.041 Y44.369 E.13305
G1 X150.026 Y44.888 E.01791
G1 X152.729 Y47.591 E.1319
G1 X152.698 Y48.003 E.01426
G1 X152.684 Y48.079 E.00265
G1 X150.012 Y45.407 E.13039
G1 X149.997 Y45.925 E.01791
G1 X152.602 Y48.53 E.1271
G1 X152.519 Y48.981 E.01583
G1 X149.982 Y46.444 E.12381
G1 X149.926 Y46.922 E.0166
G1 X152.437 Y49.433 E.12251
G1 X152.355 Y49.884 E.01583
G1 X149.86 Y47.389 E.12176
G1 X149.793 Y47.855 E.01627
G1 X152.273 Y50.335 E.12101
G1 X152.19 Y50.786 E.01583
G1 X149.726 Y48.322 E.12027
G1 X149.659 Y48.788 E.01627
G1 X152.074 Y51.203 E.11785
G1 X151.954 Y51.617 E.01485
G1 X149.592 Y49.255 E.11524
G1 X149.493 Y49.69 E.01538
G1 X151.833 Y52.03 E.1142
G1 X151.713 Y52.443 E.01485
G1 X149.382 Y50.112 E.11374
G1 X149.271 Y50.535 E.01508
G1 X151.593 Y52.856 E.11328
G1 X151.472 Y53.27 E.01485
G1 X149.161 Y50.958 E.11281
G1 X149.05 Y51.381 E.01508
G1 X151.345 Y53.675 E.11199
G1 X151.191 Y54.055 E.01413
G1 X148.939 Y51.803 E.10987
G1 X148.821 Y52.218 E.01489
G1 X151.036 Y54.434 E.10812
G1 X150.882 Y54.813 E.01413
G1 X148.671 Y52.603 E.10787
G1 X148.522 Y52.987 E.01423
G1 X150.728 Y55.193 E.10763
G1 X150.574 Y55.572 E.01413
G1 X148.373 Y53.371 E.10738
G1 X148.224 Y53.756 E.01423
G1 X150.419 Y55.951 E.10713
G1 X150.295 Y56.256 E.01138
G1 X150.259 Y56.324 E.00265
G1 X148.075 Y54.14 E.10659
G1 X147.926 Y54.524 E.01423
G1 X150.074 Y56.672 E.10482
G1 X149.888 Y57.021 E.01361
G1 X147.766 Y54.898 E.10358
G1 X147.581 Y55.247 E.01363
G1 X149.703 Y57.369 E.10352
G1 X149.518 Y57.717 E.01361
G1 X147.397 Y55.597 E.10347
G1 X147.213 Y55.946 E.01363
G1 X149.332 Y58.065 E.10342
G1 X149.147 Y58.413 E.01361
G1 X147.029 Y56.295 E.10336
G1 X146.844 Y56.644 E.01363
G1 X148.961 Y58.761 E.10331
G1 X148.75 Y59.083 E.01329
G1 X146.66 Y56.993 E.10197
G1 X146.476 Y57.343 E.01363
G1 X148.535 Y59.402 E.10049
G1 X148.32 Y59.721 E.01326
G1 X146.264 Y57.665 E.10035
G1 X146.047 Y57.981 E.01324
G1 X148.106 Y60.04 E.10046
G1 X147.891 Y60.359 E.01326
G1 X145.83 Y58.298 E.10058
G1 X145.613 Y58.614 E.01324
G1 X147.677 Y60.678 E.1007
G1 X147.462 Y60.997 E.01326
G1 X145.396 Y58.931 E.10081
G1 X145.179 Y59.247 E.01324
G1 X147.236 Y61.304 E.10035
G1 X146.993 Y61.594 E.01307
G1 X144.962 Y59.564 E.0991
G1 X144.732 Y59.867 E.01314
G1 X146.75 Y61.885 E.09847
G1 X146.508 Y62.176 E.01307
G1 X144.484 Y60.153 E.09873
G1 X144.236 Y60.439 E.01305
G1 X146.265 Y62.467 E.09899
G1 X146.022 Y62.758 E.01307
G1 X143.989 Y60.724 E.09924
G1 X143.741 Y61.01 E.01305
G1 X145.78 Y63.049 E.0995
G1 X145.537 Y63.34 E.01307
G1 X143.493 Y61.295 E.09976
G1 X143.245 Y61.581 E.01305
G1 X145.271 Y63.608 E.0989
G1 X145.001 Y63.871 E.01302
G1 X142.997 Y61.867 E.09781
G1 X142.723 Y62.126 E.01302
G1 X144.731 Y64.134 E.09801
G1 X144.461 Y64.398 E.01302
G1 X142.444 Y62.381 E.09841
G1 X142.166 Y62.636 E.01303
G1 X144.191 Y64.661 E.09881
G1 X143.92 Y64.924 E.01302
G1 X141.888 Y62.891 E.09921
G1 X141.609 Y63.146 E.01303
G1 X143.65 Y65.188 E.0996
G1 X143.507 Y65.327 E.00689
G1 X143.368 Y65.438 E.00617
G1 X141.331 Y63.402 E.09939
G1 X141.052 Y63.657 E.01303
G1 X143.071 Y65.675 E.09848
G1 X142.774 Y65.912 E.0131
G1 X140.765 Y63.902 E.09805
G1 X140.455 Y64.127 E.01318
G1 X142.477 Y66.148 E.09864
G1 X142.18 Y66.385 E.0131
G1 X140.146 Y64.351 E.09923
G1 X139.837 Y64.576 E.01318
G1 X141.883 Y66.621 E.09983
G1 X141.586 Y66.858 E.0131
G1 X139.528 Y64.8 E.10042
G1 X139.219 Y65.024 E.01318
G1 X141.289 Y67.095 E.10102
G1 X141.182 Y67.18 E.00473
G1 X140.974 Y67.313 E.00852
G1 X138.91 Y65.249 E.1007
G1 X138.601 Y65.473 E.01318
G1 X140.648 Y67.52 E.09987
G1 X140.322 Y67.727 E.01334
G1 X138.265 Y65.671 E.10035
G1 X137.924 Y65.864 E.01351
G1 X139.995 Y67.935 E.10107
G1 X139.669 Y68.142 E.01334
G1 X137.583 Y66.056 E.1018
G1 X137.242 Y66.249 E.01351
G1 X139.343 Y68.35 E.10252
G1 X139.017 Y68.557 E.01334
G1 X136.901 Y66.441 E.10325
G1 X136.56 Y66.634 E.01351
G1 X138.685 Y68.759 E.10368
G1 X138.329 Y68.936 E.01372
G1 X136.219 Y66.826 E.10296
G1 X135.86 Y67 E.01378
G1 X137.974 Y69.114 E.10315
G1 X137.618 Y69.292 E.01372
G1 X135.485 Y67.159 E.10409
G1 X135.11 Y67.318 E.01405
G1 X137.262 Y69.47 E.10502
G1 X136.907 Y69.648 E.01372
G1 X134.735 Y67.476 E.10596
G1 X134.36 Y67.635 E.01405
G1 X136.551 Y69.825 E.10689
G1 X136.195 Y70.003 E.01372
G1 X133.986 Y67.794 E.10782
G1 X133.611 Y67.952 E.01405
G1 X135.809 Y70.15 E.10726
G1 X135.421 Y70.296 E.01429
G1 X133.213 Y68.088 E.10776
