; generated by PrusaSlicer 2.5.0+win64 on 2023-02-10 at 17:54:42 UTC

; 

; external perimeters extrusion width = 0.45mm
; perimeters extrusion width = 0.45mm
; infill extrusion width = 0.45mm
; solid infill extrusion width = 0.45mm
; top infill extrusion width = 0.40mm
; first layer extrusion width = 0.42mm

M73 P0 R38
M107
;TYPE:Custom
M862.3 P "MK2.5S" ; printer model check
M862.1 P0.4 ; nozzle diameter check
M115 U3.10.0 ; tell printer latest fw version
G90 ; use absolute coordinates
M83  ; extruder relative mode
M104 S230 ; set extruder temp
M140 S50 ; set bed temp
M190 S50 ; wait for bed temp
M109 S230 ; wait for extruder temp
G28 W ; home all without mesh bed level
G80 ; mesh bed leveling
G1 Y-3.0 F1000.0 ; go outside print area
G92 E0.0
G1 X60.0 E9.0 F1000.0 ; intro line
G1 X100.0 E12.5 F1000.0 ; intro line
G92 E0.0
G21 ; set units to millimeters
G90 ; use absolute coordinates
M83 ; use relative distances for extrusion
M900 K0
M107
;LAYER_CHANGE
;Z:0.2
;HEIGHT:0.2
;BEFORE_LAYER_CHANGE
G92 E0.0
;0.2


G1 E-1 F2100
G1 Z.2 F10800
;AFTER_LAYER_CHANGE
;0.2
G1 X95.282 Y32.728
G1 E1 F1500
M204 S1000
;TYPE:Skirt/Brim
;WIDTH:0.42
G1 F1200
G1 X95.892 Y30.954 E.0647
G1 X97.249 Y28.023 E.11141
G1 X98.901 Y25.247 E.11141
G1 X100.83 Y22.656 E.11141
G1 X103.015 Y20.277 E.11141
G1 X105.433 Y18.135 E.11141
G1 X108.058 Y16.253 E.11141
G1 X110.863 Y14.651 E.11141
G1 X113.818 Y13.346 E.11141
G1 X116.892 Y12.352 E.11141
G1 X120.051 Y11.679 E.11141
G1 X123.263 Y11.334 E.11141
G1 X125.076 Y11.284 E.06257
G1 X126.737 Y11.334 E.05732
G1 X129.949 Y11.679 E.11141
G1 X133.108 Y12.352 E.11141
G1 X136.182 Y13.346 E.11141
G1 X139.137 Y14.651 E.11141
G1 X141.942 Y16.253 E.11141
G1 X144.567 Y18.135 E.11141
G1 X146.985 Y20.277 E.11141
G1 X149.17 Y22.656 E.11141
G1 X151.099 Y25.247 E.11141
G1 X152.751 Y28.023 E.11141
G1 X154.016 Y30.727 E.10298
G1 X155.089 Y33.774 E.11141
G1 X155.844 Y36.915 E.11141
G1 X156.271 Y40.117 E.11141
G1 X156.367 Y43.346 E.11141
G1 X156.13 Y46.567 E.11141
G1 X155.563 Y49.747 E.11141
G1 X154.673 Y52.852 E.11141
G1 X153.467 Y55.849 E.11141
G1 X151.96 Y58.706 E.11141
G1 X150.168 Y61.393 E.11141
G1 X148.108 Y63.882 E.11141
G1 X145.825 Y66.125 E.11038
G1 X143.079 Y68.302 E.12086
G1 X140.347 Y70.025 E.11141
G1 X137.452 Y71.458 E.11141
G1 X134.425 Y72.585 E.11141
G1 X131.298 Y73.396 E.11141
G1 X128.104 Y73.88 E.11141
G1 X124.878 Y74.034 E.11141
G1 X121.652 Y73.855 E.11141
G1 X118.463 Y73.346 E.11141
G1 X115.575 Y72.585 E.10298
G1 X112.548 Y71.458 E.11141
G1 X109.653 Y70.025 E.11141
G1 X106.921 Y68.302 E.11141
G1 X104.38 Y66.307 E.11141
G1 X102.058 Y64.061 E.11141
G1 X99.832 Y61.393 E.11984
G1 X98.04 Y58.706 E.11141
G1 X96.533 Y55.849 E.11141
G1 X95.327 Y52.852 E.11141
G1 X94.437 Y49.747 E.11141
G1 X93.87 Y46.567 E.11141
G1 X93.633 Y43.346 E.11141
G1 X93.729 Y40.117 E.11141
G1 X94.156 Y36.915 E.11141
G1 X94.842 Y34.009 E.10298
G1 X95.263 Y32.785 E.04464
; printing object RubberSleeve.STL id:0 copy 0
G1 E-1 F2100
G1 X97.912 Y34.775 F10800
G1 E1 F1500
;TYPE:Perimeter
;WIDTH:0.419999
G1 F1200
G1 X98.867 Y32.032 E.10018
G1 X100.098 Y29.401 E.10018
G1 X101.593 Y26.911 E.10018
G1 X103.337 Y24.588 E.10018
G1 X105.31 Y22.456 E.10018
G1 X107.491 Y20.539 E.10018
G1 X109.859 Y18.856 E.10018
G1 X112.387 Y17.425 E.10018
G1 X115.048 Y16.262 E.10018
G1 X117.815 Y15.379 E.10018
G1 X120.658 Y14.784 E.10018
G1 X123.558 Y14.485 E.10053
G1 X125.01 Y14.448 E.05009
G1 X126.442 Y14.485 E.04942
G1 X129.342 Y14.784 E.10053
G1 X132.185 Y15.379 E.10018
G1 X134.952 Y16.262 E.10018
G1 X137.613 Y17.425 E.10018
G1 X140.141 Y18.856 E.10018
G1 X142.509 Y20.539 E.10018
G1 X144.69 Y22.456 E.10018
G1 X146.663 Y24.588 E.10018
G1 X148.407 Y26.911 E.10018
G1 X149.902 Y29.401 E.10018
G1 X151.133 Y32.032 E.10018
G1 X152.088 Y34.775 E.10018
G1 X152.755 Y37.602 E.10018
G1 X153.116 Y40.394 E.0971
G1 X153.203 Y43.387 E.10324
G1 X152.978 Y46.283 E.10018
G1 X152.458 Y49.14 E.10018
G1 X151.646 Y51.929 E.10018
G1 X150.552 Y54.62 E.10018
G1 X149.186 Y57.183 E.10018
G1 X147.565 Y59.593 E.10018
G1 X145.704 Y61.824 E.10018
G1 X143.638 Y63.838 E.09951
G1 X141.346 Y65.654 E.10085
G1 X138.896 Y67.213 E.10017
G1 X136.298 Y68.511 E.10018
G1 X133.58 Y69.536 E.10018
G1 X130.771 Y70.276 E.10018
G1 X127.901 Y70.723 E.10018
G1 X125 Y70.872 E.10018
G1 X122.099 Y70.723 E.10018
G1 X119.229 Y70.276 E.10018
G1 X116.42 Y69.536 E.10018
M73 P1 R38
G1 X113.702 Y68.511 E.10018
G1 X111.104 Y67.213 E.10018
G1 X108.653 Y65.654 E.10018
G1 X106.376 Y63.851 E.10018
G1 X104.296 Y61.824 E.10018
G1 X102.435 Y59.593 E.10018
G1 X100.814 Y57.183 E.10018
G1 X99.448 Y54.62 E.10018
G1 X98.354 Y51.929 E.10018
G1 X97.542 Y49.14 E.10018
G1 X97.022 Y46.283 E.10018
G1 X96.797 Y43.387 E.10018
G1 X96.872 Y40.483 E.10018
G1 X97.245 Y37.602 E.10018
G1 X97.899 Y34.834 E.09811
G1 X97.55 Y34.67 F10800
;TYPE:External perimeter
G1 F1200
G1 X98.517 Y31.89 E.10152
G1 X99.765 Y29.224 E.10152
G1 X101.28 Y26.7 E.10152
G1 X103.047 Y24.346 E.10152
G1 X105.046 Y22.186 E.10152
G1 X107.257 Y20.243 E.10152
G1 X109.656 Y18.537 E.10152
G1 X112.218 Y17.087 E.10152
G1 X114.915 Y15.909 E.10152
G1 X117.719 Y15.013 E.10152
G1 X120.6 Y14.411 E.10152
G1 X123.533 Y14.108 E.1017
G1 X125.01 Y14.071 E.05093
M73 P1 R37
G1 X126.467 Y14.108 E.05026
G1 X129.4 Y14.411 E.1017
G1 X132.281 Y15.013 E.10152
G1 X135.085 Y15.909 E.10152
G1 X137.782 Y17.087 E.10152
G1 X140.344 Y18.537 E.10152
G1 X142.743 Y20.243 E.10152
G1 X144.954 Y22.186 E.10152
G1 X146.953 Y24.346 E.10152
G1 X148.72 Y26.7 E.10152
G1 X150.235 Y29.224 E.10152
G1 X151.483 Y31.89 E.10152
G1 X152.45 Y34.67 E.10152
G1 X153.126 Y37.535 E.10152
G1 X153.49 Y40.346 E.09777
G1 X153.58 Y43.396 E.10525
G1 X153.353 Y46.331 E.10152
G1 X152.825 Y49.227 E.10152
G1 X152.002 Y52.053 E.10152
G1 X150.894 Y54.78 E.10152
G1 X149.51 Y57.378 E.10152
G1 X147.867 Y59.82 E.10152
G1 X145.981 Y62.08 E.10152
G1 X143.887 Y64.121 E.10085
G1 X141.565 Y65.961 E.10219
G1 X139.082 Y67.541 E.10152
G1 X136.449 Y68.857 E.10152
G1 X133.694 Y69.896 E.10152
G1 X130.848 Y70.645 E.10152
G1 X127.94 Y71.098 E.10152
G1 X125 Y71.25 E.10152
G1 X122.06 Y71.098 E.10152
G1 X119.152 Y70.645 E.10152
G1 X116.306 Y69.896 E.10152
G1 X113.551 Y68.857 E.10152
G1 X110.918 Y67.541 E.10152
G1 X108.435 Y65.961 E.10152
G1 X106.127 Y64.135 E.10152
G1 X104.019 Y62.08 E.10152
G1 X102.133 Y59.82 E.10152
G1 X100.49 Y57.378 E.10152
G1 X99.106 Y54.78 E.10152
G1 X97.998 Y52.053 E.10152
G1 X97.175 Y49.227 E.10152
G1 X96.647 Y46.331 E.10152
G1 X96.42 Y43.396 E.10152
G1 X96.496 Y40.454 E.10152
G1 X96.874 Y37.535 E.10152
G1 X97.536 Y34.728 E.09945
G1 X97.938 Y34.575 F10800
G1 E-1 F2100
G1 X101.031 Y36.353 F10800
G1 E1 F1500
;TYPE:Perimeter
G1 F1200
G1 X101.891 Y33.698 E.09626
G1 X103.065 Y31.117 E.09779
G1 X104.558 Y28.643 E.09965
G1 X106.289 Y26.404 E.09761
G1 X108.264 Y24.377 E.09761
G1 X110.457 Y22.588 E.09761
G1 X112.806 Y21.083 E.09624
G1 X115.321 Y19.842 E.09672
G1 X117.986 Y18.887 E.09764
G1 X120.742 Y18.242 E.09761
G1 X121.12 Y18.195 E.01314
G1 X123.55 Y17.916 E.08436
G1 X124.966 Y17.874 E.04888
G1 X126.402 Y17.913 E.04953
G1 X129.195 Y18.231 E.09696
G1 X131.952 Y18.869 E.09761
G1 X134.619 Y19.816 E.09761
G1 X137.16 Y21.062 E.09761
G1 X139.543 Y22.588 E.09761
G1 X140.339 Y23.235 E.03538
G1 X141.736 Y24.377 E.06223
G1 X143.711 Y26.404 E.09761
G1 X145.442 Y28.643 E.09761
G1 X146.907 Y31.065 E.09764
G1 X148.086 Y33.637 E.09757
G1 X148.964 Y36.328 E.09761
G1 X149.539 Y39.165 E.09983
G1 X149.775 Y41.92 E.09538
G1 X149.698 Y44.749 E.09761
G1 X149.299 Y47.551 E.09761
G1 X148.583 Y50.289 E.09761
G1 X147.56 Y52.928 E.09761
G1 X147.478 Y53.091 E.0063
G1 X146.242 Y55.434 E.09139
G1 X144.648 Y57.77 E.09754
G1 X142.798 Y59.912 E.09761
G1 X140.715 Y61.828 E.09761
G1 X138.373 Y63.529 E.09983
G1 X135.965 Y64.889 E.09538
G1 X133.36 Y65.994 E.09761
G1 X130.646 Y66.795 E.09761
G1 X127.858 Y67.281 E.09761
G1 X125.029 Y67.447 E.09772
G1 X122.207 Y67.289 E.0975
G1 X119.354 Y66.795 E.09983
G1 X116.64 Y65.994 E.09761
G1 X114.071 Y64.905 E.09624
G1 X111.627 Y63.53 E.09672
G1 X109.335 Y61.869 E.09764
G1 X107.247 Y59.958 E.09761
G1 X106.865 Y59.523 E.01998
G1 X105.391 Y57.822 E.07763
G1 X103.788 Y55.484 E.09775
G1 X102.467 Y52.986 E.09746
G1 X101.437 Y50.35 E.09761
G1 X100.701 Y47.551 E.09983
G1 X100.307 Y44.813 E.09538
G1 X100.223 Y41.985 E.09761
G1 X100.461 Y39.165 E.09761
G1 X101.015 Y36.411 E.09689
G1 X101.389 Y36.465 F10800
;TYPE:External perimeter
G1 F1200
G1 X102.249 Y33.814 E.09613
G1 X102.368 Y33.551 E.00995
G1 X103.407 Y31.277 E.08624
G1 X104.856 Y28.873 E.09681
G1 X106.545 Y26.683 E.09538
G1 X108.487 Y24.684 E.09613
G1 X110.643 Y22.918 E.09613
G1 X112.955 Y21.432 E.09479
G1 X115.488 Y20.18 E.09745
G1 X118.113 Y19.242 E.09614
G1 X120.827 Y18.609 E.09613
G1 X123.595 Y18.291 E.09609
G1 X124.976 Y18.251 E.04765
G1 X126.407 Y18.291 E.0494
G1 X129.173 Y18.609 E.09602
G1 X131.867 Y19.236 E.09538
G1 X134.492 Y20.171 E.09612
G1 X136.994 Y21.4 E.09613
G1 X139.339 Y22.906 E.09613
G1 X141.498 Y24.669 E.09613
G1 X141.976 Y25.16 E.02363
G1 X143.441 Y26.667 E.07249
G1 X145.145 Y28.875 E.09621
G1 X146.585 Y31.261 E.09613
G1 X147.743 Y33.794 E.09604
G1 X148.611 Y36.465 E.09687
G1 X149.163 Y39.197 E.09613
G1 X149.4 Y41.974 E.09613
G1 X149.321 Y44.738 E.09538
G1 X148.926 Y47.497 E.09613
M73 P2 R37
G1 X148.219 Y50.193 E.09613
G1 X148.061 Y50.601 E.01508
G1 X147.208 Y52.793 E.08114
G1 X145.898 Y55.275 E.09677
G1 X144.337 Y57.558 E.09538
G1 X142.513 Y59.665 E.09613
G1 X140.46 Y61.55 E.09613
G1 X138.206 Y63.189 E.09613
G1 X135.78 Y64.561 E.09613
G1 X133.213 Y65.647 E.09613
G1 X130.539 Y66.433 E.09613
G1 X130.06 Y66.518 E.01679
G1 X127.79 Y66.91 E.07945
G1 X124.989 Y67.07 E.09676
G1 X122.228 Y66.912 E.09538
G1 X119.482 Y66.438 E.09613
G1 X116.807 Y65.654 E.09613
G1 X114.275 Y64.586 E.09479
G1 X111.794 Y63.189 E.0982
G1 X109.556 Y61.564 E.09538
G1 X107.502 Y59.68 E.09613
G1 X105.676 Y57.575 E.09613
G1 X104.101 Y55.274 E.09617
G1 X102.8 Y52.81 E.09608
G1 X101.788 Y50.214 E.09613
G1 X101.074 Y47.497 E.09687
G1 X100.68 Y44.76 E.09538
G1 X100.6 Y41.974 E.09613
G1 X100.837 Y39.197 E.09613
G1 X101.377 Y36.524 E.09406
G1 X101.105 Y36.184 F10800
G1 E-1 F2100
G1 X148.37 Y27.07 F10800
G1 E1 F1500
;TYPE:Solid infill
;WIDTH:0.420172
G1 F1200
G1 X141.393 Y20.092 E.34048
G1 X139.989 Y19.095 E.05942
G1 X139.695 Y18.928 E.01167
G1 X148.677 Y27.91 E.43829
G1 X149.478 Y29.245 E.05375
G1 X138.466 Y18.232 E.5374
G1 X137.487 Y17.678 E.03881
G1 X137.294 Y17.594 E.00727
G1 X150.02 Y30.32 E.62101
G1 X150.489 Y31.323 E.03821
G1 X136.346 Y17.18 E.69016
G1 X135.398 Y16.766 E.03569
G1 X150.924 Y32.291 E.75763
G1 X151.209 Y33.11 E.02989
G1 X134.52 Y16.421 E.81437
G1 X133.736 Y16.171 E.02839
G1 X151.493 Y33.928 E.8665
G1 X151.778 Y34.746 E.02989
G1 X145.922 Y28.89 E.28576
G1 X146.739 Y30.24 E.05444
G1 X151.959 Y35.46 E.25473
G1 X152.123 Y36.158 E.02476
G1 X147.377 Y31.412 E.23161
G1 X147.828 Y32.397 E.03738
G1 X152.288 Y36.857 E.21763
G1 X152.453 Y37.555 E.02476
G1 X148.28 Y33.382 E.20364
G1 X148.345 Y33.525 E.00543
G1 X148.565 Y34.2 E.02451
G1 X152.544 Y38.18 E.19419
G1 X152.624 Y38.793 E.02132
G1 X148.822 Y34.991 E.18553
G1 X149.078 Y35.781 E.02867
G1 X152.703 Y39.405 E.17687
G1 X152.782 Y40.018 E.02132
G1 X149.298 Y36.534 E.17004
G1 X149.433 Y37.202 E.02353
G1 X152.848 Y40.618 E.16667
G1 X152.862 Y41.165 E.0189
G1 X149.568 Y37.871 E.16077
G1 X149.703 Y38.539 E.02353
G1 X152.877 Y41.713 E.15487
G1 X152.891 Y42.261 E.0189
G1 X149.825 Y39.194 E.14962
G1 X149.874 Y39.778 E.02021
G1 X152.905 Y42.808 E.14787
G1 X152.919 Y43.356 E.0189
G1 X149.924 Y40.361 E.14612
G1 X149.974 Y40.945 E.02021
G1 X152.883 Y43.853 E.14192
G1 X152.844 Y44.348 E.01714
G1 X150.024 Y41.528 E.13761
G1 X150.056 Y42.094 E.01953
G1 X152.806 Y44.844 E.1342
G1 X152.768 Y45.339 E.01714
G1 X150.041 Y42.612 E.13305
G1 X150.026 Y43.131 E.01791
G1 X152.729 Y45.834 E.1319
G1 X152.698 Y46.246 E.01426
G1 X152.684 Y46.322 E.00265
G1 X150.012 Y43.65 E.13039
G1 X149.997 Y44.169 E.01791
G1 X152.602 Y46.773 E.1271
G1 X152.519 Y47.224 E.01583
G1 X149.982 Y44.687 E.12381
G1 X149.926 Y45.165 E.0166
G1 X152.437 Y47.676 E.12251
G1 X152.355 Y48.127 E.01583
G1 X149.86 Y45.632 E.12176
G1 X149.793 Y46.098 E.01627
G1 X152.273 Y48.578 E.12101
G1 X152.19 Y49.03 E.01583
G1 X149.726 Y46.565 E.12027
G1 X149.659 Y47.032 E.01627
G1 X152.074 Y49.447 E.11785
G1 X151.954 Y49.86 E.01485
G1 X149.592 Y47.498 E.11524
G1 X149.493 Y47.933 E.01538
G1 X151.833 Y50.273 E.1142
G1 X151.713 Y50.686 E.01485
G1 X149.382 Y48.355 E.11374
G1 X149.271 Y48.778 E.01508
G1 X151.593 Y51.099 E.11328
G1 X151.472 Y51.513 E.01485
G1 X149.161 Y49.201 E.11281
G1 X149.05 Y49.624 E.01508
G1 X151.345 Y51.919 E.11199
G1 X151.191 Y52.298 E.01413
G1 X148.939 Y50.046 E.10987
G1 X148.821 Y50.461 E.01489
G1 X151.036 Y52.677 E.10812
G1 X150.882 Y53.056 E.01413
G1 X148.671 Y50.846 E.10787
G1 X148.522 Y51.23 E.01423
G1 X150.728 Y53.436 E.10763
G1 X150.574 Y53.815 E.01413
G1 X148.373 Y51.614 E.10738
G1 X148.224 Y51.999 E.01423
G1 X150.419 Y54.194 E.10713
G1 X150.295 Y54.5 E.01138
G1 X150.259 Y54.567 E.00265
G1 X148.075 Y52.383 E.10659
G1 X147.926 Y52.767 E.01423
G1 X150.074 Y54.916 E.10482
G1 X149.888 Y55.264 E.01361
G1 X147.766 Y53.141 E.10358
G1 X147.581 Y53.49 E.01363
G1 X149.703 Y55.612 E.10352
G1 X149.518 Y55.96 E.01361
G1 X147.397 Y53.84 E.10347
G1 X147.213 Y54.189 E.01363
M73 P3 R37
G1 X149.332 Y56.308 E.10342
G1 X149.147 Y56.656 E.01361
G1 X147.029 Y54.538 E.10336
G1 X146.844 Y54.887 E.01363
G1 X148.961 Y57.004 E.10331
G1 X148.75 Y57.326 E.01329
G1 X146.66 Y55.237 E.10197
G1 X146.476 Y55.586 E.01363
G1 X148.535 Y57.645 E.10049
G1 X148.32 Y57.964 E.01326
G1 X146.264 Y55.908 E.10035
G1 X146.047 Y56.224 E.01324
G1 X148.106 Y58.283 E.10046
G1 X147.891 Y58.602 E.01326
G1 X145.83 Y56.541 E.10058
G1 X145.613 Y56.857 E.01324
G1 X147.677 Y58.921 E.1007
G1 X147.462 Y59.24 E.01326
G1 X145.396 Y57.174 E.10081
G1 X145.179 Y57.49 E.01324
G1 X147.236 Y59.547 E.10035
G1 X146.993 Y59.838 E.01307
G1 X144.962 Y57.807 E.0991
G1 X144.732 Y58.11 E.01314
G1 X146.75 Y60.128 E.09847
G1 X146.508 Y60.419 E.01307
G1 X144.484 Y58.396 E.09873
G1 X144.236 Y58.682 E.01305
G1 X146.265 Y60.71 E.09899
G1 X146.022 Y61.001 E.01307
G1 X143.989 Y58.967 E.09924
G1 X143.741 Y59.253 E.01305
G1 X145.78 Y61.292 E.0995
G1 X145.537 Y61.583 E.01307
G1 X143.493 Y59.538 E.09976
G1 X143.245 Y59.824 E.01305
G1 X145.271 Y61.851 E.0989
G1 X145.001 Y62.114 E.01302
G1 X142.997 Y60.11 E.09781
G1 X142.723 Y60.369 E.01302
G1 X144.731 Y62.377 E.09801
G1 X144.461 Y62.641 E.01302
G1 X142.444 Y60.624 E.09841
G1 X142.166 Y60.879 E.01303
G1 X144.191 Y62.904 E.09881
G1 X143.92 Y63.167 E.01302
G1 X141.888 Y61.134 E.09921
G1 X141.609 Y61.389 E.01303
G1 X143.65 Y63.431 E.0996
G1 X143.507 Y63.57 E.00689
G1 X143.368 Y63.681 E.00617
G1 X141.331 Y61.645 E.09939
G1 X141.052 Y61.9 E.01303
G1 X143.071 Y63.918 E.09848
G1 X142.774 Y64.155 E.0131
G1 X140.765 Y62.145 E.09805
G1 X140.455 Y62.37 E.01318
G1 X142.477 Y64.391 E.09864
G1 X142.18 Y64.628 E.0131
G1 X140.146 Y62.594 E.09923
G1 X139.837 Y62.819 E.01318
G1 X141.883 Y64.864 E.09983
G1 X141.586 Y65.101 E.0131
G1 X139.528 Y63.043 E.10042
G1 X139.219 Y63.268 E.01318
G1 X141.289 Y65.338 E.10102
G1 X141.182 Y65.423 E.00473
G1 X140.974 Y65.556 E.00852
G1 X138.91 Y63.492 E.1007
G1 X138.601 Y63.716 E.01318
G1 X140.648 Y65.763 E.09987
G1 X140.322 Y65.971 E.01334
G1 X138.265 Y63.914 E.10035
G1 X137.924 Y64.107 E.01351
G1 X139.995 Y66.178 E.10107
G1 X139.669 Y66.385 E.01334
G1 X137.583 Y64.299 E.1018
G1 X137.242 Y64.492 E.01351
G1 X139.343 Y66.593 E.10252
G1 X139.017 Y66.8 E.01334
G1 X136.901 Y64.684 E.10325
G1 X136.56 Y64.877 E.01351
G1 X138.685 Y67.002 E.10368
G1 X138.329 Y67.179 E.01372
G1 X136.219 Y65.069 E.10296
G1 X135.86 Y65.243 E.01378
G1 X137.974 Y67.357 E.10315
G1 X137.618 Y67.535 E.01372
G1 X135.485 Y65.402 E.10409
G1 X135.11 Y65.561 E.01405
G1 X137.262 Y67.713 E.10502
G1 X136.907 Y67.891 E.01372
G1 X134.735 Y65.719 E.10596
G1 X134.36 Y65.878 E.01405
G1 X136.551 Y68.068 E.10689
G1 X136.195 Y68.246 E.01372
G1 X133.986 Y66.037 E.10782
G1 X133.611 Y66.195 E.01405
G1 X135.809 Y68.393 E.10726
G1 X135.421 Y68.539 E.01429
