; generated by PrusaSlicer 2.5.0+win64 on 2023-03-09 at 11:30:49 UTC

; 

; external perimeters extrusion width = 0.45mm
; perimeters extrusion width = 0.45mm
; infill extrusion width = 0.45mm
; solid infill extrusion width = 0.45mm
; top infill extrusion width = 0.40mm
; first layer extrusion width = 0.42mm

M73 P0 R2
M107
;TYPE:Custom
M862.3 P "MK2.5S" ; printer model check
M862.1 P0.4 ; nozzle diameter check
M115 U3.10.0 ; tell printer latest fw version
G90 ; use absolute coordinates
M83  ; extruder relative mode
M104 S240 ; set extruder temp
M140 S95 ; set bed temp
M190 S95 ; wait for bed temp
M109 S240 ; wait for extruder temp
G28 W ; home all without mesh bed level
G80 ; mesh bed leveling
G1 Y-3.0 F1000.0 ; go outside print area
G92 E0.0
G1 X60.0 E9.0 F1000.0 ; intro line
G1 X100.0 E12.5 F1000.0 ; intro line
G92 E0.0
G21 ; set units to millimeters
G90 ; use absolute coordinates
M83 ; use relative distances for extrusion
M900 K0.08 ; Filament gcode LA 1.5
M900 K45 ; Filament gcode LA 1.0
M107
;LAYER_CHANGE
;Z:0.25
;HEIGHT:0.25
;BEFORE_LAYER_CHANGE
G92 E0.0
;0.25


M73 P2 R2
G1 E-1.4 F2100
M73 P4 R2
G1 Z.2 F10800
G1 Z.25
;AFTER_LAYER_CHANGE
;0.25
G1 Z.45
G1 X62.987 Y84.96
G1 Z.25
M73 P5 R2
G1 E1.4 F2100
M204 S1000
;TYPE:Skirt/Brim
;WIDTH:0.42
G1 F600
G1 X64.42 Y84.609 E.05617
G1 X65.92 Y84.609 E.05712
G1 X67.431 Y85.003 E.05947
G1 X68.559 Y86.084 E.05947
G1 X69.011 Y87.488 E.05617
G1 X70.011 Y101.488 E.53444
G1 X70.019 Y102.708 E.04649
M73 P6 R2
G1 X69.625 Y104.22 E.05947
G1 X68.545 Y105.347 E.05947
M73 P7 R2
G1 X66.92 Y105.808 E.0643
G1 X63.42 Y105.808 E.13327
G1 X61.908 Y105.414 E.05947
G1 X60.781 Y104.333 E.05947
G1 X60.321 Y102.708 E.0643
G1 X60.329 Y101.488 E.04649
G1 X61.329 Y87.488 E.53444
G1 X61.829 Y86.008 E.05947
M73 P8 R2
G1 X62.943 Y85.001 E.05719
M73 P9 R2
G1 X63.195 Y85.309 F10800
G1 F600
G1 X63.32 Y85.207 E.00617
G1 X64.42 Y84.976 E.04277
G1 X65.92 Y84.976 E.05712
G1 X67.331 Y85.368 E.05578
G1 X68.337 Y86.434 E.05578
G1 X68.646 Y87.514 E.04277
G1 X69.646 Y101.514 E.53444
G1 X69.652 Y102.708 E.04549
M73 P10 R2
G1 X69.26 Y104.12 E.05578
G1 X68.195 Y105.126 E.05578
G1 X66.92 Y105.441 E.05001
M73 P11 R2
G1 X63.42 Y105.441 E.13327
G1 X62.008 Y105.048 E.05578
G1 X61.003 Y103.983 E.05578
M73 P11 R1
G1 X60.687 Y102.708 E.05001
G1 X60.694 Y101.514 E.04549
G1 X61.694 Y87.514 E.53444
G1 X62.186 Y86.134 E.05578
M73 P12 R1
G1 X63.148 Y85.347 E.04733
G1 X63.378 Y85.666 F10800
M73 P13 R1
G1 F600
G1 X63.647 Y85.472 E.01265
G1 X64.42 Y85.342 E.02982
G1 X65.92 Y85.342 E.05712
G1 X67.224 Y85.734 E.05183
G1 X68.096 Y86.779 E.05183
G1 X68.28 Y87.54 E.02982
G1 X69.28 Y101.54 E.53444
G1 X69.286 Y102.708 E.0445
M73 P14 R1
G1 X68.895 Y104.012 E.05183
G1 X67.85 Y104.885 E.05183
G1 X66.92 Y105.075 E.03614
G1 X63.42 Y105.075 E.13327
G1 X62.116 Y104.683 E.05183
M73 P15 R1
G1 X61.244 Y103.638 E.05183
G1 X61.053 Y102.708 E.03614
G1 X61.059 Y101.54 E.0445
G1 X62.059 Y87.54 E.53444
G1 X62.543 Y86.267 E.05183
M73 P16 R1
G1 X63.329 Y85.701 E.0369
; printing object endstop-insert.STL id:0 copy 0
;WIPE_START
G1 F8640
G1 X63.647 Y85.472 E-.09055
G1 X64.42 Y85.342 E-.18083
G1 X65.92 Y85.342 E-.34635
G1 X67.224 Y85.734 E-.31432
G1 X68.096 Y86.779 E-.31432
G1 X68.181 Y87.131 E-.08362
;WIPE_END
G1 E-.07 F2100
G1 Z.45 F10800
G1 X64.83 Y88.118
G1 Z.25
M73 P17 R1
G1 E1.4 F2100
;TYPE:External perimeter
;WIDTH:0.419999
G1 F600
G1 X65.51 Y88.118 E.0259
G1 X65.515 Y100.719 E.47979
G1 X65.542 Y101.229 E.01947
M73 P18 R1
G1 X65.635 Y101.941 E.02735
;WIDTH:0.41969
G1 X65.776 Y102.022 E.00617
G1 X66.539 Y102.036 E.02904
;WIDTH:0.409573
G1 X66.539 Y102.161 E.00459
G1 X66.539 Y102.368 E.00767
G1 X66.369 Y102.376 E.00628
;WIDTH:0.414269
G1 X65.75 Y102.382 E.02323
;WIDTH:0.419999
G1 X65.18 Y102.361 E.02169
G1 X64.555 Y102.38 E.02382
;WIDTH:0.419118
G1 X63.805 Y102.376 E.02848
G1 X63.805 Y102.041 E.01275
G1 X64.551 Y102.021 E.02833
;WIDTH:0.419999
G1 X64.733 Y101.861 E.00925
G1 X64.798 Y101.226 E.02429
G1 X64.829 Y100.209 E.03876
G1 X64.83 Y88.178 E.45809
G1 X65.176 Y88.319 F10800
M73 P19 R1
G1 X65.17 Y88.459
;TYPE:Perimeter
;WIDTH:0.372452
G1 F600
G1 X65.172 Y100.209 E.38935
;WIDTH:0.387722
G1 X65.165 Y100.709 E.01738
;WIDTH:0.429638
M73 P20 R1
G1 X65.17 Y101.227 E.02024
;WIDTH:0.474882
G1 X65.17 Y101.453 E.0099
;WIDTH:0.520126
G1 X65.17 Y101.679 E.01096
;WIDTH:0.56537
G1 X65.17 Y101.906 E.01203
;WIDTH:0.568764
G1 X65.17 Y101.921 E.0008
; stop printing object endstop-insert.STL id:0 copy 0
;LAYER_CHANGE
;Z:0.45
;HEIGHT:0.2
;BEFORE_LAYER_CHANGE
G92 E0.0
;0.45


;WIPE_START
G1 F8640
G1 X65.17 Y101.906 E-.00344
G1 X65.17 Y101.679 E-.05222
G1 X65.17 Y101.453 E-.05222
G1 X65.17 Y101.227 E-.05222
G1 X65.165 Y100.709 E-.11956
G1 X65.172 Y100.209 E-.11559
G1 X65.171 Y96.161 E-.93476
;WIPE_END
G1 E-.07 F2100
G1 Z.45 F10800
;AFTER_LAYER_CHANGE
;0.45
M104 S235 ; set temperature
M140 S90 ; set bed temperature
G1 Z.65
G1 X69.608 Y95.844
G1 Z.45
G1 E1.4 F2100
;TYPE:Skirt/Brim
;WIDTH:0.42
G1 F908
G1 X70.011 Y101.488 E.17741
G1 X70.019 Y102.708 E.03828
M73 P21 R1
G1 X69.625 Y104.22 E.04897
G1 X68.545 Y105.347 E.04897
G1 X66.92 Y105.808 E.05295
G1 X63.42 Y105.808 E.10974
G1 X61.908 Y105.414 E.04897
G1 X60.781 Y104.333 E.04897
G1 X60.321 Y102.708 E.05295
G1 X60.329 Y101.488 E.03828
G1 X61.329 Y87.488 E.44008
G1 X61.829 Y86.008 E.04897
M73 P22 R1
G1 X62.987 Y84.96 E.04897
G1 X64.42 Y84.609 E.04625
G1 X65.92 Y84.609 E.04703
G1 X67.431 Y85.003 E.04897
G1 X68.559 Y86.084 E.04897
M73 P23 R1
G1 X69.011 Y87.488 E.04625
G1 X69.604 Y95.784 E.26078
G1 X69.238 Y95.81 F10800
G1 F908
G1 X69.646 Y101.514 E.17929
G1 X69.652 Y102.708 E.03746
G1 X69.26 Y104.12 E.04593
G1 X68.195 Y105.126 E.04593
M73 P24 R1
G1 X66.92 Y105.441 E.04118
G1 X63.42 Y105.441 E.10974
G1 X62.008 Y105.048 E.04593
G1 X61.003 Y103.983 E.04593
G1 X60.687 Y102.708 E.04118
G1 X60.694 Y101.514 E.03746
G1 X61.694 Y87.514 E.44008
G1 X62.186 Y86.134 E.04593
M73 P25 R1
G1 X63.32 Y85.207 E.04593
G1 X64.42 Y84.976 E.03522
G1 X65.92 Y84.976 E.04703
G1 X67.331 Y85.368 E.04593
G1 X68.337 Y86.434 E.04593
G1 X68.646 Y87.514 E.03522
G1 X69.234 Y95.75 E.2589
G1 X68.868 Y95.776 F10800
M73 P26 R1
G1 F908
G1 X69.28 Y101.54 E.18118
G1 X69.286 Y102.708 E.03664
G1 X68.895 Y104.012 E.04268
G1 X67.85 Y104.885 E.04268
G1 X66.92 Y105.075 E.02976
G1 X63.42 Y105.075 E.10974
G1 X62.116 Y104.683 E.04268
G1 X61.244 Y103.638 E.04268
G1 X61.053 Y102.708 E.02976
G1 X61.059 Y101.54 E.03664
M73 P27 R1
G1 X62.059 Y87.54 E.44008
G1 X62.543 Y86.267 E.04268
G1 X63.647 Y85.472 E.04268
G1 X64.42 Y85.342 E.02455
G1 X65.92 Y85.342 E.04703
G1 X67.224 Y85.734 E.04268
M73 P28 R1
G1 X68.096 Y86.779 E.04268
G1 X68.28 Y87.54 E.02455
G1 X68.864 Y95.716 E.25702
; printing object endstop-insert.STL id:0 copy 0
;WIPE_START
G1 F8640
G1 X69.275 Y101.462 E-1.33
;WIPE_END
G1 E-.07 F2100
G1 Z.65 F10800
G1 X65.628 Y102.106
G1 Z.45
G1 E1.4 F2100
M204 S800
;TYPE:Perimeter
;WIDTH:0.391667
G1 F908
G1 X64.759 Y102.106 E.02521
G1 X65.002 Y101.885 E.00952
G1 X65.009 Y101.73 E.00449
;WIDTH:0.364381
G1 X65.009 Y88.298 E.35904
G1 X65.331 Y88.298 E.00859
M73 P29 R1
G1 X65.331 Y101.73 E.35904
;WIDTH:0.391667
G1 X65.338 Y101.885 E.00449
M73 P30 R1
G1 X65.58 Y102.069 E.00883
M204 S1000
G1 X65.898 Y101.969 F10800
M204 S800
;TYPE:External perimeter
;WIDTH:0.52146
G1 F908
G1 X66.659 Y101.969 E.03027
G1 X66.659 Y102.208 E.00952
G1 X66.659 Y102.448 E.00952
G1 X65.534 Y102.466 E.04477
;WIDTH:0.48573
G1 X65.17 Y102.483 E.01343
G1 X64.806 Y102.466 E.01343
;WIDTH:0.52146
G1 X63.681 Y102.448 E.04477
G1 X63.681 Y101.969 E.01904
G1 X63.92 Y101.969 E.00952
;WIDTH:0.525086
G1 X64.483 Y101.967 E.02258
G1 X64.564 Y101.849 E.00576
;WIDTH:0.487543
G1 X64.645 Y101.73 E.00531
;WIDTH:0.449999
G1 X64.645 Y87.933 E.46699
G1 X65.695 Y87.933 E.03554
M73 P31 R1
G1 X65.696 Y101.748 E.46759
;WIDTH:0.48573
G1 X65.797 Y101.858 E.00553
;WIDTH:0.52146
M73 P32 R1
G1 X65.858 Y101.925 E.00359
M204 S1000
; stop printing object endstop-insert.STL id:0 copy 0
;LAYER_CHANGE
;Z:0.65
;HEIGHT:0.2
;BEFORE_LAYER_CHANGE
G92 E0.0
;0.65


;WIPE_START
G1 F8640
G1 X66.659 Y101.969 E-.18529
G1 X66.659 Y102.208 E-.05525
G1 X66.659 Y102.448 E-.05525
G1 X65.534 Y102.466 E-.2598
G1 X65.17 Y102.483 E-.08421
G1 X64.806 Y102.466 E-.08421
G1 X63.681 Y102.448 E-.2598
G1 X63.681 Y101.969 E-.1105
G1 X63.92 Y101.969 E-.05525
G1 X64.483 Y101.967 E-.13003
G1 X64.564 Y101.849 E-.03318
G1 X64.606 Y101.787 E-.01724
;WIPE_END
G1 E-.07 F2100
G1 Z.65 F10800
;AFTER_LAYER_CHANGE
;0.65
G1 Z.85
G1 X64.606 Y105.808
G1 Z.65
G1 E1.4 F2100
;TYPE:Skirt/Brim
;WIDTH:0.42
G1 F908
G1 X63.42 Y105.808 E.03719
G1 X61.908 Y105.414 E.04897
G1 X60.781 Y104.333 E.04897
G1 X60.321 Y102.708 E.05295
G1 X60.329 Y101.488 E.03828
G1 X61.329 Y87.488 E.44008
G1 X61.829 Y86.008 E.04897
M73 P33 R1
G1 X62.987 Y84.96 E.04897
G1 X64.42 Y84.609 E.04625
G1 X65.92 Y84.609 E.04703
G1 X67.431 Y85.003 E.04897
G1 X68.559 Y86.084 E.04897
G1 X69.011 Y87.488 E.04625
G1 X70.011 Y101.488 E.44008
M73 P34 R1
G1 X70.019 Y102.708 E.03828
G1 X69.625 Y104.22 E.04897
G1 X68.545 Y105.347 E.04897
G1 X66.92 Y105.808 E.05295
G1 X64.666 Y105.808 E.07067
M73 P35 R1
G1 X64.666 Y105.441 F10800
G1 F908
G1 X63.42 Y105.441 E.03907
G1 X62.008 Y105.048 E.04593
G1 X61.003 Y103.983 E.04593
G1 X60.687 Y102.708 E.04118
G1 X60.694 Y101.514 E.03746
G1 X61.694 Y87.514 E.44008
G1 X62.186 Y86.134 E.04593
M73 P36 R1
G1 X63.32 Y85.207 E.04593
G1 X64.42 Y84.976 E.03522
G1 X65.92 Y84.976 E.04703
G1 X67.331 Y85.368 E.04593
G1 X68.337 Y86.434 E.04593
G1 X68.646 Y87.514 E.03522
G1 X69.646 Y101.514 E.44008
G1 X69.652 Y102.708 E.03746
M73 P37 R1
G1 X69.26 Y104.12 E.04593
G1 X68.195 Y105.126 E.04593
G1 X66.92 Y105.441 E.04118
G1 X64.726 Y105.441 E.06879
G1 X64.726 Y105.075 F10800
G1 F908
G1 X63.42 Y105.075 E.04095
G1 X62.116 Y104.683 E.04268
G1 X61.244 Y103.638 E.04268
G1 X61.053 Y102.708 E.02976
G1 X61.059 Y101.54 E.03664
G1 X62.059 Y87.54 E.44008
M73 P38 R1
G1 X62.543 Y86.267 E.04268
G1 X63.647 Y85.472 E.04268
G1 X64.42 Y85.342 E.02455
G1 X65.92 Y85.342 E.04703
G1 X67.224 Y85.734 E.04268
G1 X68.096 Y86.779 E.04268
G1 X68.28 Y87.54 E.02455
M73 P39 R1
G1 X69.28 Y101.54 E.44008
G1 X69.286 Y102.708 E.03664
G1 X68.895 Y104.012 E.04268
G1 X67.85 Y104.885 E.04268
G1 X66.92 Y105.075 E.02976
G1 X64.786 Y105.075 E.06691
; printing object endstop-insert.STL id:0 copy 0
;WIPE_START
M73 P40 R1
G1 F8640
G1 X63.42 Y105.075 E-.31544
G1 X62.116 Y104.683 E-.31432
G1 X61.244 Y103.638 E-.31432
G1 X61.053 Y102.708 E-.21913
G1 X61.057 Y101.986 E-.16678
;WIPE_END
G1 E-.07 F2100
G1 Z.85 F10800
G1 X65.628 Y102.106
G1 Z.65
G1 E1.4 F2100
M204 S800
;TYPE:Perimeter
;WIDTH:0.391667
G1 F908
G1 X64.759 Y102.106 E.02521
G1 X65.002 Y101.885 E.00952
G1 X65.009 Y101.73 E.00449
;WIDTH:0.364381
G1 X65.009 Y88.298 E.35904
G1 X65.331 Y88.298 E.00859
M73 P41 R1
G1 X65.331 Y101.73 E.35904
;WIDTH:0.391667
G1 X65.338 Y101.885 E.00449
G1 X65.58 Y102.069 E.00883
M204 S1000
G1 X65.797 Y101.858 F10800
M204 S800
;TYPE:External perimeter
;WIDTH:0.52146
G1 F908
G1 X65.898 Y101.969 E.00597
G1 X66.659 Y101.969 E.03027
G1 X66.659 Y102.208 E.00952
G1 X66.659 Y102.448 E.00952
G1 X65.534 Y102.466 E.04477
;WIDTH:0.48573
G1 X65.17 Y102.483 E.01343
M73 P42 R1
G1 X64.806 Y102.466 E.01343
;WIDTH:0.52146
G1 X63.681 Y102.448 E.04477
G1 X63.681 Y101.969 E.01904
G1 X63.92 Y101.969 E.00952
;WIDTH:0.525086
G1 X64.483 Y101.967 E.02258
G1 X64.564 Y101.849 E.00576
;WIDTH:0.487543
G1 X64.645 Y101.73 E.00531
;WIDTH:0.449999
G1 X64.645 Y87.933 E.46699
G1 X65.695 Y87.933 E.03554
G1 X65.696 Y101.748 E.46759
;WIDTH:0.48573
G1 X65.756 Y101.814 E.00332
M204 S1000
; stop printing object endstop-insert.STL id:0 copy 0
M106 S127.5
;LAYER_CHANGE
;Z:0.85
;HEIGHT:0.2
;BEFORE_LAYER_CHANGE
G92 E0.0
;0.85


;WIPE_START
M73 P43 R1
G1 F8640
G1 X65.898 Y101.969 E-.04853
G1 X66.659 Y101.969 E-.17565
G1 X66.659 Y102.208 E-.05525
G1 X66.659 Y102.448 E-.05525
G1 X65.534 Y102.466 E-.2598
G1 X65.17 Y102.483 E-.08421
G1 X64.806 Y102.466 E-.08421
G1 X63.681 Y102.448 E-.2598
G1 X63.681 Y101.969 E-.1105
G1 X63.92 Y101.969 E-.05525
G1 X64.483 Y101.967 E-.13003
G1 X64.511 Y101.926 E-.01153
;WIPE_END
G1 E-.07 F2100
G1 Z.85 F10800
;AFTER_LAYER_CHANGE
;0.85
; printing object endstop-insert.STL id:0 copy 0
G1 Z1.05
G1 X65.628 Y102.106
G1 Z.85
G1 E1.4 F2100
M204 S800
;TYPE:Perimeter
;WIDTH:0.391667
G1 F900
G1 X64.759 Y102.106 E.02521
G1 X65.002 Y101.885 E.00952
M73 P44 R1
G1 X65.009 Y101.73 E.00449
;WIDTH:0.364381
G1 X65.009 Y88.298 E.35904
G1 X65.331 Y88.298 E.00859
G1 X65.331 Y101.73 E.35904
;WIDTH:0.391667
G1 X65.338 Y101.885 E.00449
M73 P45 R1
G1 X65.58 Y102.069 E.00883
M204 S1000
G1 X65.898 Y101.969 F10800
M204 S800
;TYPE:External perimeter
;WIDTH:0.52146
G1 F900
G1 X66.659 Y101.969 E.03027
G1 X66.659 Y102.208 E.00952
G1 X66.659 Y102.448 E.00952
G1 X65.534 Y102.466 E.04477
;WIDTH:0.48573
G1 X65.17 Y102.483 E.01343
G1 X64.806 Y102.466 E.01343
;WIDTH:0.52146
G1 X63.681 Y102.448 E.04477
G1 X63.681 Y101.969 E.01904
G1 X63.92 Y101.969 E.00952
;WIDTH:0.525086
G1 X64.483 Y101.967 E.02258
G1 X64.564 Y101.849 E.00576
;WIDTH:0.487543
G1 X64.645 Y101.73 E.00531
;WIDTH:0.449999
G1 X64.645 Y87.933 E.46699
G1 X65.695 Y87.933 E.03554
M73 P46 R1
G1 X65.696 Y101.748 E.46759
;WIDTH:0.48573
G1 X65.797 Y101.858 E.00553
;WIDTH:0.52146
M73 P47 R1
G1 X65.858 Y101.925 E.00359
M204 S1000
; stop printing object endstop-insert.STL id:0 copy 0
;LAYER_CHANGE
;Z:1.05
;HEIGHT:0.2
;BEFORE_LAYER_CHANGE
G92 E0.0
;1.05


;WIPE_START
G1 F8640
G1 X66.659 Y101.969 E-.18529
G1 X66.659 Y102.208 E-.05525
G1 X66.659 Y102.448 E-.05525
G1 X65.534 Y102.466 E-.2598
G1 X65.17 Y102.483 E-.08421
G1 X64.806 Y102.466 E-.08421
G1 X63.681 Y102.448 E-.2598
G1 X63.681 Y101.969 E-.1105
G1 X63.92 Y101.969 E-.05525
G1 X64.483 Y101.967 E-.13003
G1 X64.564 Y101.849 E-.03318
G1 X64.606 Y101.787 E-.01724
;WIPE_END
G1 E-.07 F2100
G1 Z1.05 F10800
;AFTER_LAYER_CHANGE
;1.05
; printing object endstop-insert.STL id:0 copy 0
G1 Z1.25
G1 X65.628 Y102.106
G1 Z1.05
G1 E1.4 F2100
M204 S800
;TYPE:Perimeter
;WIDTH:0.391667
G1 F900
G1 X64.759 Y102.106 E.02521
G1 X65.002 Y101.885 E.00952
G1 X65.009 Y101.73 E.00449
;WIDTH:0.364381
G1 X65.009 Y88.298 E.35904
G1 X65.331 Y88.298 E.00859
M73 P48 R1
G1 X65.331 Y101.73 E.35904
;WIDTH:0.391667
G1 X65.338 Y101.885 E.00449
G1 X65.58 Y102.069 E.00883
M204 S1000
G1 X65.797 Y101.858 F10800
M204 S800
;TYPE:External perimeter
;WIDTH:0.52146
G1 F900
G1 X65.898 Y101.969 E.00597
G1 X66.659 Y101.969 E.03027
G1 X66.659 Y102.208 E.00952
M73 P49 R1
G1 X66.659 Y102.448 E.00952
G1 X65.534 Y102.466 E.04477
;WIDTH:0.48573
G1 X65.17 Y102.483 E.01343
G1 X64.806 Y102.466 E.01343
;WIDTH:0.52146
G1 X63.681 Y102.448 E.04477
G1 X63.681 Y101.969 E.01904
G1 X63.92 Y101.969 E.00952
;WIDTH:0.525086
G1 X64.483 Y101.967 E.02258
G1 X64.564 Y101.849 E.00576
;WIDTH:0.487543
G1 X64.645 Y101.73 E.00531
;WIDTH:0.449999
G1 X64.645 Y87.933 E.46699
G1 X65.695 Y87.933 E.03554
G1 X65.696 Y101.748 E.46759
;WIDTH:0.48573
M73 P50 R1
G1 X65.756 Y101.814 E.00332
M204 S1000
; stop printing object endstop-insert.STL id:0 copy 0
;LAYER_CHANGE
;Z:1.25
;HEIGHT:0.2
;BEFORE_LAYER_CHANGE
G92 E0.0
;1.25


;WIPE_START
G1 F8640
G1 X65.898 Y101.969 E-.04853
G1 X66.659 Y101.969 E-.17565
G1 X66.659 Y102.208 E-.05525
G1 X66.659 Y102.448 E-.05525
G1 X65.534 Y102.466 E-.2598
G1 X65.17 Y102.483 E-.08421
G1 X64.806 Y102.466 E-.08421
G1 X63.681 Y102.448 E-.2598
G1 X63.681 Y101.969 E-.1105
G1 X63.92 Y101.969 E-.05525
G1 X64.483 Y101.967 E-.13003
G1 X64.511 Y101.926 E-.01153
;WIPE_END
G1 E-.07 F2100
G1 Z1.25 F10800
;AFTER_LAYER_CHANGE
;1.25
; printing object endstop-insert.STL id:0 copy 0
G1 Z1.45
G1 X65.628 Y102.106
G1 Z1.25
M73 P51 R1
G1 E1.4 F2100
M204 S800
;TYPE:Perimeter
;WIDTH:0.391667
G1 F900
G1 X64.759 Y102.106 E.02521
G1 X65.002 Y101.885 E.00952
G1 X65.009 Y101.73 E.00449
;WIDTH:0.364381
G1 X65.009 Y88.298 E.35904
G1 X65.331 Y88.298 E.00859
G1 X65.331 Y101.73 E.35904
;WIDTH:0.391667
G1 X65.338 Y101.885 E.00449
M73 P52 R1
G1 X65.58 Y102.069 E.00883
M204 S1000
G1 X65.898 Y101.969 F10800
M204 S800
;TYPE:External perimeter
;WIDTH:0.52146
G1 F900
G1 X66.659 Y101.969 E.03027
G1 X66.659 Y102.208 E.00952
