; generated by PrusaSlicer 2.5.0+win64 on 2023-03-08 at 18:59:20 UTC

; 

; external perimeters extrusion width = 0.45mm
; perimeters extrusion width = 0.45mm
; infill extrusion width = 0.45mm
; solid infill extrusion width = 0.45mm
; top infill extrusion width = 0.40mm
; first layer extrusion width = 0.42mm

M73 P0 R26
M107
;TYPE:Custom
M862.3 P "MK2.5S" ; printer model check
M862.1 P0.4 ; nozzle diameter check
M115 U3.10.0 ; tell printer latest fw version
G90 ; use absolute coordinates
M83  ; extruder relative mode
M104 S240 ; set extruder temp
M140 S95 ; set bed temp
M190 S95 ; wait for bed temp
M109 S240 ; wait for extruder temp
G28 W ; home all without mesh bed level
G80 ; mesh bed leveling
G1 Y-3.0 F1000.0 ; go outside print area
G92 E0.0
G1 X60.0 E9.0 F1000.0 ; intro line
G1 X100.0 E12.5 F1000.0 ; intro line
G92 E0.0
G21 ; set units to millimeters
G90 ; use absolute coordinates
M83 ; use relative distances for extrusion
M900 K0.08 ; Filament gcode LA 1.5
M900 K45 ; Filament gcode LA 1.0
M107
;LAYER_CHANGE
;Z:0.25
;HEIGHT:0.25
;BEFORE_LAYER_CHANGE
G92 E0.0
;0.25


G1 E-1.4 F2100
G1 Z.2 F10800
G1 Z.25
;AFTER_LAYER_CHANGE
;0.25
G1 Z.45
G1 X114.775 Y84.196
G1 Z.25
G1 E1.4 F2100
M204 S1000
;TYPE:Skirt/Brim
;WIDTH:0.42
G1 F600
G1 X115.82 Y83.324 E.05183
G1 X116.75 Y83.134 E.03614
G1 X133.25 Y83.134 E.62828
G1 X134.554 Y83.525 E.05183
G1 X135.426 Y84.57 E.05183
G1 X135.616 Y85.5 E.03614
G1 X135.616 Y124.5 E1.48503
G1 X135.225 Y125.804 E.05183
G1 X134.18 Y126.676 E.05183
G1 X133.25 Y126.866 E.03614
G1 X116.75 Y126.866 E.62828
G1 X115.446 Y126.475 E.05183
G1 X114.574 Y125.43 E.05183
G1 X114.384 Y124.5 E.03614
G1 X114.384 Y85.5 E1.48503
G1 X114.758 Y84.254 E.04955
; printing object endstop-bracket.STL id:0 copy 0
;WIPE_START
M73 P1 R26
G1 F8640
G1 X115.82 Y83.324 E-.32597
G1 X116.75 Y83.134 E-.21913
G1 X120.149 Y83.134 E-.7849
;WIPE_END
G1 E-.07 F2100
G1 Z.45 F10800
G1 X117.526 Y86.276
G1 Z.25
G1 E1.4 F2100
;TYPE:Perimeter
;WIDTH:0.419999
G1 F600
G1 X132.474 Y86.276 E.56916
G1 X132.474 Y123.724 E1.4259
G1 X117.526 Y123.724 E.56916
G1 X117.526 Y86.336 E1.42362
G1 X117.16 Y85.91 F10800
;TYPE:External perimeter
G1 F600
G1 X132.84 Y85.91 E.59706
G1 X132.84 Y124.09 E1.4538
M73 P2 R26
G1 X117.16 Y124.09 E.59706
M73 P2 R25
G1 X117.16 Y85.97 E1.45152
G1 X117.529 Y86.063 F10800
;WIPE_START
G1 F8640
G1 X122.92 Y85.948 E-1.33
;WIPE_END
G1 E-.07 F2100
G1 Z.45 F10800
G1 X123.416 Y87.869
G1 Z.25
G1 E1.4 F2100
;TYPE:Perimeter
G1 F600
G1 X123.443 Y87.834 E.00173
G1 X123.773 Y87.724 E.01323
G1 X126.227 Y87.724 E.09343
G1 X126.557 Y87.834 E.01323
G1 X126.734 Y88.062 E.01101
G1 X126.776 Y88.273 E.00821
G1 X126.776 Y92.727 E.16958
G1 X126.712 Y92.985 E.01015
G1 X126.557 Y93.166 E.00908
G1 X126.3 Y93.271 E.01056
G1 X126.227 Y93.276 E.00278
G1 X123.773 Y93.276 E.09343
G1 X123.532 Y93.221 E.00941
G1 X123.359 Y93.088 E.00831
G1 X123.232 Y92.822 E.01124
G1 X123.224 Y92.727 E.00363
G1 X123.224 Y88.273 E.16958
G1 X123.266 Y88.062 E.00821
G1 X123.379 Y87.917 E.00699
G1 X123.773 Y88.09 F10800
;TYPE:External perimeter
G1 F600
G1 X126.227 Y88.09 E.09343
G1 X126.337 Y88.127 E.00441
G1 X126.41 Y88.273 E.00624
G1 X126.41 Y92.727 E.16958
G1 X126.337 Y92.873 E.00624
G1 X126.227 Y92.91 E.00441
G1 X123.773 Y92.91 E.09343
G1 X123.635 Y92.847 E.00577
G1 X123.59 Y92.727 E.0049
G1 X123.59 Y88.273 E.16958
G1 X123.663 Y88.127 E.00624
G1 X123.716 Y88.109 E.00213
G1 X123.877 Y87.704 F10800
;WIPE_START
G1 F8640
G1 X126.227 Y88.09 E-.57971
G1 X126.337 Y88.127 E-.02675
G1 X126.41 Y88.273 E-.03783
G1 X126.41 Y91.243 E-.68571
;WIPE_END
G1 E-.07 F2100
G1 Z.45 F10800
G1 X132.364 Y87.13
G1 Z.25
G1 E1.4 F2100
;TYPE:Solid infill
;WIDTH:0.421545
G1 F600
G1 X131.785 Y86.551 E.03131
G1 X131.264 Y86.551 E.01989
G1 X132.199 Y87.486 E.05053
G1 X132.199 Y88.006 E.01989
G1 X130.744 Y86.551 E.07867
G1 X130.224 Y86.551 E.01989
G1 X132.199 Y88.526 E.1068
G1 X132.199 Y89.046 E.01989
G1 X129.704 Y86.551 E.13494
G1 X129.183 Y86.551 E.01989
G1 X132.199 Y89.567 E.16307
G1 X132.199 Y90.087 E.01989
G1 X128.663 Y86.551 E.19121
G1 X128.143 Y86.551 E.01989
G1 X132.199 Y90.607 E.21934
G1 X132.199 Y91.128 E.01989
M73 P3 R25
G1 X127.623 Y86.551 E.24748
G1 X127.102 Y86.551 E.01989
G1 X132.199 Y91.648 E.27561
G1 X132.199 Y92.168 E.01989
G1 X126.582 Y86.551 E.30375
G1 X126.062 Y86.551 E.01989
G1 X132.199 Y92.688 E.33188
G1 X132.199 Y93.209 E.01989
G1 X125.377 Y86.386 E.36893
;WIPE_START
G1 F8640
G1 X129.449 Y90.459 E-1.33
;WIPE_END
G1 E-.07 F2100
G1 Z.45 F10800
G1 X126.084 Y87.614
G1 Z.25
G1 E1.4 F2100
G1 F600
G1 X125.021 Y86.551 E.05747
G1 X124.501 Y86.551 E.01989
G1 X125.399 Y87.449 E.04855
G1 X124.878 Y87.449 E.01989
G1 X123.981 Y86.551 E.04855
G1 X123.46 Y86.551 E.01989
G1 X124.358 Y87.449 E.04855
G1 X123.838 Y87.449 E.01989
G1 X122.94 Y86.551 E.04855
G1 X122.42 Y86.551 E.01989
G1 X123.419 Y87.55 E.05403
G1 X123.276 Y87.612 E.00597
G1 X123.138 Y87.79 E.00859
G1 X121.899 Y86.551 E.06697
G1 X121.379 Y86.551 E.01989
G1 X122.973 Y88.145 E.08618
G1 X122.949 Y88.264 E.00465
G1 X122.949 Y88.641 E.01442
G1 X120.859 Y86.551 E.11302
G1 X120.339 Y86.551 E.01989
G1 X122.949 Y89.161 E.14116
G1 X122.949 Y89.682 E.01989
G1 X119.818 Y86.551 E.1693
G1 X119.298 Y86.551 E.01989
G1 X122.949 Y90.202 E.19743
G1 X122.949 Y90.722 E.01989
G1 X118.778 Y86.551 E.22557
G1 X118.257 Y86.551 E.01989
G1 X122.949 Y91.243 E.2537
G1 X122.949 Y91.763 E.01989
G1 X117.801 Y86.615 E.27838
G1 X117.801 Y87.135 E.01989
G1 X123.114 Y92.448 E.28729
;WIPE_START
G1 F8640
G1 X119.041 Y88.375 E-1.33
;WIPE_END
G1 E-.07 F2100
G1 Z.45 F10800
G1 X126.886 Y88.416
G1 Z.25
G1 E1.4 F2100
G1 F600
G1 X132.199 Y93.729 E.28729
G1 X132.199 Y94.249 E.01989
G1 X127.051 Y89.101 E.27838
G1 X127.051 Y89.622 E.01989
G1 X132.199 Y94.769 E.27838
G1 X132.199 Y95.29 E.01989
G1 X127.051 Y90.142 E.27838
G1 X127.051 Y90.662 E.01989
G1 X132.199 Y95.81 E.27838
G1 X132.199 Y96.33 E.01989
G1 X127.051 Y91.183 E.27838
G1 X127.051 Y91.703 E.01989
M73 P4 R25
G1 X132.199 Y96.851 E.27838
G1 X132.199 Y97.371 E.01989
G1 X127.051 Y92.223 E.27838
G1 X127.05 Y92.742 E.01985
G1 X132.199 Y97.891 E.27844
G1 X132.199 Y98.411 E.01989
G1 X126.933 Y93.146 E.28475
G1 X126.849 Y93.269 E.00571
G1 X126.679 Y93.412 E.00848
G1 X132.199 Y98.932 E.29847
G1 X132.199 Y99.452 E.01989
G1 X126.29 Y93.543 E.31954
G1 X125.777 Y93.55 E.01963
G1 X132.199 Y99.972 E.3473
G1 X132.199 Y100.493 E.01989
G1 X125.255 Y93.549 E.37551
G1 X124.733 Y93.547 E.01995
G1 X132.199 Y101.013 E.40372
G1 X132.199 Y101.533 E.01989
G1 X124.046 Y93.381 E.44086
;WIPE_START
G1 F8640
G1 X128.119 Y97.454 E-1.33
;WIPE_END
G1 E-.07 F2100
G1 Z.45 F10800
G1 X117.636 Y87.491
G1 Z.25
G1 E1.4 F2100
G1 F600
G1 X122.959 Y92.814 E.28784
G1 X122.974 Y92.93 E.00448
G1 X123.045 Y93.115 E.00759
G1 X123.151 Y93.269 E.00716
G1 X123.278 Y93.386 E.0066
G1 X123.414 Y93.47 E.00611
G1 X123.69 Y93.545 E.01093
G1 X132.199 Y102.053 E.46013
G1 X132.199 Y102.574 E.01989
G1 X117.801 Y88.176 E.77859
G1 X117.801 Y88.696 E.01989
G1 X132.199 Y103.094 E.77859
G1 X132.199 Y103.614 E.01989
M73 P5 R25
G1 X117.801 Y89.216 E.77859
G1 X117.801 Y89.737 E.01989
G1 X132.199 Y104.135 E.77859
G1 X132.199 Y104.655 E.01989
G1 X117.801 Y90.257 E.77859
G1 X117.801 Y90.777 E.01989
G1 X132.199 Y105.175 E.77859
G1 X132.199 Y105.695 E.01989
G1 X117.801 Y91.298 E.77859
G1 X117.801 Y91.818 E.01989
G1 X132.199 Y106.216 E.77859
G1 X132.199 Y106.736 E.01989
G1 X117.801 Y92.338 E.77859
G1 X117.801 Y92.858 E.01989
M73 P5 R24
G1 X132.199 Y107.256 E.77859
G1 X132.199 Y107.777 E.01989
M73 P6 R24
G1 X117.801 Y93.379 E.77859
G1 X117.801 Y93.899 E.01989
G1 X132.199 Y108.297 E.77859
G1 X132.199 Y108.817 E.01989
G1 X117.801 Y94.419 E.77859
G1 X117.801 Y94.94 E.01989
G1 X132.199 Y109.337 E.77859
G1 X132.199 Y109.858 E.01989
G1 X117.801 Y95.46 E.77859
G1 X117.801 Y95.98 E.01989
G1 X132.199 Y110.378 E.77859
G1 X132.199 Y110.898 E.01989
G1 X117.801 Y96.5 E.77859
G1 X117.801 Y97.021 E.01989
M73 P7 R24
G1 X132.199 Y111.419 E.77859
G1 X132.199 Y111.939 E.01989
G1 X117.801 Y97.541 E.77859
G1 X117.801 Y98.061 E.01989
G1 X132.199 Y112.459 E.77859
G1 X132.199 Y112.979 E.01989
G1 X117.801 Y98.582 E.77859
G1 X117.801 Y99.102 E.01989
G1 X132.199 Y113.5 E.77859
G1 X132.199 Y114.02 E.01989
G1 X117.801 Y99.622 E.77859
G1 X117.801 Y100.142 E.01989
G1 X132.199 Y114.54 E.77859
G1 X132.199 Y115.06 E.01989
G1 X117.801 Y100.663 E.77859
G1 X117.801 Y101.183 E.01989
M73 P8 R24
G1 X132.199 Y115.581 E.77859
G1 X132.199 Y116.101 E.01989
G1 X117.801 Y101.703 E.77859
G1 X117.801 Y102.224 E.01989
G1 X132.199 Y116.621 E.77859
G1 X132.199 Y117.142 E.01989
G1 X117.801 Y102.744 E.77859
G1 X117.801 Y103.264 E.01989
G1 X132.199 Y117.662 E.77859
G1 X132.199 Y118.182 E.01989
G1 X117.801 Y103.784 E.77859
G1 X117.801 Y104.305 E.01989
G1 X132.199 Y118.702 E.77859
G1 X132.199 Y119.223 E.01989
G1 X117.801 Y104.825 E.77859
G1 X117.801 Y105.345 E.01989
M73 P9 R24
G1 X132.199 Y119.743 E.77859
G1 X132.199 Y120.263 E.01989
G1 X117.801 Y105.865 E.77859
G1 X117.801 Y106.386 E.01989
G1 X132.199 Y120.784 E.77859
G1 X132.199 Y121.304 E.01989
G1 X117.801 Y106.906 E.77859
G1 X117.801 Y107.426 E.01989
G1 X132.199 Y121.824 E.77859
G1 X132.199 Y122.344 E.01989
M73 P9 R23
G1 X117.801 Y107.947 E.77859
G1 X117.801 Y108.467 E.01989
G1 X132.199 Y122.865 E.77859
G1 X132.199 Y123.385 E.01989
M73 P10 R23
G1 X117.801 Y108.987 E.77859
G1 X117.801 Y109.507 E.01989
G1 X131.743 Y123.449 E.75391
G1 X131.222 Y123.449 E.01989
G1 X117.801 Y110.028 E.72578
G1 X117.801 Y110.548 E.01989
G1 X130.702 Y123.449 E.69764
G1 X130.182 Y123.449 E.01989
G1 X117.801 Y111.068 E.66951
G1 X117.801 Y111.589 E.01989
G1 X129.661 Y123.449 E.64137
G1 X129.141 Y123.449 E.01989
G1 X117.801 Y112.109 E.61323
G1 X117.801 Y112.629 E.01989
G1 X128.621 Y123.449 E.5851
G1 X128.101 Y123.449 E.01989
G1 X117.801 Y113.149 E.55696
G1 X117.801 Y113.67 E.01989
M73 P11 R23
G1 X127.58 Y123.449 E.52883
G1 X127.06 Y123.449 E.01989
G1 X117.801 Y114.19 E.50069
G1 X117.801 Y114.71 E.01989
G1 X126.54 Y123.449 E.47256
G1 X126.019 Y123.449 E.01989
G1 X117.801 Y115.231 E.44442
G1 X117.801 Y115.751 E.01989
G1 X125.499 Y123.449 E.41629
G1 X124.979 Y123.449 E.01989
G1 X117.801 Y116.271 E.38815
G1 X117.801 Y116.791 E.01989
G1 X124.459 Y123.449 E.36002
G1 X123.938 Y123.449 E.01989
G1 X117.801 Y117.312 E.33188
G1 X117.801 Y117.832 E.01989
G1 X123.418 Y123.449 E.30375
G1 X122.898 Y123.449 E.01989
G1 X117.801 Y118.352 E.27561
G1 X117.801 Y118.873 E.01989
G1 X122.377 Y123.449 E.24748
G1 X121.857 Y123.449 E.01989
G1 X117.801 Y119.393 E.21934
G1 X117.801 Y119.913 E.01989
G1 X121.337 Y123.449 E.19121
G1 X120.817 Y123.449 E.01989
G1 X117.801 Y120.433 E.16307
G1 X117.801 Y120.954 E.01989
G1 X120.296 Y123.449 E.13493
G1 X119.776 Y123.449 E.01989
G1 X117.801 Y121.474 E.1068
G1 X117.801 Y121.994 E.01989
G1 X119.256 Y123.449 E.07866
G1 X118.735 Y123.449 E.01989
G1 X117.801 Y122.515 E.05053
G1 X117.801 Y123.035 E.01989
G1 X118.38 Y123.614 E.03131
; stop printing object endstop-bracket.STL id:0 copy 0
;LAYER_CHANGE
;Z:0.45
;HEIGHT:0.2
;BEFORE_LAYER_CHANGE
G92 E0.0
;0.45


;WIPE_START
G1 F8640
G1 X117.801 Y123.035 E-.18906
G1 X117.801 Y122.515 E-.12013
G1 X118.735 Y123.449 E-.30512
G1 X119.256 Y123.449 E-.12013
G1 X117.801 Y121.994 E-.47501
G1 X117.801 Y121.474 E-.12013
G1 X117.802 Y121.475 E-.00041
;WIPE_END
G1 E-.07 F2100
G1 Z.45 F10800
;AFTER_LAYER_CHANGE
;0.45
M104 S235 ; set temperature
M140 S90 ; set bed temperature
G1 Z.65
G1 X114.384 Y121.475
G1 Z.45
G1 E1.4 F2100
;TYPE:Skirt/Brim
;WIDTH:0.42
G1 F3000
G1 X114.384 Y85.5 E1.12798
G1 X114.775 Y84.196 E.04268
M73 P12 R23
G1 X115.82 Y83.324 E.04268
G1 X116.75 Y83.134 E.02976
G1 X133.25 Y83.134 E.51735
G1 X134.554 Y83.525 E.04268
G1 X135.426 Y84.57 E.04268
G1 X135.616 Y85.5 E.02976
G1 X135.616 Y124.5 E1.22282
G1 X135.225 Y125.804 E.04268
G1 X134.18 Y126.676 E.04268
G1 X133.25 Y126.866 E.02976
G1 X116.75 Y126.866 E.51735
G1 X115.446 Y126.475 E.04268
G1 X114.574 Y125.43 E.04268
G1 X114.384 Y124.5 E.02976
G1 X114.384 Y121.535 E.09296
; printing object endstop-bracket.STL id:0 copy 0
;WIPE_START
G1 F8640
G1 X114.384 Y115.775 E-1.33
;WIPE_END
G1 E-.07 F2100
G1 Z.65 F10800
G1 X117.382 Y123.868
G1 Z.45
G1 E1.4 F2100
M204 S800
;TYPE:Perimeter
;WIDTH:0.449999
G1 F3000
G1 X117.382 Y86.132 E1.27731
G1 X132.618 Y86.132 E.51571
G1 X132.618 Y123.868 E1.27731
G1 X117.442 Y123.868 E.51368
M204 S1000
G1 X116.975 Y124.275 F10800
M204 S800
;TYPE:External perimeter
G1 F2400
G1 X116.975 Y85.725 E1.30487
G1 X133.025 Y85.725 E.54327
G1 X133.025 Y124.275 E1.30487
G1 X117.035 Y124.275 E.54124
M204 S1000
G1 X117.027 Y123.878 F10800
;WIPE_START
G1 F8640
G1 X117.026 Y118.515 E-1.33
;WIPE_END
G1 E-.07 F2100
G1 Z.65 F10800
G1 X123.516 Y92.912
G1 Z.45
G1 E1.4 F2100
M204 S800
;TYPE:Perimeter
G1 F1500
G1 X123.49 Y92.888 E.00121
G1 X123.377 Y92.627 E.00962
G1 X123.368 Y92.521 E.00358
G1 X123.368 Y88.479 E.13685
G1 X123.392 Y88.308 E.00585
G1 X123.49 Y88.112 E.00739
G1 X123.691 Y87.94 E.00897
G1 X123.979 Y87.868 E.01003
G1 X126.021 Y87.868 E.06915
G1 X126.309 Y87.94 E.01003
G1 X126.51 Y88.112 E.00897
G1 X126.608 Y88.308 E.00739
G1 X126.632 Y89.125 E.02768
G1 X126.632 Y92.521 E.11497
G1 X126.575 Y92.78 E.00897
G1 X126.431 Y92.975 E.00819
G1 X126.172 Y93.113 E.00994
G1 X126.021 Y93.132 E.00513
G1 X123.907 Y93.128 E.07157
G1 X123.656 Y93.04 E.009
G1 X123.561 Y92.952 E.00438
M204 S1000
G1 X123.816 Y92.644 F10800
M204 S800
;TYPE:External perimeter
G1 F1500
G1 X123.775 Y92.521 E.00436
G1 X123.775 Y88.479 E.13685
G1 X123.816 Y88.356 E.00436
G1 X123.979 Y88.275 E.00616
G1 X126.021 Y88.275 E.06915
G1 X126.184 Y88.356 E.00616
G1 X126.225 Y88.479 E.00436
G1 X126.225 Y92.521 E.13685
G1 X126.158 Y92.673 E.0056
G1 X126.021 Y92.725 E.00495
G1 X123.979 Y92.725 E.06915
G1 X123.868 Y92.674 E.00414
M204 S1000
G1 X123.69 Y92.669 F10800
;WIPE_START
G1 F8640
G1 X123.775 Y92.521 E-.04112
G1 X123.775 Y88.479 E-.93352
G1 X123.816 Y88.356 E-.02972
G1 X123.979 Y88.275 E-.04204
G1 X125.207 Y88.275 E-.2836
;WIPE_END
G1 E-.07 F2100
G1 Z.65 F10800
G1 X132.496 Y122.92
G1 Z.45
G1 E1.4 F2100
M204 S2000
;TYPE:Solid infill
;WIDTH:0.451368
G1 F3000
G1 X131.853 Y123.563 E.03087
G1 X131.276 Y123.563 E.01962
G1 X132.313 Y122.526 E.04981
G1 X132.313 Y121.948 E.01962
G1 X130.698 Y123.563 E.07755
G1 X130.12 Y123.563 E.01962
G1 X132.313 Y121.37 E.1053
G1 X132.313 Y120.793 E.01962
G1 X129.543 Y123.563 E.13304
G1 X128.965 Y123.563 E.01962
G1 X132.313 Y120.215 E.16079
G1 X132.313 Y119.637 E.01962
G1 X128.387 Y123.563 E.18853
G1 X127.81 Y123.563 E.01962
G1 X132.313 Y119.06 E.21627
G1 X132.313 Y118.482 E.01962
G1 X127.232 Y123.563 E.24402
G1 X126.654 Y123.563 E.01962
G1 X132.313 Y117.904 E.27176
G1 X132.313 Y117.327 E.01962
G1 X126.077 Y123.563 E.29951
G1 X125.499 Y123.563 E.01962
G1 X132.313 Y116.749 E.32725
G1 X132.313 Y116.172 E.01962
G1 X124.922 Y123.563 E.35499
G1 X124.344 Y123.563 E.01962
G1 X132.313 Y115.594 E.38274
G1 X132.313 Y115.016 E.01962
G1 X123.766 Y123.563 E.41048
G1 X123.189 Y123.563 E.01962
G1 X132.313 Y114.439 E.43823
G1 X132.313 Y113.861 E.01962
G1 X122.611 Y123.563 E.46597
G1 X122.033 Y123.563 E.01962
G1 X132.313 Y113.283 E.49371
G1 X132.313 Y112.706 E.01962
G1 X121.456 Y123.563 E.52146
G1 X120.878 Y123.563 E.01962
G1 X132.313 Y112.128 E.5492
G1 X132.313 Y111.551 E.01962
G1 X120.301 Y123.563 E.57695
G1 X119.723 Y123.563 E.01962
G1 X132.313 Y110.973 E.60469
G1 X132.313 Y110.395 E.01962
G1 X119.145 Y123.563 E.63243
G1 X118.568 Y123.563 E.01962
M73 P13 R23
G1 X132.313 Y109.818 E.66018
G1 X132.313 Y109.24 E.01962
G1 X117.99 Y123.563 E.68792
G1 X117.687 Y123.563 E.01028
G1 X117.687 Y123.288 E.00934
G1 X132.313 Y108.662 E.70245
G1 X132.313 Y108.085 E.01962
G1 X117.687 Y122.71 E.70245
G1 X117.687 Y122.132 E.01962
G1 X132.313 Y107.507 E.70245
G1 X132.313 Y106.929 E.01962
G1 X117.687 Y121.555 E.70245
G1 X117.687 Y120.977 E.01962
G1 X132.313 Y106.352 E.70245
G1 X132.313 Y105.774 E.01962
G1 X117.687 Y120.399 E.70245
G1 X117.687 Y119.822 E.01962
G1 X132.313 Y105.197 E.70245
G1 X132.313 Y104.619 E.01962
G1 X117.687 Y119.244 E.70245
G1 X117.687 Y118.667 E.01962
G1 X132.313 Y104.041 E.70245
G1 X132.313 Y103.464 E.01962
