; generated by PrusaSlicer 2.5.0+win64 on 2023-03-09 at 09:56:55 UTC

; 

; external perimeters extrusion width = 0.45mm
; perimeters extrusion width = 0.45mm
; infill extrusion width = 0.45mm
; solid infill extrusion width = 0.45mm
; top infill extrusion width = 0.40mm
; first layer extrusion width = 0.42mm

; external perimeters extrusion width = 0.45mm
; perimeters extrusion width = 0.45mm
; infill extrusion width = 0.45mm
; solid infill extrusion width = 0.45mm
; top infill extrusion width = 0.40mm
; first layer extrusion width = 0.42mm

M73 P0 R27
M107
;TYPE:Custom
M862.3 P "MK2.5S" ; printer model check
M862.1 P0.4 ; nozzle diameter check
M115 U3.10.0 ; tell printer latest fw version
G90 ; use absolute coordinates
M83  ; extruder relative mode
M104 S240 ; set extruder temp
M140 S95 ; set bed temp
M190 S95 ; wait for bed temp
M109 S240 ; wait for extruder temp
G28 W ; home all without mesh bed level
G80 ; mesh bed leveling
G1 Y-3.0 F1000.0 ; go outside print area
G92 E0.0
G1 X60.0 E9.0 F1000.0 ; intro line
G1 X100.0 E12.5 F1000.0 ; intro line
G92 E0.0
G21 ; set units to millimeters
G90 ; use absolute coordinates
M83 ; use relative distances for extrusion
M900 K0.08 ; Filament gcode LA 1.5
M900 K45 ; Filament gcode LA 1.0
M107
;LAYER_CHANGE
;Z:0.25
;HEIGHT:0.25
;BEFORE_LAYER_CHANGE
G92 E0.0
;0.25


G1 E-1.4 F2100
G1 Z.2 F10800
G1 Z.25
;AFTER_LAYER_CHANGE
;0.25
G1 Z.45
G1 X78.747 Y56.335
G1 Z.25
G1 E1.4 F2100
M204 S1000
;TYPE:Skirt/Brim
;WIDTH:0.42
G1 F600
G1 X79.792 Y55.463 E.05183
G1 X80.722 Y55.272 E.03614
G1 X97.222 Y55.272 E.62828
G1 X98.933 Y56.003 E.07083
G1 X165.501 Y125.636 E3.66813
G1 X166.151 Y127.102 E.06108
M73 P1 R27
G1 X167.157 Y141.271 E.54086
G1 X167.157 Y142.271 E.03808
G1 X166.766 Y143.574 E.05183
G1 X165.721 Y144.447 E.05183
G1 X164.791 Y144.637 E.03614
G1 X161.291 Y144.637 E.13327
G1 X160.125 Y144.33 E.04592
G1 X79.556 Y98.698 E3.52575
G1 X78.614 Y97.714 E.05183
G1 X78.356 Y96.639 E.04213
G1 X78.356 Y57.639 E1.48503
G1 X78.73 Y56.392 E.04955
; printing object endstop-bracket.STL id:0 copy 0
;WIPE_START
M73 P2 R26
G1 F8640
G1 X79.792 Y55.463 E-.32597
G1 X80.722 Y55.272 E-.21913
G1 X84.121 Y55.272 E-.7849
;WIPE_END
G1 E-.07 F2100
G1 Z.45 F10800
G1 X81.498 Y58.415
G1 Z.25
G1 E1.4 F2100
;TYPE:Perimeter
;WIDTH:0.419999
G1 F600
G1 X96.446 Y58.415 E.56916
G1 X96.446 Y95.862 E1.4259
G1 X81.498 Y95.862 E.56916
G1 X81.498 Y58.475 E1.42362
G1 X81.132 Y58.049 F10800
;TYPE:External perimeter
G1 F600
G1 X96.812 Y58.049 E.59706
G1 X96.812 Y96.229 E1.4538
G1 X81.132 Y96.229 E.59706
M73 P3 R26
G1 X81.132 Y58.109 E1.45152
G1 X81.501 Y58.202 F10800
;WIPE_START
G1 F8640
G1 X86.892 Y58.087 E-1.33
;WIPE_END
G1 E-.07 F2100
G1 Z.45 F10800
G1 X87.652 Y59.893
G1 Z.25
G1 E1.4 F2100
;TYPE:Perimeter
G1 F600
G1 X87.745 Y59.862 E.00375
G1 X90.199 Y59.862 E.09343
G1 X90.529 Y59.972 E.01323
G1 X90.706 Y60.2 E.01101
G1 X90.748 Y60.412 E.00821
G1 X90.748 Y64.865 E.16958
G1 X90.684 Y65.124 E.01015
G1 X90.529 Y65.305 E.00908
G1 X90.272 Y65.41 E.01056
G1 X90.199 Y65.415 E.00278
G1 X87.745 Y65.415 E.09343
G1 X87.504 Y65.359 E.00941
G1 X87.331 Y65.227 E.00831
G1 X87.204 Y64.96 E.01124
G1 X87.196 Y64.865 E.00363
G1 X87.196 Y60.412 E.16958
G1 X87.238 Y60.2 E.00821
G1 X87.416 Y59.972 E.01101
G1 X87.595 Y59.912 E.0072
;WIPE_START
G1 F8640
G1 X87.745 Y59.862 E-.03656
G1 X90.199 Y59.862 E-.56655
G1 X90.529 Y59.972 E-.08025
G1 X90.706 Y60.2 E-.06677
G1 X90.748 Y60.412 E-.04977
G1 X90.748 Y62.708 E-.53009
;WIPE_END
G1 E-.07 F2100
G1 Z.45 F10800
G1 X90.199 Y60.229
G1 Z.25
G1 E1.4 F2100
;TYPE:External perimeter
G1 F600
G1 X90.309 Y60.265 E.00441
G1 X90.382 Y60.412 E.00624
G1 X90.382 Y64.865 E.16958
G1 X90.309 Y65.012 E.00624
G1 X90.199 Y65.049 E.00441
G1 X87.745 Y65.049 E.09343
G1 X87.607 Y64.986 E.00577
G1 X87.562 Y64.865 E.0049
G1 X87.562 Y60.412 E.16958
G1 X87.635 Y60.265 E.00624
G1 X87.745 Y60.229 E.00441
G1 X90.139 Y60.229 E.09114
G1 X90.276 Y60.143 F10800
;WIPE_START
G1 F8640
G1 X90.309 Y60.265 E-.04013
G1 X90.382 Y60.412 E-.03783
G1 X90.382 Y64.865 E-1.02836
G1 X90.309 Y65.012 E-.03783
G1 X90.199 Y65.049 E-.02675
G1 X89.51 Y65.049 E-.1591
;WIPE_END
G1 E-.07 F2100
G1 Z.45 F10800
G1 X96.336 Y59.269
G1 Z.25
G1 E1.4 F2100
;TYPE:Solid infill
;WIDTH:0.421545
G1 F600
G1 X95.757 Y58.69 E.03131
G1 X95.237 Y58.69 E.01989
G1 X96.171 Y59.624 E.05053
G1 X96.171 Y60.144 E.01989
G1 X94.716 Y58.69 E.07867
G1 X94.196 Y58.69 E.01989
G1 X96.171 Y60.665 E.1068
G1 X96.171 Y61.185 E.01989
G1 X93.676 Y58.69 E.13494
G1 X93.155 Y58.69 E.01989
G1 X96.171 Y61.705 E.16307
G1 X96.171 Y62.226 E.01989
G1 X92.635 Y58.69 E.19121
G1 X92.115 Y58.69 E.01989
G1 X96.171 Y62.746 E.21934
G1 X96.171 Y63.266 E.01989
G1 X91.595 Y58.69 E.24748
G1 X91.074 Y58.69 E.01989
G1 X96.171 Y63.786 E.27561
G1 X96.171 Y64.307 E.01989
G1 X90.554 Y58.69 E.30375
G1 X90.034 Y58.69 E.01989
G1 X96.171 Y64.827 E.33188
G1 X96.171 Y65.347 E.01989
M73 P4 R26
G1 X89.349 Y58.525 E.36893
;WIPE_START
G1 F8640
G1 X93.421 Y62.598 E-1.33
;WIPE_END
G1 E-.07 F2100
G1 Z.45 F10800
G1 X90.056 Y59.752
G1 Z.25
G1 E1.4 F2100
G1 F600
G1 X88.993 Y58.69 E.05747
G1 X88.473 Y58.69 E.01989
G1 X89.371 Y59.588 E.04855
G1 X88.85 Y59.588 E.01989
G1 X87.953 Y58.69 E.04855
G1 X87.432 Y58.69 E.01989
G1 X88.33 Y59.588 E.04855
G1 X87.81 Y59.588 E.01989
G1 X86.912 Y58.69 E.04855
G1 X86.392 Y58.69 E.01989
G1 X87.391 Y59.689 E.05403
G1 X87.248 Y59.751 E.00597
G1 X87.11 Y59.928 E.00859
G1 X85.871 Y58.69 E.06697
G1 X85.351 Y58.69 E.01989
G1 X86.945 Y60.283 E.08618
G1 X86.921 Y60.403 E.00465
G1 X86.921 Y60.78 E.01442
G1 X84.831 Y58.69 E.11302
G1 X84.311 Y58.69 E.01989
G1 X86.921 Y61.3 E.14116
G1 X86.921 Y61.82 E.01989
G1 X83.79 Y58.69 E.1693
G1 X83.27 Y58.69 E.01989
G1 X86.921 Y62.341 E.19743
G1 X86.921 Y62.861 E.01989
G1 X82.75 Y58.69 E.22557
G1 X82.229 Y58.69 E.01989
G1 X86.921 Y63.381 E.2537
G1 X86.921 Y63.902 E.01989
G1 X81.773 Y58.754 E.27838
G1 X81.773 Y59.274 E.01989
G1 X87.086 Y64.587 E.28729
;WIPE_START
G1 F8640
G1 X83.013 Y60.514 E-1.33
;WIPE_END
G1 E-.07 F2100
G1 Z.45 F10800
G1 X90.858 Y60.555
G1 Z.25
G1 E1.4 F2100
G1 F600
G1 X96.171 Y65.868 E.28729
G1 X96.171 Y66.388 E.01989
G1 X91.023 Y61.24 E.27838
G1 X91.023 Y61.76 E.01989
G1 X96.171 Y66.908 E.27838
G1 X96.171 Y67.428 E.01989
G1 X91.023 Y62.281 E.27838
G1 X91.023 Y62.801 E.01989
G1 X96.171 Y67.949 E.27838
G1 X96.171 Y68.469 E.01989
G1 X91.023 Y63.321 E.27838
G1 X91.023 Y63.841 E.01989
G1 X96.171 Y68.989 E.27838
G1 X96.171 Y69.51 E.01989
G1 X91.023 Y64.362 E.27838
G1 X91.022 Y64.881 E.01985
G1 X96.171 Y70.03 E.27844
G1 X96.171 Y70.55 E.01989
G1 X90.905 Y65.285 E.28475
G1 X90.821 Y65.408 E.00571
M73 P5 R26
G1 X90.652 Y65.551 E.00848
G1 X96.171 Y71.07 E.29847
G1 X96.171 Y71.591 E.01989
G1 X90.262 Y65.682 E.31954
G1 X89.749 Y65.689 E.01963
G1 X96.171 Y72.111 E.3473
G1 X96.171 Y72.631 E.01989
G1 X89.227 Y65.687 E.37551
G1 X88.705 Y65.686 E.01995
G1 X96.171 Y73.152 E.40372
G1 X96.171 Y73.672 E.01989
G1 X88.018 Y65.519 E.44086
;WIPE_START
G1 F8640
G1 X92.091 Y69.592 E-1.33
;WIPE_END
G1 E-.07 F2100
G1 Z.45 F10800
G1 X81.608 Y59.629
G1 Z.25
G1 E1.4 F2100
G1 F600
G1 X86.931 Y64.952 E.28784
G1 X86.946 Y65.068 E.00448
G1 X87.017 Y65.253 E.00759
G1 X87.124 Y65.408 E.00716
G1 X87.25 Y65.525 E.0066
G1 X87.386 Y65.608 E.00611
G1 X87.662 Y65.683 E.01093
G1 X96.171 Y74.192 E.46013
G1 X96.171 Y74.712 E.01989
G1 X81.773 Y60.315 E.77859
G1 X81.773 Y60.835 E.01989
M73 P5 R25
G1 X96.171 Y75.233 E.77859
G1 X96.171 Y75.753 E.01989
G1 X81.773 Y61.355 E.77859
G1 X81.773 Y61.875 E.01989
G1 X96.171 Y76.273 E.77859
G1 X96.171 Y76.794 E.01989
M73 P6 R25
G1 X81.773 Y62.396 E.77859
G1 X81.773 Y62.916 E.01989
G1 X96.171 Y77.314 E.77859
G1 X96.171 Y77.834 E.01989
G1 X81.773 Y63.436 E.77859
G1 X81.773 Y63.957 E.01989
G1 X96.171 Y78.354 E.77859
G1 X96.171 Y78.875 E.01989
G1 X81.773 Y64.477 E.77859
G1 X81.773 Y64.997 E.01989
G1 X96.171 Y79.395 E.77859
G1 X96.171 Y79.915 E.01989
G1 X81.773 Y65.517 E.77859
G1 X81.773 Y66.038 E.01989
G1 X96.171 Y80.435 E.77859
G1 X96.171 Y80.956 E.01989
M73 P7 R25
G1 X81.773 Y66.558 E.77859
G1 X81.773 Y67.078 E.01989
G1 X96.171 Y81.476 E.77859
G1 X96.171 Y81.996 E.01989
G1 X81.773 Y67.599 E.77859
G1 X81.773 Y68.119 E.01989
G1 X96.171 Y82.517 E.77859
G1 X96.171 Y83.037 E.01989
G1 X81.773 Y68.639 E.77859
G1 X81.773 Y69.159 E.01989
G1 X96.171 Y83.557 E.77859
G1 X96.171 Y84.077 E.01989
G1 X81.773 Y69.68 E.77859
G1 X81.773 Y70.2 E.01989
G1 X96.171 Y84.598 E.77859
G1 X96.171 Y85.118 E.01989
M73 P8 R25
G1 X81.773 Y70.72 E.77859
G1 X81.773 Y71.24 E.01989
G1 X96.171 Y85.638 E.77859
G1 X96.171 Y86.159 E.01989
G1 X81.773 Y71.761 E.77859
G1 X81.773 Y72.281 E.01989
G1 X96.171 Y86.679 E.77859
G1 X96.171 Y87.199 E.01989
G1 X81.773 Y72.801 E.77859
G1 X81.773 Y73.322 E.01989
G1 X96.171 Y87.719 E.77859
G1 X96.171 Y88.24 E.01989
G1 X81.773 Y73.842 E.77859
G1 X81.773 Y74.362 E.01989
G1 X96.171 Y88.76 E.77859
G1 X96.171 Y89.28 E.01989
M73 P9 R25
G1 X81.773 Y74.882 E.77859
G1 X81.773 Y75.403 E.01989
M73 P9 R24
G1 X96.171 Y89.801 E.77859
G1 X96.171 Y90.321 E.01989
G1 X81.773 Y75.923 E.77859
G1 X81.773 Y76.443 E.01989
G1 X96.171 Y90.841 E.77859
G1 X96.171 Y91.361 E.01989
G1 X81.773 Y76.964 E.77859
G1 X81.773 Y77.484 E.01989
G1 X96.171 Y91.882 E.77859
G1 X96.171 Y92.402 E.01989
G1 X81.773 Y78.004 E.77859
G1 X81.773 Y78.524 E.01989
G1 X96.171 Y92.922 E.77859
G1 X96.171 Y93.443 E.01989
M73 P10 R24
G1 X81.773 Y79.045 E.77859
G1 X81.773 Y79.565 E.01989
G1 X96.171 Y93.963 E.77859
G1 X96.171 Y94.483 E.01989
G1 X81.773 Y80.085 E.77859
G1 X81.773 Y80.606 E.01989
G1 X96.171 Y95.003 E.77859
G1 X96.171 Y95.524 E.01989
G1 X81.773 Y81.126 E.77859
G1 X81.773 Y81.646 E.01989
G1 X95.715 Y95.588 E.75391
G1 X95.194 Y95.588 E.01989
G1 X81.773 Y82.166 E.72578
G1 X81.773 Y82.687 E.01989
G1 X94.674 Y95.588 E.69764
G1 X94.154 Y95.588 E.01989
M73 P11 R24
G1 X81.773 Y83.207 E.66951
G1 X81.773 Y83.727 E.01989
G1 X93.633 Y95.588 E.64137
G1 X93.113 Y95.588 E.01989
G1 X81.773 Y84.248 E.61323
G1 X81.773 Y84.768 E.01989
G1 X92.593 Y95.588 E.5851
G1 X92.073 Y95.588 E.01989
G1 X81.773 Y85.288 E.55696
G1 X81.773 Y85.808 E.01989
G1 X91.552 Y95.588 E.52883
G1 X91.032 Y95.588 E.01989
G1 X81.773 Y86.329 E.50069
G1 X81.773 Y86.849 E.01989
G1 X90.512 Y95.588 E.47256
G1 X89.991 Y95.588 E.01989
G1 X81.773 Y87.369 E.44442
G1 X81.773 Y87.89 E.01989
G1 X89.471 Y95.588 E.41629
G1 X88.951 Y95.588 E.01989
G1 X81.773 Y88.41 E.38815
G1 X81.773 Y88.93 E.01989
M73 P12 R24
G1 X88.431 Y95.588 E.36002
G1 X87.91 Y95.588 E.01989
G1 X81.773 Y89.45 E.33188
G1 X81.773 Y89.971 E.01989
G1 X87.39 Y95.588 E.30375
G1 X86.87 Y95.588 E.01989
G1 X81.773 Y90.491 E.27561
G1 X81.773 Y91.011 E.01989
G1 X86.349 Y95.588 E.24748
G1 X85.829 Y95.588 E.01989
G1 X81.773 Y91.532 E.21934
G1 X81.773 Y92.052 E.01989
G1 X85.309 Y95.588 E.19121
G1 X84.789 Y95.588 E.01989
G1 X81.773 Y92.572 E.16307
G1 X81.773 Y93.092 E.01989
G1 X84.268 Y95.588 E.13493
G1 X83.748 Y95.588 E.01989
G1 X81.773 Y93.613 E.1068
G1 X81.773 Y94.133 E.01989
G1 X83.228 Y95.588 E.07866
G1 X82.708 Y95.588 E.01989
G1 X81.773 Y94.653 E.05053
G1 X81.773 Y95.173 E.01989
G1 X82.352 Y95.752 E.03131
; stop printing object endstop-bracket.STL id:0 copy 0
;LAYER_CHANGE
;Z:0.45
;HEIGHT:0.2
;BEFORE_LAYER_CHANGE
G92 E0.0
;0.45


;WIPE_START
G1 F8640
G1 X81.773 Y95.173 E-.18906
G1 X81.773 Y94.653 E-.12013
G1 X82.708 Y95.588 E-.30512
G1 X83.228 Y95.588 E-.12013
G1 X81.773 Y94.133 E-.47501
G1 X81.773 Y93.613 E-.12013
G1 X81.774 Y93.614 E-.00041
;WIPE_END
G1 E-.07 F2100
G1 Z.45 F10800
;AFTER_LAYER_CHANGE
;0.45
M104 S235 ; set temperature
M140 S90 ; set bed temperature
G1 Z.65
G1 X78.356 Y93.614
G1 Z.45
G1 E1.4 F2100
;TYPE:Skirt/Brim
;WIDTH:0.42
G1 F3000
G1 X78.356 Y57.639 E1.12798
G1 X78.747 Y56.335 E.04268
G1 X79.792 Y55.463 E.04268
G1 X80.722 Y55.272 E.02976
G1 X97.222 Y55.272 E.51735
G1 X98.933 Y56.003 E.05832
G1 X165.501 Y125.636 E3.02045
G1 X166.151 Y127.102 E.0503
G1 X167.157 Y141.271 E.44536
G1 X167.157 Y142.271 E.03135
G1 X166.766 Y143.574 E.04268
G1 X165.721 Y144.447 E.04268
G1 X164.791 Y144.637 E.02976
G1 X161.291 Y144.637 E.10974
G1 X160.125 Y144.33 E.03781
G1 X79.556 Y98.698 E2.90321
G1 X78.614 Y97.714 E.04268
M73 P12 R23
G1 X78.356 Y96.639 E.03469
G1 X78.356 Y93.674 E.09296
; printing object endstop-bracket.STL id:0 copy 0
;WIPE_START
G1 F8640
G1 X78.356 Y87.914 E-1.33
;WIPE_END
G1 E-.07 F2100
G1 Z.65 F10800
G1 X81.354 Y96.007
G1 Z.45
G1 E1.4 F2100
M204 S800
;TYPE:Perimeter
;WIDTH:0.449999
G1 F3000
G1 X81.354 Y58.271 E1.27731
G1 X96.59 Y58.271 E.51571
G1 X96.59 Y96.007 E1.27731
G1 X81.414 Y96.007 E.51368
M204 S1000
G1 X80.947 Y96.414 F10800
M204 S800
;TYPE:External perimeter
M73 P13 R23
G1 F2400
G1 X80.947 Y57.864 E1.30487
G1 X96.997 Y57.864 E.54327
G1 X96.997 Y96.414 E1.30487
G1 X81.007 Y96.414 E.54124
M204 S1000
G1 X80.999 Y96.017 F10800
;WIPE_START
G1 F8640
G1 X80.998 Y90.654 E-1.33
;WIPE_END
G1 E-.07 F2100
G1 Z.65 F10800
G1 X87.767 Y65.234
G1 Z.45
G1 E1.4 F2100
M204 S800
;TYPE:Perimeter
G1 F1500
G1 X87.716 Y65.224 E.00177
G1 X87.541 Y65.113 E.00698
G1 X87.397 Y64.919 E.00819
G1 X87.355 Y64.794 E.00446
G1 X87.34 Y64.66 E.00456
G1 X87.34 Y60.617 E.13685
G1 X87.364 Y60.446 E.00585
G1 X87.462 Y60.251 E.00739
G1 X87.663 Y60.078 E.00897
G1 X87.951 Y60.007 E.01003
G1 X89.994 Y60.007 E.06915
G1 X90.281 Y60.078 E.01003
G1 X90.482 Y60.251 E.00897
G1 X90.58 Y60.446 E.00739
G1 X90.604 Y61.264 E.02768
G1 X90.604 Y64.66 E.11497
G1 X90.547 Y64.919 E.00897
G1 X90.403 Y65.113 E.00819
G1 X90.144 Y65.252 E.00994
G1 X89.994 Y65.271 E.00513
G1 X87.951 Y65.271 E.06915
G1 X87.826 Y65.246 E.00431
M204 S1000
G1 X87.752 Y64.705 F10800
M204 S800
;TYPE:External perimeter
G1 F1500
G1 X87.747 Y60.617 E.13836
G1 X87.788 Y60.495 E.00436
G1 X87.951 Y60.414 E.00616
G1 X89.994 Y60.414 E.06915
G1 X90.156 Y60.495 E.00616
G1 X90.197 Y60.617 E.00436
G1 X90.197 Y64.66 E.13685
G1 X90.13 Y64.811 E.0056
G1 X89.994 Y64.864 E.00495
G1 X87.951 Y64.864 E.06915
G1 X87.814 Y64.811 E.00495
G1 X87.782 Y64.757 E.00214
M204 S1000
G1 X87.362 Y64.616 F10800
;WIPE_START
G1 F8640
G1 X87.747 Y60.617 E-.95583
G1 X87.788 Y60.495 E-.02972
G1 X87.951 Y60.414 E-.04204
G1 X89.26 Y60.414 E-.30241
;WIPE_END
G1 E-.07 F2100
G1 Z.65 F10800
G1 X96.468 Y95.059
G1 Z.45
G1 E1.4 F2100
M204 S2000
;TYPE:Solid infill
;WIDTH:0.451368
G1 F3000
G1 X95.825 Y95.701 E.03087
G1 X95.248 Y95.701 E.01962
G1 X96.285 Y94.664 E.04981
G1 X96.285 Y94.087 E.01962
G1 X94.67 Y95.701 E.07755
G1 X94.092 Y95.701 E.01962
G1 X96.285 Y93.509 E.1053
G1 X96.285 Y92.931 E.01962
G1 X93.515 Y95.701 E.13304
G1 X92.937 Y95.701 E.01962
G1 X96.285 Y92.354 E.16079
G1 X96.285 Y91.776 E.01962
G1 X92.359 Y95.701 E.18853
G1 X91.782 Y95.701 E.01962
G1 X96.285 Y91.198 E.21627
G1 X96.285 Y90.621 E.01962
G1 X91.204 Y95.701 E.24402
G1 X90.627 Y95.701 E.01962
G1 X96.285 Y90.043 E.27176
G1 X96.285 Y89.466 E.01962
G1 X90.049 Y95.701 E.29951
G1 X89.471 Y95.701 E.01962
G1 X96.285 Y88.888 E.32725
G1 X96.285 Y88.31 E.01962
G1 X88.894 Y95.701 E.35499
G1 X88.316 Y95.701 E.01962
G1 X96.285 Y87.733 E.38274
G1 X96.285 Y87.155 E.01962
G1 X87.738 Y95.701 E.41048
G1 X87.161 Y95.701 E.01962
G1 X96.285 Y86.577 E.43823
G1 X96.285 Y86 E.01962
G1 X86.583 Y95.701 E.46597
G1 X86.005 Y95.701 E.01962
G1 X96.285 Y85.422 E.49371
G1 X96.285 Y84.844 E.01962
G1 X85.428 Y95.701 E.52146
G1 X84.85 Y95.701 E.01962
G1 X96.285 Y84.267 E.5492
G1 X96.285 Y83.689 E.01962
G1 X84.273 Y95.701 E.57695
G1 X83.695 Y95.701 E.01962
G1 X96.285 Y83.112 E.60469
G1 X96.285 Y82.534 E.01962
G1 X83.117 Y95.701 E.63243
G1 X82.54 Y95.701 E.01962
G1 X96.285 Y81.956 E.66018
G1 X96.285 Y81.379 E.01962
G1 X81.962 Y95.701 E.68792
G1 X81.659 Y95.701 E.01028
G1 X81.659 Y95.426 E.00934
G1 X96.285 Y80.801 E.70245
G1 X96.285 Y80.223 E.01962
G1 X81.659 Y94.849 E.70245
G1 X81.659 Y94.271 E.01962
G1 X96.285 Y79.646 E.70245
G1 X96.285 Y79.068 E.01962
G1 X81.659 Y93.693 E.70245
G1 X81.659 Y93.116 E.01962
G1 X96.285 Y78.49 E.70245
G1 X96.285 Y77.913 E.01962
G1 X81.659 Y92.538 E.70245
G1 X81.659 Y91.96 E.01962
G1 X96.285 Y77.335 E.70245
G1 X96.285 Y76.758 E.01962
G1 X81.659 Y91.383 E.70245
G1 X81.659 Y90.805 E.01962
G1 X96.285 Y76.18 E.70245
G1 X96.285 Y75.602 E.01962
