; generated by PrusaSlicer 2.5.0+win64 on 2023-03-09 at 14:03:53 UTC

; 

; external perimeters extrusion width = 0.45mm
; perimeters extrusion width = 0.45mm
; infill extrusion width = 0.45mm
; solid infill extrusion width = 0.45mm
; top infill extrusion width = 0.40mm
; support material extrusion width = 0.35mm
; first layer extrusion width = 0.42mm

M73 P0 R24
M107
;TYPE:Custom
M862.3 P "MK2.5S" ; printer model check
M862.1 P0.4 ; nozzle diameter check
M115 U3.10.0 ; tell printer latest fw version
G90 ; use absolute coordinates
M83  ; extruder relative mode
M104 S240 ; set extruder temp
M140 S95 ; set bed temp
M190 S95 ; wait for bed temp
M109 S240 ; wait for extruder temp
G28 W ; home all without mesh bed level
G80 ; mesh bed leveling
G1 Y-3.0 F1000.0 ; go outside print area
G92 E0.0
G1 X60.0 E9.0 F1000.0 ; intro line
G1 X100.0 E12.5 F1000.0 ; intro line
G92 E0.0
G21 ; set units to millimeters
G90 ; use absolute coordinates
M83 ; use relative distances for extrusion
M900 K0.08 ; Filament gcode LA 1.5
M900 K45 ; Filament gcode LA 1.0
M107
;LAYER_CHANGE
;Z:0.25
;HEIGHT:0.25
;BEFORE_LAYER_CHANGE
G92 E0.0
;0.25


G1 E-1.4 F2100
G1 Z.2 F10800
G1 Z.25
;AFTER_LAYER_CHANGE
;0.25
G1 Z.45
G1 X121.101 Y30.526
G1 Z.25
G1 E1.4 F2100
M204 S1000
;TYPE:Skirt/Brim
;WIDTH:0.42
G1 F600
G1 X121.756 Y28.81 E.06994
G1 X122.39 Y27.671 E.04964
G1 X123.159 Y26.632 E.04922
G1 X124.371 Y25.395 E.06595
G1 X125.762 Y24.389 E.06535
G1 X126.916 Y23.773 E.04983
G1 X128.068 Y23.338 E.0469
G1 X129.701 Y22.952 E.06386
G1 X131.483 Y22.838 E.06801
G1 X132.933 Y22.952 E.05539
G1 X134.501 Y23.315 E.06126
G1 X135.958 Y23.89 E.05966
G1 X137.097 Y24.524 E.04964
G1 X138.136 Y25.294 E.04922
G1 X139.296 Y26.419 E.06154
G1 X140.244 Y27.671 E.0598
G1 X140.996 Y29.05 E.05982
G1 X141.528 Y30.508 E.0591
G1 X141.833 Y31.95 E.05611
G1 X141.933 Y33.401 E.0554
G1 X141.933 Y59.201 E.9824
G1 X141.279 Y60.835 E.06702
G1 X136.029 Y66.335 E.28952
G1 X134.317 Y67.068 E.07089
G1 X128.317 Y67.068 E.22847
G1 X126.605 Y66.335 E.07089
G1 X121.355 Y60.835 E.28952
G1 X120.701 Y59.201 E.06702
M73 P1 R24
G1 X120.701 Y33.401 E.9824
G1 X120.785 Y32.105 E.04945
G1 X121.089 Y30.585 E.05903
; printing object endstop-bracket.STL id:0 copy 0
;WIPE_START
G1 F8640
G1 X121.756 Y28.81 E-.43778
G1 X122.39 Y27.671 E-.30103
G1 X123.159 Y26.632 E-.29848
G1 X124.047 Y25.727 E-.29271
;WIPE_END
G1 E-.07 F2100
G1 Z.45 F10800
G1 X128.626 Y58.445
G1 Z.25
G1 E1.4 F2100
;TYPE:Perimeter
;WIDTH:0.419999
G1 F600
G1 X128.544 Y58.425 E.00323
G1 X123.843 Y58.425 E.17898
G1 X123.843 Y33.427 E.95187
G1 X123.92 Y32.345 E.04129
G1 X124.145 Y31.312 E.04026
G1 X124.517 Y30.316 E.04048
G1 X125.023 Y29.39 E.04019
G1 X125.658 Y28.54 E.04039
G1 X126.406 Y27.793 E.04027
G1 X127.259 Y27.155 E.04054
G1 X128.183 Y26.65 E.04012
G1 X129.168 Y26.283 E.04
G1 X130.209 Y26.055 E.04059
G1 X131.373 Y25.98 E.04441
G1 X132.423 Y26.055 E.04008
G1 X133.451 Y26.278 E.04006
G1 X134.216 Y26.563 E.03106
G1 X134.715 Y26.794 E.02096
G1 X135.479 Y27.232 E.03353
G1 X136.327 Y27.891 E.04088
G1 X137.07 Y28.667 E.04092
G1 X137.695 Y29.543 E.04097
G1 X138.184 Y30.495 E.04075
G1 X138.531 Y31.508 E.04079
G1 X138.728 Y32.547 E.04024
G1 X138.791 Y33.528 E.03745
G1 X138.791 Y58.425 E.94801
G1 X134.09 Y58.425 E.17898
G1 X134.016 Y58.43 E.00282
G1 X133.803 Y58.506 E.00864
G1 X133.607 Y58.712 E.01081
G1 X133.541 Y58.974 E.0103
G1 X133.541 Y63.925 E.1885
G1 X129.093 Y63.925 E.16934
G1 X129.093 Y58.974 E.1885
G1 X129.074 Y58.83 E.00553
G1 X128.97 Y58.627 E.00869
G1 X128.8 Y58.488 E.00837
G1 X128.684 Y58.46 E.00453
G1 X128.544 Y58.791 F10800
;TYPE:External perimeter
G1 F600
G1 X123.477 Y58.791 E.19293
G1 X123.477 Y33.414 E.96632
G1 X123.557 Y32.293 E.04279
M73 P2 R24
G1 X123.793 Y31.208 E.04226
G1 X124.183 Y30.163 E.04248
G1 X124.714 Y29.191 E.04218
G1 X125.381 Y28.3 E.04238
G1 X126.166 Y27.515 E.04227
G1 X127.06 Y26.846 E.04254
G1 X128.031 Y26.316 E.04211
G1 X129.064 Y25.931 E.04199
G1 X130.158 Y25.691 E.04263
G1 X131.374 Y25.612 E.04641
G1 X132.475 Y25.691 E.04203
G1 X133.555 Y25.926 E.04205
G1 X134.604 Y26.316 E.04263
G1 X135.577 Y26.848 E.04223
G1 X136.468 Y27.515 E.04238
G1 X137.253 Y28.3 E.04227
G1 X137.92 Y29.191 E.04237
G1 X138.452 Y30.165 E.04228
G1 X138.842 Y31.214 E.0426
G1 X139.029 Y32.07 E.03336
G1 X139.093 Y32.52 E.01734
G1 X139.157 Y33.528 E.03844
G1 X139.157 Y58.791 E.96196
G1 X134.09 Y58.791 E.19293
G1 X133.966 Y58.84 E.00507
G1 X133.907 Y58.974 E.0056
G1 X133.907 Y64.291 E.20245
G1 X128.727 Y64.291 E.19724
G1 X128.727 Y58.974 E.20245
G1 X128.686 Y58.859 E.00467
M73 P2 R23
G1 X128.598 Y58.817 E.0037
G1 X128.44 Y58.405 F10800
;WIPE_START
G1 F8640
G1 X123.477 Y58.791 E-1.18247
G1 X123.477 Y58.152 E-.14753
;WIPE_END
G1 E-.07 F2100
G1 Z.45 F10800
G1 X130.012 Y34.96
G1 Z.25
G1 E1.4 F2100
;TYPE:Perimeter
G1 F600
G1 X129.849 Y34.922 E.00635
G1 X129.676 Y34.789 E.00831
G1 X129.549 Y34.523 E.01124
G1 X129.541 Y29.974 E.1732
G1 X129.563 Y29.82 E.00593
G1 X129.642 Y29.656 E.00696
G1 X129.812 Y29.5 E.00876
G1 X130.09 Y29.425 E.01097
G1 X132.544 Y29.425 E.09343
G1 X132.822 Y29.5 E.01096
G1 X132.992 Y29.657 E.0088
G1 X133.071 Y29.82 E.00693
G1 X133.093 Y30.718 E.03418
G1 X133.093 Y34.428 E.14129
G1 X133.029 Y34.687 E.01015
G1 X132.873 Y34.868 E.00908
G1 X132.617 Y34.973 E.01056
G1 X130.07 Y34.973 E.09696
G1 X130.09 Y34.611 F10800
;TYPE:External perimeter
G1 F600
G1 X129.952 Y34.549 E.00577
G1 X129.907 Y34.428 E.0049
G1 X129.907 Y29.974 E.16958
G1 X129.976 Y29.831 E.00605
G1 X130.09 Y29.791 E.00461
G1 X132.544 Y29.791 E.09343
G1 X132.658 Y29.831 E.00461
G1 X132.727 Y29.974 E.00605
G1 X132.727 Y34.428 E.16958
G1 X132.654 Y34.575 E.00624
G1 X132.544 Y34.611 E.00441
G1 X130.15 Y34.611 E.09114
G1 X129.981 Y34.717 F10800
;WIPE_START
G1 F8640
G1 X129.952 Y34.549 E-.04796
G1 X129.907 Y34.428 E-.0297
G1 X129.907 Y29.974 E-1.02836
G1 X129.976 Y29.831 E-.0367
G1 X130.09 Y29.791 E-.02795
G1 X130.78 Y29.791 E-.15934
;WIPE_END
G1 E-.07 F2100
G1 Z.45 F10800
G1 X135.263 Y27.219
G1 Z.25
G1 E1.4 F2100
;TYPE:Solid infill
;WIDTH:0.424055
G1 F600
G1 X136.776 Y28.732 E.08242
G1 X137.379 Y29.538 E.03874
G1 X137.766 Y30.246 E.03104
G1 X134.522 Y27.002 E.1766
G1 X134.337 Y26.901 E.00813
G1 X133.637 Y26.64 E.02877
G1 X138.128 Y31.132 E.24453
G1 X138.226 Y31.394 E.0108
M73 P3 R23
G1 X138.325 Y31.853 E.01807
G1 X132.915 Y26.443 E.29456
G1 X132.384 Y26.327 E.02093
G1 X132.267 Y26.319 E.00449
G1 X138.449 Y32.501 E.33657
G1 X138.489 Y33.065 E.02177
G1 X131.703 Y26.279 E.36947
G1 X131.372 Y26.255 E.01278
G1 X131.169 Y26.268 E.00784
G1 X138.516 Y33.615 E.40001
G1 X138.516 Y34.139 E.02017
G1 X130.677 Y26.3 E.42679
G1 X130.193 Y26.34 E.0187
G1 X138.516 Y34.663 E.45314
G1 X138.516 Y35.186 E.02017
G1 X133.368 Y30.039 E.28028
G1 X133.336 Y29.742 E.0115
G1 X133.218 Y29.498 E.01043
G1 X133.058 Y29.329 E.00896
G1 X132.835 Y29.203 E.00985
G1 X132.712 Y29.167 E.00492
G1 X132.48 Y29.15 E.00898
G1 X129.763 Y26.434 E.14789
G1 X129.333 Y26.528 E.01694
G1 X131.956 Y29.15 E.14277
G1 X131.432 Y29.15 E.02017
G1 X128.942 Y26.66 E.13556
G1 X128.56 Y26.803 E.01568
G1 X130.908 Y29.15 E.12781
G1 X130.386 Y29.152 E.02009
G1 X128.192 Y26.958 E.11945
G1 X127.853 Y27.143 E.01486
G1 X129.888 Y29.178 E.11079
G1 X129.676 Y29.261 E.00877
G1 X129.546 Y29.36 E.00628
G1 X127.515 Y27.328 E.11063
G1 X127.202 Y27.54 E.01452
G1 X129.333 Y29.67 E.11599
G1 X129.298 Y29.742 E.00306
G1 X129.266 Y29.968 E.00879
G1 X129.266 Y30.127 E.00613
G1 X126.903 Y27.764 E.12866
G1 X126.603 Y27.988 E.01441
G1 X129.266 Y30.651 E.14498
G1 X129.266 Y31.175 E.02017
G1 X126.339 Y28.248 E.15935
G1 X126.077 Y28.51 E.01426
G1 X129.266 Y31.699 E.17361
G1 X129.266 Y32.222 E.02017
G1 X125.823 Y28.779 E.18747
G1 X125.598 Y29.079 E.01441
G1 X129.266 Y32.746 E.19968
G1 X129.266 Y33.27 E.02017
G1 X125.374 Y29.378 E.21189
G1 X125.254 Y29.538 E.0077
G1 X125.168 Y29.696 E.00692
G1 X129.431 Y33.959 E.23208
;WIPE_START
G1 F8640
G1 X125.358 Y29.886 E-1.33
;WIPE_END
G1 E-.07 F2100
G1 Z.45 F10800
G1 X133.203 Y30.398
G1 Z.25
M73 P4 R23
G1 E1.4 F2100
G1 F600
G1 X138.516 Y35.71 E.28925
G1 X138.516 Y36.234 E.02017
G1 X133.368 Y31.086 E.28028
G1 X133.368 Y31.61 E.02017
G1 X138.516 Y36.758 E.28028
G1 X138.516 Y37.282 E.02017
G1 X133.368 Y32.134 E.28028
G1 X133.368 Y32.658 E.02017
G1 X138.516 Y37.806 E.28028
G1 X138.516 Y38.329 E.02017
G1 X133.368 Y33.182 E.28028
G1 X133.368 Y33.705 E.02017
G1 X138.516 Y38.853 E.28028
G1 X138.516 Y39.377 E.02017
G1 X133.368 Y34.229 E.28028
G1 X133.368 Y34.434 E.00787
G1 X133.343 Y34.631 E.00765
G1 X133.316 Y34.701 E.0029
G1 X138.516 Y39.901 E.2831
G1 X138.516 Y40.425 E.02017
G1 X133.111 Y35.02 E.29425
G1 X132.906 Y35.169 E.00978
G1 X132.783 Y35.216 E.00504
G1 X138.516 Y40.949 E.3121
G1 X138.516 Y41.472 E.02017
G1 X132.295 Y35.252 E.33869
G1 X131.77 Y35.25 E.02022
G1 X138.516 Y41.996 E.36729
G1 X138.516 Y42.52 E.02017
G1 X131.245 Y35.249 E.39588
G1 X130.72 Y35.248 E.02022
G1 X138.516 Y43.044 E.42447
G1 X138.516 Y43.568 E.02017
G1 X130.194 Y35.246 E.45307
G1 X129.979 Y35.246 E.00829
G1 X129.731 Y35.171 E.00997
G1 X129.595 Y35.088 E.00615
G1 X129.468 Y34.97 E.00665
G1 X129.362 Y34.816 E.00721
G1 X129.29 Y34.631 E.00764
G1 X129.266 Y34.318 E.0121
G1 X124.983 Y30.035 E.23318
G1 X124.798 Y30.374 E.01486
M73 P5 R23
G1 X138.516 Y44.092 E.74688
G1 X138.516 Y44.615 E.02017
G1 X124.649 Y30.748 E.75501
G1 X124.506 Y31.13 E.01568
G1 X138.516 Y45.139 E.76276
G1 X138.516 Y45.663 E.02017
G1 X124.38 Y31.527 E.76966
G1 X124.286 Y31.957 E.01695
G1 X138.516 Y46.187 E.77476
G1 X138.516 Y46.711 E.02017
G1 X124.193 Y32.388 E.77983
G1 X124.158 Y32.877 E.01887
G1 X138.516 Y47.235 E.78173
G1 X138.516 Y47.758 E.02017
G1 X124.123 Y33.366 E.78363
G1 X124.118 Y33.884 E.01997
M73 P6 R23
G1 X138.516 Y48.282 E.7839
G1 X138.516 Y48.806 E.02017
G1 X124.118 Y34.408 E.7839
G1 X124.118 Y34.932 E.02017
G1 X138.516 Y49.33 E.7839
G1 X138.516 Y49.854 E.02017
G1 X124.118 Y35.456 E.7839
G1 X124.118 Y35.98 E.02017
M73 P6 R22
G1 X138.516 Y50.378 E.7839
G1 X138.516 Y50.901 E.02017
G1 X124.118 Y36.504 E.7839
G1 X124.118 Y37.027 E.02017
G1 X138.516 Y51.425 E.7839
G1 X138.516 Y51.949 E.02017
M73 P7 R22
G1 X124.118 Y37.551 E.7839
G1 X124.118 Y38.075 E.02017
G1 X138.516 Y52.473 E.7839
G1 X138.516 Y52.997 E.02017
G1 X124.118 Y38.599 E.7839
G1 X124.118 Y39.123 E.02017
G1 X138.516 Y53.521 E.7839
G1 X138.516 Y54.044 E.02017
G1 X124.118 Y39.647 E.7839
G1 X124.118 Y40.17 E.02017
G1 X138.516 Y54.568 E.7839
G1 X138.516 Y55.092 E.02017
G1 X124.118 Y40.694 E.7839
G1 X124.118 Y41.218 E.02017
M73 P8 R22
G1 X138.516 Y55.616 E.7839
G1 X138.516 Y56.14 E.02017
G1 X124.118 Y41.742 E.7839
G1 X124.118 Y42.266 E.02017
G1 X138.516 Y56.664 E.7839
G1 X138.516 Y57.187 E.02017
G1 X124.118 Y42.79 E.7839
G1 X124.118 Y43.313 E.02017
G1 X138.516 Y57.711 E.7839
G1 X138.516 Y58.15 E.0169
G1 X138.431 Y58.15 E.00327
G1 X124.118 Y43.837 E.77928
G1 X124.118 Y44.361 E.02017
G1 X137.907 Y58.15 E.75076
G1 X137.383 Y58.15 E.02017
M73 P9 R22
G1 X124.118 Y44.885 E.72224
G1 X124.118 Y45.409 E.02017
G1 X136.859 Y58.15 E.69372
G1 X136.336 Y58.15 E.02017
G1 X124.118 Y45.933 E.6652
G1 X124.118 Y46.456 E.02017
G1 X135.812 Y58.15 E.63668
G1 X135.288 Y58.15 E.02017
G1 X124.118 Y46.98 E.60816
G1 X124.118 Y47.504 E.02017
G1 X134.764 Y58.15 E.57964
G1 X134.24 Y58.15 E.02017
G1 X124.118 Y48.028 E.55111
G1 X124.118 Y48.552 E.02017
G1 X133.784 Y58.218 E.52628
G1 X133.661 Y58.27 E.00516
G1 X133.529 Y58.37 E.00635
G1 X133.478 Y58.435 E.00321
G1 X124.118 Y49.076 E.5096
G1 X124.118 Y49.599 E.02017
M73 P10 R22
G1 X133.292 Y58.773 E.49948
G1 X133.266 Y58.968 E.00758
G1 X133.266 Y59.271 E.01165
G1 X124.118 Y50.123 E.49806
G1 X124.118 Y50.647 E.02017
G1 X133.266 Y59.795 E.49806
G1 X133.266 Y60.319 E.02017
G1 X124.118 Y51.171 E.49806
G1 X124.118 Y51.695 E.02017
G1 X133.266 Y60.843 E.49806
G1 X133.266 Y61.366 E.02017
G1 X124.118 Y52.219 E.49806
G1 X124.118 Y52.742 E.02017
G1 X133.266 Y61.89 E.49806
G1 X133.266 Y62.414 E.02017
G1 X124.118 Y53.266 E.49806
G1 X124.118 Y53.79 E.02017
M73 P10 R21
G1 X128.478 Y58.15 E.23739
G1 X128.746 Y58.175 E.01037
G1 X128.861 Y58.213 E.00464
G1 X129.103 Y58.367 E.01103
G1 X129.268 Y58.579 E.01035
G1 X129.34 Y58.759 E.00748
G1 X129.368 Y59.04 E.01087
G1 X133.266 Y62.938 E.21222
G1 X133.266 Y63.462 E.02017
G1 X129.368 Y59.564 E.21222
G1 X129.368 Y60.088 E.02017
G1 X132.93 Y63.65 E.19396
G1 X132.407 Y63.65 E.02017
G1 X129.368 Y60.612 E.16544
G1 X129.368 Y61.135 E.02017
M73 P11 R21
G1 X131.883 Y63.65 E.13692
G1 X131.359 Y63.65 E.02017
G1 X129.368 Y61.659 E.1084
G1 X129.368 Y62.183 E.02017
G1 X130.835 Y63.65 E.07988
G1 X130.311 Y63.65 E.02017
G1 X129.368 Y62.707 E.05136
G1 X129.368 Y63.231 E.02017
G1 X129.952 Y63.815 E.03181
;WIPE_START
G1 F8640
G1 X129.368 Y63.231 E-.19079
G1 X129.368 Y62.707 E-.12095
G1 X130.311 Y63.65 E-.30801
G1 X130.835 Y63.65 E-.12095
G1 X129.368 Y62.183 E-.47907
G1 X129.368 Y61.706 E-.11021
;WIPE_END
G1 E-.07 F2100
G1 Z.45 F10800
G1 X128.119 Y58.315
G1 Z.25
G1 E1.4 F2100
G1 F600
G1 X124.118 Y54.314 E.21784
G1 X124.118 Y54.838 E.02017
G1 X127.43 Y58.15 E.18035
G1 X126.907 Y58.15 E.02017
G1 X124.118 Y55.362 E.15183
G1 X124.118 Y55.885 E.02017
G1 X126.383 Y58.15 E.12331
G1 X125.859 Y58.15 E.02017
G1 X124.118 Y56.409 E.09479
G1 X124.118 Y56.933 E.02017
G1 X125.335 Y58.15 E.06627
G1 X124.811 Y58.15 E.02017
G1 X124.118 Y57.457 E.03774
G1 X124.118 Y57.981 E.02017
G1 X124.452 Y58.315 E.0182
; stop printing object endstop-bracket.STL id:0 copy 0
;LAYER_CHANGE
;Z:0.45
;HEIGHT:0.2
;BEFORE_LAYER_CHANGE
G92 E0.0
;0.45


;WIPE_START
G1 F8640
G1 X124.118 Y57.981 E-.10916
G1 X124.118 Y57.457 E-.12095
G1 X124.811 Y58.15 E-.22638
G1 X125.335 Y58.15 E-.12095
G1 X124.118 Y56.933 E-.39743
G1 X124.118 Y56.409 E-.12095
G1 X124.835 Y57.126 E-.23417
;WIPE_END
G1 E-.07 F2100
G1 Z.45 F10800
;AFTER_LAYER_CHANGE
;0.45
M104 S235 ; set temperature
M140 S90 ; set bed temperature
G1 Z.65
G1 X120.701 Y57.126
G1 Z.45
G1 E1.4 F2100
;TYPE:Skirt/Brim
;WIDTH:0.42
G1 F3000
G1 X120.701 Y33.401 E.74388
G1 X120.785 Y32.105 E.04072
G1 X121.101 Y30.526 E.05049
G1 X121.756 Y28.81 E.05759
G1 X122.39 Y27.671 E.04088
G1 X123.159 Y26.632 E.04053
G1 X124.371 Y25.395 E.05431
G1 X125.762 Y24.389 E.05381
G1 X126.916 Y23.773 E.04103
G1 X128.068 Y23.338 E.03862
G1 X129.701 Y22.952 E.05258
G1 X131.483 Y22.838 E.056
G1 X132.933 Y22.952 E.04561
G1 X134.501 Y23.315 E.05045
G1 X135.958 Y23.89 E.04912
G1 X137.097 Y24.524 E.04087
G1 X138.136 Y25.294 E.04053
G1 X139.296 Y26.419 E.05068
G1 X140.244 Y27.671 E.04924
G1 X140.996 Y29.05 E.04926
G1 X141.528 Y30.508 E.04866
G1 X141.833 Y31.95 E.0462
G1 X141.933 Y33.401 E.04561
G1 X141.933 Y59.201 E.80894
G1 X141.279 Y60.835 E.05519
G1 X136.029 Y66.335 E.2384
G1 X134.317 Y67.068 E.05838
G1 X128.317 Y67.068 E.18813
G1 X126.605 Y66.335 E.05838
G1 X121.355 Y60.835 E.2384
G1 X120.701 Y59.201 E.05519
G1 X120.701 Y57.186 E.06318
; printing object endstop-bracket.STL id:0 copy 0
;WIPE_START
G1 F8640
G1 X120.701 Y51.426 E-1.33
;WIPE_END
G1 E-.07 F2100
G1 Z.65 F10800
G1 X128.428 Y58.592
G1 Z.45
G1 E1.4 F2100
M204 S800
;TYPE:Perimeter
;WIDTH:0.449999
G1 F3000
G1 X128.338 Y58.569 E.00315
G1 X123.699 Y58.569 E.15704
G1 X123.699 Y33.423 E.85115
G1 X123.775 Y32.349 E.03646
G1 X124.007 Y31.27 E.03736
G1 X124.4 Y30.227 E.03771
G1 X124.902 Y29.311 E.03537
G1 X125.539 Y28.458 E.03605
G1 X126.311 Y27.684 E.03701
G1 X127.215 Y27.014 E.03807
G1 X128.124 Y26.519 E.03504
G1 X128.827 Y26.255 E.02543
G1 X129.38 Y26.094 E.01949
G1 X130.328 Y25.902 E.03275
G1 X131.4 Y25.836 E.03636
G1 X132.444 Y25.912 E.03541
G1 X133.451 Y26.13 E.03488
G1 X134.493 Y26.512 E.03757
G1 X135.458 Y27.036 E.03718
G1 X136.311 Y27.673 E.03602
G1 X136.965 Y28.327 E.0313
G1 X137.299 Y28.732 E.01777
G1 X137.821 Y29.473 E.0307
G1 X138.319 Y30.449 E.03708
G1 X138.681 Y31.515 E.0381
G1 X138.871 Y32.534 E.03508
G1 X138.935 Y33.531 E.03381
G1 X138.935 Y58.569 E.84752
G1 X134.295 Y58.569 E.15704
G1 X134.136 Y58.59 E.00546
G1 X133.921 Y58.698 E.00812
G1 X133.753 Y58.9 E.00892
G1 X133.685 Y59.18 E.00974
G1 X133.685 Y64.069 E.1655
G1 X128.949 Y64.069 E.1603
G1 X128.949 Y59.18 E.1655
G1 X128.93 Y59.028 E.0052
G1 X128.822 Y58.806 E.00833
