; generated by PrusaSlicer 2.5.0+win64 on 2023-03-07 at 22:07:18 UTC

; 

; external perimeters extrusion width = 0.45mm
; perimeters extrusion width = 0.45mm
; infill extrusion width = 0.45mm
; solid infill extrusion width = 0.45mm
; top infill extrusion width = 0.40mm
; first layer extrusion width = 0.42mm

M73 P0 R20
M107
;TYPE:Custom
M862.3 P "MK2.5S" ; printer model check
M862.1 P0.4 ; nozzle diameter check
M115 U3.10.0 ; tell printer latest fw version
G90 ; use absolute coordinates
M83  ; extruder relative mode
M104 S240 ; set extruder temp
M140 S95 ; set bed temp
M190 S95 ; wait for bed temp
M109 S240 ; wait for extruder temp
G28 W ; home all without mesh bed level
G80 ; mesh bed leveling
G1 Y-3.0 F1000.0 ; go outside print area
G92 E0.0
G1 X60.0 E9.0 F1000.0 ; intro line
G1 X100.0 E12.5 F1000.0 ; intro line
G92 E0.0
G21 ; set units to millimeters
G90 ; use absolute coordinates
M83 ; use relative distances for extrusion
M900 K0.08 ; Filament gcode LA 1.5
M900 K45 ; Filament gcode LA 1.0
M107
;LAYER_CHANGE
;Z:0.25
;HEIGHT:0.25
;BEFORE_LAYER_CHANGE
G92 E0.0
;0.25


G1 E-1.4 F2100
G1 Z.2 F10800
G1 Z.25
;AFTER_LAYER_CHANGE
;0.25
G1 Z.45
G1 X113.802 Y72.412
G1 Z.25
G1 E1.4 F2100
M204 S1000
;TYPE:Skirt/Brim
;WIDTH:0.42
G1 F600
G1 X114.286 Y71.928 E.02605
G1 X115.051 Y71.459 E.03416
G1 X115.681 Y71.252 E.02527
G1 X116.225 Y71.177 E.02089
G1 X135.596 Y71.177 E.73761
G1 X136.119 Y71.247 E.0201
G1 X136.753 Y71.452 E.02538
G1 X137.654 Y72.03 E.04074
G1 X138.019 Y72.412 E.0201
G1 X138.476 Y73.153 E.03317
G1 X138.756 Y74.184 E.04069
G1 X138.777 Y97.536 E.88918
G1 X138.701 Y98.233 E.02667
G1 X138.552 Y98.739 E.0201
G1 X138.025 Y99.653 E.04016
G1 X137.535 Y100.145 E.02644
G1 X136.793 Y100.603 E.03321
G1 X136.119 Y100.825 E.027
G1 X135.418 Y100.902 E.02684
G1 X116.41 Y100.902 E.72378
M73 P1 R20
G1 X115.701 Y100.825 E.02716
G1 X115.221 Y100.683 E.01907
G1 X114.29 Y100.148 E.04086
G1 X113.819 Y99.681 E.0253
G1 X113.338 Y98.907 E.03466
G1 X113.124 Y98.257 E.02605
G1 X113.044 Y97.54 E.02749
G1 X113.044 Y74.536 E.87593
G1 X113.122 Y73.827 E.02715
G1 X113.264 Y73.346 E.01913
G1 X113.772 Y72.464 E.03875
; printing object sensor-bracket.STL id:0 copy 0
;WIPE_START
G1 F8640
G1 X114.286 Y71.928 E-.17141
G1 X115.051 Y71.459 E-.20717
G1 X115.681 Y71.252 E-.15321
G1 X116.225 Y71.177 E-.12666
G1 X119.133 Y71.177 E-.67155
;WIPE_END
G1 E-.07 F2100
G1 Z.45 F10800
G1 X116.187 Y77.907
G1 Z.25
G1 E1.4 F2100
;TYPE:Perimeter
;WIDTH:0.419999
G1 F600
G1 X116.276 Y78.071 E.00711
G1 X116.728 Y78.708 E.02972
G1 X117.362 Y79.163 E.02972
G1 X117.931 Y79.359 E.02291
G1 X118.401 Y79.412 E.01801
G1 X133.42 Y79.412 E.57188
G1 X134.265 Y79.248 E.0328
G1 X134.937 Y78.851 E.02972
G1 X135.345 Y78.408 E.02291
G1 X135.634 Y77.822 E.02487
G1 X135.634 Y97.484 E.74865
G1 X135.551 Y97.692 E.00852
G1 X135.337 Y97.76 E.00856
G1 X116.463 Y97.76 E.71869
G1 X116.255 Y97.677 E.00852
G1 X116.187 Y97.463 E.00856
G1 X116.187 Y77.967 E.74235
;WIPE_START
G1 F8640
M73 P2 R20
G1 X116.276 Y78.071 E-.03166
G1 X116.728 Y78.708 E-.18025
G1 X117.362 Y79.163 E-.18025
G1 X117.931 Y79.359 E-.13892
G1 X118.401 Y79.412 E-.10921
G1 X121.388 Y79.412 E-.68972
;WIPE_END
G1 E-.07 F2100
G1 Z.45 F10800
G1 X116.269 Y74.381
G1 Z.25
G1 E1.4 F2100
G1 F600
G1 X116.382 Y74.337 E.00461
G1 X116.824 Y74.313 E.01687
;WIDTH:0.464638
G1 X117.688 Y74.336 E.03691
G1 X118.044 Y74.322 E.01524
;WIDTH:0.437286
G1 X118.401 Y74.309 E.01422
;WIDTH:0.409934
G1 X133.42 Y74.315 E.55617
;WIDTH:0.405825
G1 X133.42 Y74.315 E.00001
;WIDTH:0.419488
G1 X133.955 Y74.322 E.02034
;WIDTH:0.419999
G1 X135.424 Y74.323 E.05592
G1 X135.575 Y74.412 E.00671
G1 X135.634 Y74.589 E.00708
G1 X135.634 Y76.165 E.06002
G1 X135.544 Y76.001 E.00711
G1 X135.092 Y75.365 E.02972
G1 X134.458 Y74.909 E.02972
G1 X133.889 Y74.714 E.02291
;WIDTH:0.419488
G1 X133.42 Y74.667 E.01795
;WIDTH:0.409934
G1 X118.401 Y74.665 E.55617
;WIDTH:0.415007
G1 X118.31 Y74.67 E.00341
;WIDTH:0.464638
G1 X117.722 Y74.744 E.02532
G1 X117.552 Y74.817 E.00793
;WIDTH:0.435691
G1 X116.883 Y75.222 E.03101
;WIDTH:0.419999
G1 X116.476 Y75.664 E.02291
G1 X116.187 Y76.25 E.02487
G1 X116.187 Y74.589 E.06326
G1 X116.247 Y74.436 E.00624
;WIPE_START
G1 F8640
G1 X116.382 Y74.337 E-.03876
G1 X116.824 Y74.313 E-.10231
G1 X117.688 Y74.336 E-.19949
G1 X118.044 Y74.322 E-.08237
G1 X118.401 Y74.309 E-.08237
G1 X121.973 Y74.31 E-.82469
;WIPE_END
G1 E-.07 F2100
G1 Z.45 F10800
G1 X116.389 Y76.567
G1 Z.25
G1 E1.4 F2100
;TYPE:External perimeter
;WIDTH:0.555254
G1 F600
G1 X116.497 Y76.366 E.01191
;WIDTH:0.510169
G1 X116.604 Y76.164 E.01084
;WIDTH:0.465084
G1 X116.712 Y75.963 E.00977
;WIDTH:0.419999
G1 X117.153 Y75.47 E.02518
G1 X117.73 Y75.146 E.02518
G1 X118.401 Y75.026 E.02597
G1 X133.42 Y75.026 E.57188
G1 X133.77 Y75.06 E.01342
G1 X134.34 Y75.256 E.02291
G1 X134.867 Y75.654 E.02518
G1 X135.237 Y76.202 E.02518
;WIDTH:0.458984
G1 X135.313 Y76.41 E.00933
;WIDTH:0.497968
G1 X135.39 Y76.618 E.01023
;WIDTH:0.536952
G1 X135.466 Y76.826 E.01113
G1 X135.47 Y76.885 E.00299
;WIDTH:0.555255
G1 X135.432 Y77.506 E.0324
G1 X135.324 Y77.707 E.01191
;WIDTH:0.51017
G1 X135.216 Y77.908 E.01084
;WIDTH:0.465085
G1 X135.108 Y78.109 E.00977
;WIDTH:0.419999
G1 X134.667 Y78.602 E.02518
G1 X134.091 Y78.926 E.02518
G1 X133.42 Y79.046 E.02597
G1 X118.401 Y79.046 E.57188
G1 X118.05 Y79.012 E.01343
G1 X117.481 Y78.817 E.02291
G1 X116.953 Y78.418 E.02518
G1 X116.583 Y77.87 E.02518
;WIDTH:0.454326
G1 X116.509 Y77.662 E.00922
;WIDTH:0.488653
G1 X116.435 Y77.453 E.01001
;WIDTH:0.52298
G1 X116.361 Y77.245 E.0108
;WIDTH:0.555254
G1 X116.386 Y76.627 E.03224
;WIPE_START
G1 F8640
G1 X116.497 Y76.366 E-.06548
G1 X116.604 Y76.164 E-.05274
G1 X116.712 Y75.963 E-.05274
G1 X117.153 Y75.47 E-.15267
G1 X117.73 Y75.146 E-.15267
G1 X118.401 Y75.026 E-.15746
G1 X121.416 Y75.026 E-.69625
;WIPE_END
G1 E-.07 F2100
G1 Z.45 F10800
G1 X115.956 Y74.19
G1 Z.25
G1 E1.4 F2100
;WIDTH:0.419999
G1 F600
G1 X116.138 Y74.018 E.0095
G1 X116.44 Y73.946 E.01185
G1 X135.379 Y73.957 E.72114
G1 X135.67 Y74.011 E.01125
M73 P3 R20
G1 X135.813 Y74.133 E.00717
G1 X135.968 Y74.355 E.01029
G1 X136 Y74.611 E.00984
G1 X136 Y76.165 E.05917
;WIDTH:0.45679
G1 X135.982 Y76.418 E.01064
;WIDTH:0.493581
G1 X135.963 Y76.671 E.01161
;WIDTH:0.530371
G1 X135.945 Y76.925 E.01258
G1 X135.953 Y77.695 E.03816
;WIDTH:0.515297
G1 X135.976 Y77.996 E.01448
;WIDTH:0.467648
G1 X136 Y78.296 E.01298
;WIDTH:0.419999
G1 X136 Y97.424 E.72833
G1 X135.969 Y97.71 E.01098
G1 X135.864 Y97.883 E.00769
G1 X135.683 Y98.054 E.0095
G1 X135.38 Y98.126 E.01185
G1 X116.523 Y98.126 E.71804
G1 X116.236 Y98.095 E.01098
G1 X116.064 Y97.99 E.00769
G1 X115.892 Y97.809 E.0095
G1 X115.82 Y97.506 E.01185
G1 X115.82 Y77.907 E.74626
;WIDTH:0.45679
G1 X115.839 Y77.654 E.01064
;WIDTH:0.493581
M73 P3 R19
G1 X115.857 Y77.401 E.01161
;WIDTH:0.530372
G1 X115.875 Y77.148 E.01258
;WIDTH:0.555254
G1 X115.888 Y76.546 E.03137
G1 X115.873 Y76.462 E.00446
;WIDTH:0.526531
G1 X115.859 Y76.378 E.0042
;WIDTH:0.497808
G1 X115.84 Y76.077 E.01392
;WIDTH:0.458904
G1 X115.82 Y75.776 E.0127
;WIDTH:0.419999
G1 X115.82 Y74.95 E.03145
G1 X115.851 Y74.362 E.02242
G1 X115.925 Y74.241 E.0054
G1 X116.205 Y74.209 F10800
G1 X116.52 Y74.422
;TYPE:Solid infill
;WIDTH:0.493269
G1 F600
G1 X116.944 Y74.847 E.02742
G1 X116.781 Y74.943 E.00867
G1 X116.604 Y75.129 E.0117
G1 X116.296 Y74.821 E.0199
;WIPE_START
G1 F8640
G1 X116.604 Y75.129 E-.10056
G1 X116.781 Y74.943 E-.05912
G1 X116.944 Y74.847 E-.04381
G1 X116.52 Y74.422 E-.13859
;WIPE_END
G1 E-1.05792 F2100
G1 Z.45 F10800
G1 X134.76 Y74.432
G1 Z.25
G1 E1.4 F2100
;WIDTH:0.430835
G1 F600
G1 X135.524 Y75.196 E.04237
;WIPE_START
G1 F8640
G1 X134.76 Y74.432 E-.24957
;WIPE_END
G1 E-1.15043 F2100
G1 Z.45 F10800
G1 X135.524 Y79.091
G1 Z.25
G1 E1.4 F2100
;WIDTH:0.421681
G1 F600
G1 X135.298 Y78.864 E.01224
G1 X135.134 Y79.042 E.00924
G1 X135.033 Y79.121 E.00488
G1 X135.359 Y79.446 E.01762
G1 X135.359 Y79.967 E.01991
G1 X134.711 Y79.319 E.03505
G1 X134.371 Y79.499 E.01472
G1 X135.359 Y80.487 E.05344
G1 X135.359 Y81.008 E.01991
G1 X133.957 Y79.606 E.07585
G1 X133.506 Y79.675 E.01746
G1 X135.359 Y81.528 E.10025
G1 X135.359 Y82.049 E.01991
G1 X132.998 Y79.687 E.12775
G1 X132.477 Y79.687 E.01991
G1 X135.359 Y82.569 E.15592
G1 X135.359 Y83.09 E.01991
G1 X131.956 Y79.687 E.18408
G1 X131.436 Y79.687 E.01991
G1 X135.359 Y83.61 E.21224
G1 X135.359 Y84.131 E.01991
G1 X130.915 Y79.687 E.2404
G1 X130.395 Y79.687 E.01991
G1 X135.359 Y84.651 E.26856
G1 X135.359 Y85.172 E.01991
M73 P4 R19
G1 X129.874 Y79.687 E.29672
G1 X129.354 Y79.687 E.01991
G1 X135.359 Y85.692 E.32488
G1 X135.359 Y86.213 E.01991
G1 X128.833 Y79.686 E.35304
G1 X128.312 Y79.686 E.01991
G1 X135.359 Y86.733 E.3812
G1 X135.359 Y87.253 E.01991
G1 X127.792 Y79.686 E.40936
G1 X127.271 Y79.686 E.01991
G1 X135.359 Y87.774 E.43752
G1 X135.359 Y88.294 E.01991
G1 X126.751 Y79.686 E.46568
G1 X126.23 Y79.686 E.01991
G1 X135.359 Y88.815 E.49384
G1 X135.359 Y89.335 E.01991
G1 X125.71 Y79.686 E.52201
G1 X125.189 Y79.686 E.01991
G1 X135.359 Y89.856 E.55017
G1 X135.359 Y90.376 E.01991
G1 X124.669 Y79.686 E.57833
G1 X124.148 Y79.686 E.01991
M73 P5 R19
G1 X135.359 Y90.897 E.60649
G1 X135.359 Y91.417 E.01991
G1 X123.627 Y79.686 E.63465
G1 X123.107 Y79.686 E.01991
G1 X135.359 Y91.938 E.66281
G1 X135.359 Y92.458 E.01991
G1 X122.586 Y79.685 E.69097
G1 X122.066 Y79.685 E.01991
G1 X135.359 Y92.979 E.71913
G1 X135.359 Y93.499 E.01991
G1 X121.545 Y79.685 E.74729
G1 X121.025 Y79.685 E.01991
G1 X135.359 Y94.02 E.77545
G1 X135.359 Y94.54 E.01991
M73 P6 R19
G1 X120.504 Y79.685 E.80361
G1 X119.984 Y79.685 E.01991
G1 X135.359 Y95.061 E.83177
G1 X135.359 Y95.581 E.01991
G1 X119.463 Y79.685 E.85993
G1 X118.942 Y79.685 E.01991
G1 X135.359 Y96.102 E.8881
G1 X135.359 Y96.622 E.01991
G1 X118.422 Y79.685 E.91626
G1 X118.036 Y79.66 E.0148
M73 P7 R19
G1 X117.832 Y79.615 E.00799
G1 X135.359 Y97.143 E.94819
G1 X135.352 Y97.474 E.01268
G1 X135.181 Y97.485 E.00656
G1 X116.836 Y79.139 E.99245
G1 X116.553 Y78.92 E.01368
G1 X116.461 Y78.82 E.0052
G1 X116.461 Y79.286 E.01782
G1 X134.661 Y97.485 E.98454
G1 X134.14 Y97.485 E.01991
G1 X116.461 Y79.806 E.95638
G1 X116.461 Y80.327 E.01991
G1 X133.62 Y97.485 E.92822
G1 X133.099 Y97.485 E.01991
M73 P8 R19
G1 X116.461 Y80.847 E.90007
G1 X116.461 Y81.368 E.01991
G1 X132.579 Y97.485 E.87191
G1 X132.058 Y97.485 E.01991
M73 P8 R18
G1 X116.461 Y81.888 E.84375
G1 X116.461 Y82.408 E.01991
G1 X131.538 Y97.485 E.8156
G1 X131.017 Y97.485 E.01991
G1 X116.461 Y82.929 E.78744
G1 X116.461 Y83.449 E.01991
M73 P9 R18
G1 X130.497 Y97.485 E.75929
G1 X129.976 Y97.485 E.01991
G1 X116.461 Y83.97 E.73113
G1 X116.461 Y84.49 E.01991
G1 X129.456 Y97.485 E.70297
G1 X128.936 Y97.485 E.01991
G1 X116.461 Y85.011 E.67482
G1 X116.461 Y85.531 E.01991
G1 X128.415 Y97.485 E.64666
G1 X127.895 Y97.485 E.01991
G1 X116.461 Y86.052 E.61851
G1 X116.461 Y86.572 E.01991
G1 X127.374 Y97.485 E.59035
G1 X126.854 Y97.485 E.01991
M73 P10 R18
G1 X116.461 Y87.093 E.56219
G1 X116.461 Y87.613 E.01991
G1 X126.333 Y97.485 E.53404
G1 X125.813 Y97.485 E.01991
G1 X116.461 Y88.134 E.50588
G1 X116.461 Y88.654 E.01991
G1 X125.292 Y97.485 E.47773
G1 X124.772 Y97.485 E.01991
G1 X116.461 Y89.175 E.44957
G1 X116.461 Y89.695 E.01991
G1 X124.251 Y97.485 E.42141
G1 X123.731 Y97.485 E.01991
G1 X116.461 Y90.216 E.39326
G1 X116.461 Y90.736 E.01991
G1 X123.21 Y97.485 E.3651
G1 X122.69 Y97.485 E.01991
G1 X116.461 Y91.257 E.33694
G1 X116.461 Y91.777 E.01991
G1 X122.169 Y97.485 E.30879
G1 X121.649 Y97.485 E.01991
G1 X116.461 Y92.297 E.28063
G1 X116.461 Y92.818 E.01991
M73 P11 R18
G1 X121.128 Y97.485 E.25248
G1 X120.608 Y97.485 E.01991
G1 X116.461 Y93.338 E.22432
G1 X116.461 Y93.859 E.01991
G1 X120.087 Y97.485 E.19616
G1 X119.567 Y97.485 E.01991
G1 X116.461 Y94.379 E.16801
G1 X116.461 Y94.9 E.01991
G1 X119.046 Y97.485 E.13985
G1 X118.526 Y97.485 E.01991
G1 X116.461 Y95.42 E.1117
G1 X116.461 Y95.941 E.01991
G1 X118.006 Y97.485 E.08354
G1 X117.485 Y97.485 E.01991
G1 X116.461 Y96.461 E.05538
G1 X116.461 Y96.982 E.01991
G1 X117.129 Y97.65 E.03615
; stop printing object sensor-bracket.STL id:0 copy 0
;LAYER_CHANGE
;Z:0.45
;HEIGHT:0.2
;BEFORE_LAYER_CHANGE
G92 E0.0
;0.45


;WIPE_START
G1 F8640
G1 X116.461 Y96.982 E-.21818
G1 X116.461 Y96.461 E-.12018
G1 X117.485 Y97.485 E-.33431
G1 X118.006 Y97.485 E-.12018
G1 X116.461 Y95.941 E-.50427
G1 X116.461 Y95.798 E-.03288
;WIPE_END
G1 E-.07 F2100
G1 Z.45 F10800
;AFTER_LAYER_CHANGE
;0.45
M104 S235 ; set temperature
M140 S90 ; set bed temperature
G1 Z.65
G1 X113.044 Y95.798
G1 Z.45
G1 E1.4 F2100
;TYPE:Skirt/Brim
;WIDTH:0.42
G1 F3000
G1 X113.044 Y74.536 E.66666
G1 X113.122 Y73.827 E.02236
G1 X113.264 Y73.346 E.01576
G1 X113.802 Y72.412 E.03379
G1 X114.286 Y71.928 E.02145
G1 X115.051 Y71.459 E.02813
G1 X115.681 Y71.252 E.0208
G1 X116.225 Y71.177 E.0172
G1 X135.596 Y71.177 E.60737
G1 X136.119 Y71.247 E.01655
G1 X136.753 Y71.452 E.0209
G1 X137.654 Y72.03 E.03354
G1 X138.019 Y72.412 E.01655
G1 X138.476 Y73.153 E.02731
G1 X138.756 Y74.184 E.03351
G1 X138.777 Y97.536 E.73218
G1 X138.701 Y98.233 E.02196
G1 X138.552 Y98.739 E.01655
G1 X138.025 Y99.653 E.03307
G1 X137.535 Y100.145 E.02177
G1 X136.793 Y100.603 E.02735
G1 X136.119 Y100.825 E.02224
G1 X135.418 Y100.902 E.0221
G1 X116.41 Y100.902 E.59598
G1 X115.701 Y100.825 E.02236
G1 X115.221 Y100.683 E.0157
G1 X114.29 Y100.148 E.03365
G1 X113.819 Y99.681 E.02083
G1 X113.338 Y98.907 E.02854
G1 X113.124 Y98.257 E.02145
G1 X113.044 Y97.54 E.02264
G1 X113.044 Y95.858 E.05272
; printing object sensor-bracket.STL id:0 copy 0
;WIPE_START
G1 F8640
G1 X113.044 Y90.098 E-1.33
;WIPE_END
G1 E-.07 F2100
G1 Z.65 F10800
G1 X117.356 Y78.98
G1 Z.45
G1 E1.4 F2100
M204 S800
;TYPE:Perimeter
;WIDTH:0.449999
G1 F3000
G1 X117.44 Y79.04 E.0035
G1 X117.945 Y79.213 E.01807
G1 X118.409 Y79.268 E.01583
G1 X133.411 Y79.268 E.50779
G1 X134.227 Y79.107 E.02816
G1 X134.855 Y78.729 E.0248
G1 X135.327 Y78.168 E.0248
;WIDTH:0.49901
G1 X135.415 Y78.015 E.0067
;WIDTH:0.548021
G1 X135.503 Y77.862 E.00742
;WIDTH:0.597032
G1 X135.592 Y77.71 E.00814
;WIDTH:0.646042
G1 X135.68 Y77.557 E.00886
G1 X135.701 Y77.643 E.00446
;WIDTH:0.603309
G1 X135.723 Y77.729 E.00414
;WIDTH:0.560576
G1 X135.741 Y77.907 E.0077
;WIDTH:0.523717
G1 X135.76 Y78.085 E.00715
;WIDTH:0.486858
G1 X135.778 Y78.263 E.0066
;WIDTH:0.449999
G1 X135.778 Y97.404 E.64789
G1 X135.753 Y97.647 E.0083
G1 X135.57 Y97.848 E.00919
G1 X135.337 Y97.904 E.0081
G1 X116.543 Y97.904 E.63616
G1 X116.402 Y97.895 E.00476
G1 X116.141 Y97.771 E.00977
G1 X116.042 Y97.463 E.01096
G1 X116.042 Y77.874 E.66307
;WIDTH:0.487907
G1 X116.061 Y77.727 E.00546
;WIDTH:0.525815
G1 X116.08 Y77.581 E.00592
;WIDTH:0.563723
G1 X116.099 Y77.435 E.00639
;WIDTH:0.60163
G1 X116.118 Y77.289 E.00685
G1 X116.138 Y77.336 E.0024
;WIDTH:0.582094
G1 X116.23 Y77.565 E.01104
;WIDTH:0.538063
G1 X116.322 Y77.793 E.01014
;WIDTH:0.494031
G1 X116.414 Y78.022 E.00924
;WIDTH:0.449999
G1 X116.842 Y78.616 E.0248
G1 X117.307 Y78.945 E.01927
M204 S1000
;WIPE_START
G1 F8640
G1 X117.44 Y79.04 E-.03774
G1 X117.945 Y79.213 E-.12325
G1 X118.409 Y79.268 E-.10796
G1 X123.005 Y79.268 E-1.06105
;WIPE_END
G1 E-.07 F2100
G1 Z.65 F10800
G1 X116.136 Y76.58
G1 Z.45
G1 E1.4 F2100
M204 S800
;WIDTH:0.637792
G1 F3000
G1 X116.118 Y76.501 E.00401
;WIDTH:0.600451
G1 X116.099 Y76.422 E.00376
;WIDTH:0.563109
G1 X116.08 Y76.343 E.00351
;WIDTH:0.525767
G1 X116.061 Y75.931 E.01657
;WIDTH:0.487883
G1 X116.042 Y75.518 E.01527
;WIDTH:0.449999
G1 X116.051 Y74.528 E.03352
G1 X116.175 Y74.267 E.00977
G1 X116.356 Y74.199 E.00654
G1 X116.841 Y74.168 E.01646
;WIDTH:0.477281
G1 X117.386 Y74.182 E.01969
;WIDTH:0.523041
G1 X117.498 Y74.205 E.00457
;WIDTH:0.5688
G1 X117.61 Y74.228 E.00501
;WIDTH:0.614559
G1 X117.723 Y74.251 E.00544
G1 X118.066 Y74.239 E.01633
;WIDTH:0.589165
G1 X118.409 Y74.226 E.01561
;WIDTH:0.563771
G1 X133.411 Y74.233 E.64971
;WIDTH:0.560745
G1 X133.738 Y74.219 E.0141
;WIDTH:0.530356
G1 X133.989 Y74.204 E.01018
;WIDTH:0.499967
G1 X134.523 Y74.179 E.02031
;WIDTH:0.449999
G1 X135.461 Y74.18 E.03176
G1 X135.693 Y74.33 E.00936
G1 X135.778 Y74.568 E.00854
G1 X135.778 Y76.199 E.05521
;WIDTH:0.490621
