; generated by PrusaSlicer 2.5.0+win64 on 2023-03-09 at 14:25:18 UTC

; 

; external perimeters extrusion width = 0.45mm
; perimeters extrusion width = 0.45mm
; infill extrusion width = 0.45mm
; solid infill extrusion width = 0.45mm
; top infill extrusion width = 0.40mm
; support material extrusion width = 0.35mm
; first layer extrusion width = 0.42mm

M73 P0 R21
M107
;TYPE:Custom
M862.3 P "MK2.5S" ; printer model check
M862.1 P0.4 ; nozzle diameter check
M115 U3.10.0 ; tell printer latest fw version
G90 ; use absolute coordinates
M83  ; extruder relative mode
M104 S240 ; set extruder temp
M140 S95 ; set bed temp
M190 S95 ; wait for bed temp
M109 S240 ; wait for extruder temp
G28 W ; home all without mesh bed level
G80 ; mesh bed leveling
G1 Y-3.0 F1000.0 ; go outside print area
G92 E0.0
G1 X60.0 E9.0 F1000.0 ; intro line
G1 X100.0 E12.5 F1000.0 ; intro line
G92 E0.0
G21 ; set units to millimeters
G90 ; use absolute coordinates
M83 ; use relative distances for extrusion
M900 K0.08 ; Filament gcode LA 1.5
M900 K45 ; Filament gcode LA 1.0
M107
;LAYER_CHANGE
;Z:0.25
;HEIGHT:0.25
;BEFORE_LAYER_CHANGE
G92 E0.0
;0.25


G1 E-1.4 F2100
G1 Z.2 F10800
G1 Z.25
;AFTER_LAYER_CHANGE
;0.25
G1 Z.45
G1 X115.347 Y21.381
G1 Z.25
G1 E1.4 F2100
M204 S1000
;TYPE:Skirt/Brim
;WIDTH:0.42
G1 F600
G1 X115.774 Y20.411 E.04037
G1 X116.357 Y19.729 E.03416
G1 X116.911 Y19.327 E.02605
G1 X117.715 Y18.99 E.0332
G1 X118.408 Y18.877 E.02672
G1 X137.787 Y18.876 E.73791
G1 X138.31 Y18.947 E.0201
G1 X138.944 Y19.151 E.02538
G1 X139.845 Y19.729 E.04074
G1 X140.209 Y20.111 E.0201
G1 X140.667 Y20.852 E.03317
G1 X140.946 Y21.883 E.04069
G1 X140.967 Y48.235 E1.00342
G1 X140.856 Y49.084 E.03261
G1 X140.434 Y50.049 E.04007
G1 X139.845 Y50.742 E.03465
G1 X139.298 Y51.14 E.02576
G1 X138.462 Y51.487 E.03446
G1 X137.795 Y51.594 E.02575
G1 X118.601 Y51.602 E.73085
G1 X117.747 Y51.489 E.03279
M73 P1 R21
G1 X116.794 Y51.072 E.03963
G1 X116.112 Y50.498 E.03393
G1 X115.705 Y49.946 E.02614
G1 X115.352 Y49.109 E.03458
G1 X115.235 Y48.239 E.03342
G1 X115.235 Y22.235 E.99016
G1 X115.339 Y21.441 E.03051
; printing object sensor-bracket.STL id:0 copy 0
;WIPE_START
G1 F8640
G1 X115.774 Y20.411 E-.25815
G1 X116.357 Y19.729 E-.20717
G1 X116.911 Y19.327 E-.15799
G1 X117.715 Y18.99 E-.20134
G1 X118.408 Y18.877 E-.16201
G1 X119.894 Y18.877 E-.34334
;WIPE_END
G1 E-.07 F2100
G1 Z.45 F10800
G1 X120.864 Y23.354
G1 Z.25
G1 E1.4 F2100
;TYPE:Perimeter
;WIDTH:0.419999
G1 F600
G1 X120.444 Y23.454 E.01643
G1 X119.999 Y23.641 E.0184
G1 X119.59 Y23.899 E.0184
G1 X119.23 Y24.221 E.0184
G1 X118.927 Y24.597 E.0184
G1 X118.69 Y25.019 E.0184
;WIDTH:0.462548
G1 X118.607 Y25.196 E.00832
;WIDTH:0.505096
M73 P1 R20
G1 X118.524 Y25.373 E.00919
;WIDTH:0.547644
G1 X118.441 Y25.551 E.01005
G1 X118.42 Y25.386 E.00854
;WIDTH:0.505096
G1 X118.399 Y25.221 E.00781
;WIDTH:0.462548
G1 X118.377 Y25.056 E.00707
;WIDTH:0.419999
G1 X118.377 Y22.288 E.10539
G1 X118.46 Y22.08 E.00852
G1 X118.674 Y22.012 E.00855
G1 X137.561 Y22.022 E.71919
G1 X137.761 Y22.094 E.00809
G1 X137.825 Y22.288 E.00776
G1 X137.825 Y24.939 E.10097
;WIDTH:0.462549
G1 X137.803 Y25.143 E.00871
;WIDTH:0.505099
G1 X137.782 Y25.347 E.00961
;WIDTH:0.547648
G1 X137.761 Y25.551 E.01052
G1 X137.72 Y25.458 E.0052
;WIDTH:0.514732
G1 X137.523 Y25.065 E.02105
;WIDTH:0.467366
G1 X137.325 Y24.673 E.01889
;WIDTH:0.419999
G1 X137.034 Y24.287 E.0184
G1 X136.684 Y23.955 E.0184
G1 X136.374 Y23.744 E.01425
G1 X135.844 Y23.483 E.02251
G1 X135.377 Y23.357 E.0184
G1 X134.861 Y23.309 E.01976
G1 X121.342 Y23.309 E.51477
G1 X120.922 Y23.342 E.01601
;WIPE_START
G1 F8640
G1 X120.444 Y23.454 E-.11345
G1 X119.999 Y23.641 E-.11157
G1 X119.59 Y23.899 E-.11157
G1 X119.23 Y24.221 E-.11157
G1 X118.927 Y24.597 E-.11156
G1 X118.69 Y25.019 E-.11157
G1 X118.607 Y25.196 E-.04522
G1 X118.524 Y25.373 E-.04522
G1 X118.441 Y25.551 E-.04522
G1 X118.42 Y25.386 E-.03842
G1 X118.399 Y25.221 E-.03842
G1 X118.377 Y25.056 E-.03842
G1 X118.377 Y23.289 E-.4078
;WIPE_END
G1 E-.07 F2100
G1 Z.45 F10800
G1 X118.442 Y26.925
G1 Z.25
G1 E1.4 F2100
;WIDTH:0.548514
G1 F600
G1 X118.512 Y27.073 E.00844
;WIDTH:0.505676
G1 X118.583 Y27.221 E.00771
;WIDTH:0.462838
G1 X118.654 Y27.369 E.00698
;WIDTH:0.419999
G1 X118.893 Y27.819 E.01941
G1 X119.168 Y28.183 E.01737
G1 X119.518 Y28.516 E.0184
G1 X119.919 Y28.786 E.0184
G1 X120.358 Y28.987 E.0184
G1 X120.825 Y29.113 E.0184
G1 X121.342 Y29.162 E.01977
G1 X134.86 Y29.162 E.51476
G1 X135.288 Y29.128 E.01632
G1 X135.758 Y29.017 E.0184
G1 X136.203 Y28.829 E.0184
G1 X136.612 Y28.571 E.0184
G1 X136.972 Y28.25 E.0184
G1 X137.275 Y27.873 E.0184
G1 X137.512 Y27.452 E.0184
;WIDTH:0.462836
G1 X137.595 Y27.276 E.00826
;WIDTH:0.505673
G1 X137.677 Y27.101 E.00913
;WIDTH:0.54851
G1 X137.76 Y26.925 E.00999
G1 X137.782 Y27.088 E.00847
;WIDTH:0.505673
G1 X137.803 Y27.252 E.00774
;WIDTH:0.462836
G1 X137.825 Y27.415 E.007
;WIDTH:0.419999
G1 X137.825 Y48.183 E.79079
G1 X137.742 Y48.391 E.00852
M73 P2 R20
G1 X137.528 Y48.459 E.00856
G1 X118.713 Y48.459 E.71641
G1 X118.555 Y48.444 E.00604
G1 X118.445 Y48.376 E.0049
G1 X118.377 Y48.162 E.00856
G1 X118.377 Y27.538 E.78533
;WIDTH:0.462838
G1 X118.399 Y27.333 E.00873
;WIDTH:0.505676
G1 X118.42 Y27.129 E.00965
;WIDTH:0.548514
G1 X118.435 Y26.985 E.00748
;WIPE_START
G1 F8640
G1 X118.512 Y27.073 E-.02706
G1 X118.583 Y27.221 E-.03787
G1 X118.654 Y27.369 E-.03787
G1 X118.893 Y27.819 E-.11772
G1 X119.168 Y28.183 E-.10533
G1 X119.518 Y28.516 E-.11157
G1 X119.919 Y28.786 E-.11157
G1 X120.358 Y28.987 E-.11157
G1 X120.825 Y29.113 E-.11157
G1 X121.342 Y29.162 E-.11987
G1 X123.239 Y29.162 E-.43801
;WIPE_END
G1 E-.07 F2100
G1 Z.45 F10800
G1 X118.147 Y21.889
G1 Z.25
G1 E1.4 F2100
;TYPE:External perimeter
;WIDTH:0.419999
G1 F600
G1 X118.328 Y21.717 E.0095
G1 X118.631 Y21.645 E.01185
G1 X137.686 Y21.656 E.72557
G1 X137.951 Y21.766 E.01092
G1 X138.111 Y21.96 E.00959
G1 X138.191 Y22.259 E.01179
G1 X138.191 Y48.123 E.98482
G1 X138.16 Y48.409 E.01098
G1 X138.055 Y48.582 E.00769
G1 X137.874 Y48.753 E.0095
G1 X137.571 Y48.825 E.01185
G1 X118.713 Y48.825 E.71804
G1 X118.427 Y48.794 E.01098
M73 P3 R20
G1 X118.254 Y48.689 E.00769
G1 X118.083 Y48.508 E.0095
G1 X118.011 Y48.205 E.01185
G1 X118.011 Y22.953 E.96154
G1 X118.042 Y22.061 E.03398
G1 X118.116 Y21.94 E.0054
G1 X118.396 Y21.904 F10800
;WIPE_START
G1 F8640
G1 X118.328 Y21.717 E-.07109
G1 X118.631 Y21.645 E-.07187
G1 X123.772 Y21.648 E-1.18705
;WIPE_END
G1 E-.07 F2100
G1 Z.45 F10800
G1 X120.944 Y23.707
G1 Z.25
G1 E1.4 F2100
G1 F600
G1 X121.342 Y23.675 E.01517
G1 X134.86 Y23.675 E.51476
G1 X135.287 Y23.712 E.01631
G1 X135.697 Y23.819 E.0161
G1 X136.174 Y24.05 E.02021
G1 X136.435 Y24.224 E.01195
G1 X136.745 Y24.512 E.0161
G1 X137.003 Y24.848 E.0161
G1 X137.202 Y25.221 E.0161
G1 X137.336 Y25.621 E.0161
G1 X137.404 Y26.039 E.0161
G1 X137.401 Y26.462 E.0161
G1 X137.329 Y26.878 E.0161
G1 X137.189 Y27.277 E.0161
G1 X136.986 Y27.648 E.0161
G1 X136.724 Y27.98 E.0161
G1 X136.412 Y28.265 E.0161
G1 X136.056 Y28.494 E.0161
G1 X135.668 Y28.662 E.0161
G1 X135.257 Y28.763 E.0161
G1 X134.86 Y28.795 E.01517
G1 X121.342 Y28.795 E.51476
G1 X120.915 Y28.758 E.01632
G1 X120.505 Y28.652 E.0161
G1 X120.119 Y28.48 E.0161
G1 X119.767 Y28.246 E.0161
G1 X119.457 Y27.958 E.0161
G1 X119.214 Y27.642 E.01519
G1 X119 Y27.25 E.01699
G1 X118.865 Y26.849 E.01611
G1 X118.798 Y26.432 E.0161
G1 X118.801 Y26.009 E.0161
G1 X118.873 Y25.592 E.0161
G1 X119.013 Y25.193 E.0161
G1 X119.216 Y24.822 E.0161
G1 X119.478 Y24.49 E.0161
G1 X119.79 Y24.206 E.0161
G1 X120.146 Y23.976 E.0161
G1 X120.534 Y23.809 E.0161
G1 X120.886 Y23.722 E.01382
G1 X121.085 Y23.335 F10800
;WIPE_START
G1 F8640
G1 X121.342 Y23.675 E-.10569
G1 X126.644 Y23.675 E-1.22431
;WIPE_END
G1 E-.07 F2100
G1 Z.45 F10800
G1 X137.761 Y25.551
G1 Z.25
G1 E1.4 F2100
;TYPE:Perimeter
;WIDTH:0.547648
G1 F600
G1 X137.779 Y25.991 E.02264
;WIDTH:0.511147
G1 X137.797 Y26.432 E.02096
;WIDTH:0.511578
G1 X137.779 Y26.678 E.01177
;WIDTH:0.54851
G1 X137.76 Y26.925 E.01272
;WIPE_START
G1 F8640
G1 X137.779 Y26.678 E-.05712
G1 X137.797 Y26.432 E-.05712
G1 X137.779 Y25.991 E-.1018
G1 X137.761 Y25.551 E-.1018
;WIPE_END
G1 E-1.08217 F2100
G1 Z.45 F10800
G1 X118.442 Y26.925
G1 Z.25
G1 E1.4 F2100
;WIDTH:0.548514
G1 F600
G1 X118.423 Y26.482 E.02281
;WIDTH:0.51158
G1 X118.405 Y26.039 E.0211
;WIDTH:0.511145
G1 X118.423 Y25.795 E.01164
;WIDTH:0.547644
G1 X118.441 Y25.551 E.01257
;WIPE_START
G1 F8640
G1 X118.423 Y25.795 E-.05653
G1 X118.405 Y26.039 E-.05653
G1 X118.423 Y26.482 E-.10239
G1 X118.442 Y26.925 E-.10239
;WIPE_END
G1 E-1.08217 F2100
G1 Z.45 F10800
G1 X136.974 Y22.131
G1 Z.25
G1 E1.4 F2100
;TYPE:Solid infill
;WIDTH:0.420079
G1 F600
G1 X137.55 Y22.708 E.03104
G1 X137.55 Y23.226 E.01974
G1 X136.62 Y22.296 E.05008
G1 X136.102 Y22.296 E.01975
G1 X137.55 Y23.744 E.07801
G1 X137.55 Y24.262 E.01974
G1 X135.583 Y22.296 E.10594
G1 X135.065 Y22.295 E.01975
G1 X136.057 Y23.288 E.05344
G1 X135.832 Y23.189 E.00936
G1 X135.321 Y23.07 E.01997
G1 X134.546 Y22.295 E.04175
G1 X134.028 Y22.295 E.01975
G1 X134.767 Y23.034 E.03982
G1 X134.249 Y23.034 E.01974
G1 X133.509 Y22.294 E.03984
G1 X132.991 Y22.294 E.01975
G1 X133.731 Y23.034 E.03985
G1 X133.212 Y23.034 E.01974
G1 X132.472 Y22.294 E.03987
G1 X131.954 Y22.294 E.01975
G1 X132.694 Y23.034 E.03989
G1 X132.176 Y23.034 E.01974
G1 X131.435 Y22.293 E.0399
G1 X130.917 Y22.293 E.01975
G1 X131.658 Y23.034 E.03992
G1 X131.139 Y23.034 E.01974
G1 X130.398 Y22.293 E.03993
G1 X129.88 Y22.292 E.01975
G1 X130.621 Y23.034 E.03995
G1 X130.103 Y23.034 E.01974
G1 X129.361 Y22.292 E.03996
G1 X128.843 Y22.292 E.01975
G1 X129.585 Y23.034 E.03998
G1 X129.067 Y23.034 E.01974
G1 X128.324 Y22.292 E.03999
G1 X127.806 Y22.291 E.01975
M73 P4 R20
G1 X128.548 Y23.034 E.04001
G1 X128.03 Y23.034 E.01974
G1 X127.287 Y22.291 E.04002
G1 X126.769 Y22.291 E.01975
G1 X127.512 Y23.034 E.04004
G1 X126.994 Y23.034 E.01974
G1 X126.25 Y22.29 E.04005
G1 X125.732 Y22.29 E.01975
G1 X126.476 Y23.034 E.04007
G1 X125.957 Y23.034 E.01974
G1 X125.213 Y22.29 E.04008
G1 X124.695 Y22.29 E.01975
G1 X125.439 Y23.034 E.0401
G1 X124.921 Y23.034 E.01974
G1 X124.176 Y22.289 E.04011
G1 X123.658 Y22.289 E.01975
G1 X124.403 Y23.034 E.04013
G1 X123.885 Y23.034 E.01974
G1 X123.139 Y22.289 E.04015
G1 X122.621 Y22.288 E.01975
G1 X123.366 Y23.034 E.04016
G1 X122.848 Y23.034 E.01974
G1 X122.102 Y22.288 E.04018
G1 X121.584 Y22.288 E.01975
G1 X122.33 Y23.034 E.04019
G1 X121.812 Y23.034 E.01974
G1 X121.065 Y22.288 E.04021
G1 X120.547 Y22.287 E.01975
G1 X121.297 Y23.037 E.04039
G1 X120.825 Y23.084 E.01804
G1 X120.028 Y22.287 E.04293
G1 X119.51 Y22.287 E.01975
G1 X120.412 Y23.189 E.04858
G1 X120.254 Y23.229 E.0062
G1 X120.035 Y23.33 E.00919
G1 X118.991 Y22.286 E.05621
G1 X118.722 Y22.286 E.01025
G1 X118.658 Y22.299 E.00249
G1 X118.652 Y22.465 E.00633
G1 X119.691 Y23.505 E.05597
G1 X119.386 Y23.717 E.01418
G1 X118.652 Y22.984 E.03951
G1 X118.652 Y23.502 E.01974
G1 X119.116 Y23.966 E.02497
G1 X118.956 Y24.113 E.00827
G1 X118.863 Y24.231 E.00574
G1 X118.487 Y23.855 E.02026
;WIPE_START
G1 F8640
G1 X118.863 Y24.231 E-.12285
G1 X118.956 Y24.113 E-.03477
G1 X119.116 Y23.966 E-.05015
G1 X118.652 Y23.502 E-.1514
G1 X118.652 Y22.984 E-.11966
G1 X119.386 Y23.717 E-.23951
G1 X119.691 Y23.505 E-.08597
G1 X118.652 Y22.465 E-.33933
G1 X118.658 Y22.299 E-.03839
G1 X118.722 Y22.286 E-.01508
G1 X118.991 Y22.286 E-.06212
G1 X119.208 Y22.503 E-.07078
;WIPE_END
G1 E-.07 F2100
G1 Z.45 F10800
G1 X137.715 Y28.621
G1 Z.25
G1 E1.4 F2100
;WIDTH:0.422892
G1 F600
G1 X137.332 Y28.239 E.02075
G1 X137.088 Y28.517 E.0142
G1 X137.55 Y28.979 E.02506
G1 X137.55 Y29.501 E.02004
G1 X136.809 Y28.76 E.0402
G1 X136.499 Y28.972 E.01442
G1 X137.55 Y30.023 E.05705
G1 X137.55 Y30.545 E.02004
G1 X136.148 Y29.143 E.0761
G1 X135.777 Y29.294 E.01537
G1 X137.55 Y31.067 E.09623
G1 X137.55 Y31.589 E.02004
G1 X135.353 Y29.393 E.11922
G1 X134.874 Y29.436 E.01848
G1 X137.55 Y32.112 E.14525
G1 X137.55 Y32.634 E.02004
G1 X134.352 Y29.436 E.17355
G1 X133.83 Y29.436 E.02004
G1 X137.55 Y33.156 E.20189
G1 X137.55 Y33.678 E.02004
G1 X133.308 Y29.436 E.23023
G1 X132.786 Y29.436 E.02004
G1 X137.55 Y34.2 E.25857
G1 X137.55 Y34.723 E.02004
G1 X132.264 Y29.436 E.28692
G1 X131.741 Y29.436 E.02004
G1 X137.55 Y35.245 E.31526
G1 X137.55 Y35.767 E.02004
G1 X131.219 Y29.436 E.3436
G1 X130.697 Y29.436 E.02004
G1 X137.55 Y36.289 E.37194
G1 X137.55 Y36.811 E.02004
G1 X130.175 Y29.436 E.40028
G1 X129.653 Y29.436 E.02004
M73 P5 R20
G1 X137.55 Y37.334 E.42863
G1 X137.55 Y37.856 E.02004
G1 X129.13 Y29.436 E.45697
G1 X128.608 Y29.436 E.02004
G1 X137.55 Y38.378 E.48531
G1 X137.55 Y38.9 E.02004
G1 X128.086 Y29.436 E.51365
G1 X127.564 Y29.436 E.02004
G1 X137.55 Y39.422 E.54199
G1 X137.55 Y39.944 E.02004
G1 X127.042 Y29.436 E.57033
G1 X126.519 Y29.436 E.02004
G1 X137.55 Y40.467 E.59868
G1 X137.55 Y40.989 E.02004
G1 X125.997 Y29.436 E.62702
G1 X125.475 Y29.436 E.02004
G1 X137.55 Y41.511 E.65536
G1 X137.55 Y42.033 E.02004
M73 P6 R20
G1 X124.953 Y29.436 E.6837
G1 X124.431 Y29.436 E.02004
M73 P6 R19
G1 X137.55 Y42.555 E.71204
G1 X137.55 Y43.078 E.02004
G1 X123.909 Y29.436 E.74038
G1 X123.386 Y29.436 E.02004
G1 X137.55 Y43.6 E.76873
G1 X137.55 Y44.122 E.02004
G1 X122.864 Y29.436 E.79707
G1 X122.342 Y29.436 E.02004
G1 X137.55 Y44.644 E.82541
G1 X137.55 Y45.166 E.02004
M73 P7 R19
G1 X121.82 Y29.436 E.85375
G1 X121.294 Y29.433 E.02017
G1 X137.55 Y45.689 E.88228
G1 X137.55 Y46.211 E.02004
G1 X120.692 Y29.352 E.91498
G1 X120.254 Y29.242 E.01733
G1 X119.891 Y29.074 E.01535
G1 X137.55 Y46.733 E.95845
G1 X137.55 Y47.255 E.02004
G1 X118.652 Y28.357 E1.02568
G1 X118.652 Y28.879 E.02004
G1 X137.55 Y47.777 E1.02568
G1 X137.55 Y48.153 E.01442
M73 P8 R19
G1 X137.543 Y48.173 E.0008
G1 X137.434 Y48.184 E.00419
G1 X118.652 Y29.402 E1.01942
G1 X118.652 Y29.924 E.02004
G1 X136.912 Y48.184 E.99108
G1 X136.39 Y48.184 E.02004
G1 X118.652 Y30.446 E.96273
G1 X118.652 Y30.968 E.02004
G1 X135.868 Y48.184 E.93439
G1 X135.346 Y48.184 E.02004
M73 P9 R19
G1 X118.652 Y31.49 E.90605
G1 X118.652 Y32.013 E.02004
G1 X134.824 Y48.184 E.87771
G1 X134.301 Y48.184 E.02004
G1 X118.652 Y32.535 E.84937
G1 X118.652 Y33.057 E.02004
G1 X133.779 Y48.184 E.82103
G1 X133.257 Y48.184 E.02004
G1 X118.652 Y33.579 E.79268
G1 X118.652 Y34.101 E.02004
G1 X132.735 Y48.184 E.76434
G1 X132.213 Y48.184 E.02004
M73 P10 R19
G1 X118.652 Y34.624 E.736
G1 X118.652 Y35.146 E.02004
G1 X131.69 Y48.184 E.70766
G1 X131.168 Y48.184 E.02004
G1 X118.652 Y35.668 E.67932
G1 X118.652 Y36.19 E.02004
G1 X130.646 Y48.184 E.65098
G1 X130.124 Y48.184 E.02004
G1 X118.652 Y36.712 E.62263
G1 X118.652 Y37.234 E.02004
G1 X129.602 Y48.184 E.59429
G1 X129.079 Y48.184 E.02004
M73 P10 R18
G1 X118.652 Y37.757 E.56595
G1 X118.652 Y38.279 E.02004
M73 P11 R18
G1 X128.557 Y48.184 E.53761
G1 X128.035 Y48.184 E.02004
G1 X118.652 Y38.801 E.50927
G1 X118.652 Y39.323 E.02004
G1 X127.513 Y48.184 E.48092
G1 X126.991 Y48.184 E.02004
G1 X118.652 Y39.845 E.45258
G1 X118.652 Y40.368 E.02004
G1 X126.469 Y48.184 E.42424
G1 X125.946 Y48.184 E.02004
G1 X118.652 Y40.89 E.3959
G1 X118.652 Y41.412 E.02004
G1 X125.424 Y48.184 E.36756
G1 X124.902 Y48.184 E.02004
G1 X118.652 Y41.934 E.33922
G1 X118.652 Y42.456 E.02004
G1 X124.38 Y48.184 E.31087
G1 X123.858 Y48.184 E.02004
G1 X118.652 Y42.979 E.28253
G1 X118.652 Y43.501 E.02004
G1 X123.335 Y48.184 E.25419
G1 X122.813 Y48.184 E.02004
G1 X118.652 Y44.023 E.22585
G1 X118.652 Y44.545 E.02004
G1 X122.291 Y48.184 E.19751
G1 X121.769 Y48.184 E.02004
M73 P12 R18
G1 X118.652 Y45.067 E.16917
G1 X118.652 Y45.589 E.02004
G1 X121.247 Y48.184 E.14082
G1 X120.725 Y48.184 E.02004
G1 X118.652 Y46.112 E.11248
G1 X118.652 Y46.634 E.02004
G1 X120.202 Y48.184 E.08414
G1 X119.68 Y48.184 E.02004
G1 X118.652 Y47.156 E.0558
G1 X118.652 Y47.678 E.02004
G1 X119.323 Y48.349 E.0364
; stop printing object sensor-bracket.STL id:0 copy 0
;LAYER_CHANGE
;Z:0.45
;HEIGHT:0.2
;BEFORE_LAYER_CHANGE
G92 E0.0
;0.45


;WIPE_START
G1 F8640
G1 X118.652 Y47.678 E-.21903
G1 X118.652 Y47.156 E-.12057
G1 X119.68 Y48.184 E-.33571
G1 X120.202 Y48.184 E-.12057
G1 X118.652 Y46.634 E-.50623
G1 X118.652 Y46.513 E-.02787
;WIPE_END
