; generated by PrusaSlicer 2.5.0+win64 on 2023-02-11 at 22:17:34 UTC

; 

; external perimeters extrusion width = 0.45mm
; perimeters extrusion width = 0.45mm
; infill extrusion width = 0.45mm
; solid infill extrusion width = 0.45mm
; top infill extrusion width = 0.40mm
; first layer extrusion width = 0.42mm

M73 P0 R91
M107
;TYPE:Custom
M862.3 P "MK2.5S" ; printer model check
M862.1 P0.4 ; nozzle diameter check
M115 U3.10.0 ; tell printer latest fw version
G90 ; use absolute coordinates
M83  ; extruder relative mode
M104 S230 ; set extruder temp
M140 S85 ; set bed temp
M190 S85 ; wait for bed temp
M109 S230 ; wait for extruder temp
G28 W ; home all without mesh bed level
G80 ; mesh bed leveling
G1 Y-3.0 F1000.0 ; go outside print area
G92 E0.0
G1 X60.0 E9.0 F1000.0 ; intro line
G1 X100.0 E12.5 F1000.0 ; intro line
G92 E0.0
G21 ; set units to millimeters
G90 ; use absolute coordinates
M83 ; use relative distances for extrusion
M900 K0.08 ; Filament gcode LA 1.5
M900 K45 ; Filament gcode LA 1.0
M107
;LAYER_CHANGE
;Z:0.2
;HEIGHT:0.2
;BEFORE_LAYER_CHANGE
G92 E0.0
;0.2


M73 P0 R90
G1 E-1.4 F2100
G1 Z.2 F10800
;AFTER_LAYER_CHANGE
;0.2
G1 Z.4
G1 X62.623 Y14.659
G1 Z.2
G1 E1.4 F2100
M204 S1000
;TYPE:Skirt/Brim
;WIDTH:0.42
G1 F1200
G1 X63.015 Y13.352 E.04278
G1 X64.06 Y12.476 E.04278
G1 X65 Y12.282 E.03008
G1 X185 Y12.282 E3.76252
G1 X186.307 Y12.674 E.04278
G1 X187.183 Y13.719 E.04278
G1 X187.377 Y14.659 E.03008
G1 X187.377 Y94.659 E2.50834
G1 X186.985 Y95.966 E.04278
G1 X185.94 Y96.843 E.04278
G1 X185 Y97.036 E.03008
G1 X65 Y97.036 E3.76252
G1 X63.693 Y96.645 E.04278
G1 X62.817 Y95.599 E.04278
G1 X62.623 Y94.659 E.03008
G1 X62.623 Y14.719 E2.50646
; printing object 2mmPlate.STL id:0 copy 0
;WIPE_START
G1 F8640
G1 X63.015 Y13.352 E-.32835
G1 X64.06 Y12.476 E-.31505
G1 X65 Y12.282 E-.22155
G1 X67.014 Y12.282 E-.46505
;WIPE_END
G1 E-.07 F2100
G1 Z.4 F10800
G1 X65.787 Y15.446
G1 Z.2
G1 E1.4 F2100
;TYPE:Perimeter
;WIDTH:0.419999
G1 F1200
G1 X184.213 Y15.446 E3.71315
G1 X184.213 Y93.872 E2.45898
G1 X65.787 Y93.872 E3.71315
G1 X65.787 Y15.506 E2.4571
G1 X65.41 Y15.069 F10800
;TYPE:External perimeter
G1 F1200
G1 X184.59 Y15.069 E3.7368
G1 X184.59 Y94.249 E2.48263
G1 X65.41 Y94.249 E3.7368
M73 P1 R90
G1 X65.41 Y15.129 E2.48075
M73 P1 R89
G1 X65.802 Y15.147 F10800
;WIPE_START
G1 F8640
G1 X71.17 Y15.126 E-1.33
;WIPE_END
G1 E-.07 F2100
G1 Z.4 F10800
G1 X177.487 Y16.685
G1 Z.2
G1 E1.4 F2100
;TYPE:Perimeter
G1 F1200
G1 X178.179 Y16.754 E.02179
G1 X178.686 Y16.919 E.01672
G1 X179.132 Y17.158 E.01588
G1 X179.531 Y17.47 E.01588
G1 X179.872 Y17.845 E.01588
G1 X180.145 Y18.272 E.01588
G1 X180.341 Y18.739 E.01588
G1 X180.456 Y19.232 E.01588
G1 X180.485 Y19.738 E.01588
G1 X180.429 Y20.241 E.01588
G1 X180.288 Y20.728 E.01588
G1 X180.068 Y21.184 E.01588
G1 X179.773 Y21.596 E.01588
G1 X179.371 Y21.983 E.01751
G1 X178.914 Y22.289 E.01722
G1 X178.449 Y22.49 E.01589
G1 X177.957 Y22.61 E.01588
G1 X177.452 Y22.645 E.01588
G1 X176.993 Y22.604 E.01446
G1 X176.487 Y22.47 E.01639
G1 X176.02 Y22.254 E.01614
G1 X175.602 Y21.966 E.0159
G1 X175.242 Y21.615 E.01579
G1 X174.932 Y21.184 E.01664
G1 X174.712 Y20.728 E.01588
G1 X174.583 Y20.283 E.01452
G1 X174.515 Y19.738 E.01722
G1 X174.544 Y19.232 E.01589
G1 X174.659 Y18.739 E.01588
G1 X174.855 Y18.272 E.01588
G1 X175.128 Y17.845 E.01588
G1 X175.469 Y17.47 E.01588
G1 X175.868 Y17.158 E.01588
G1 X176.314 Y16.919 E.01588
G1 X176.792 Y16.758 E.01581
G1 X177.428 Y16.679 E.02009
G1 X177.458 Y17.051 F10800
;TYPE:External perimeter
G1 F1200
G1 X178.133 Y17.128 E.02131
G1 X178.59 Y17.287 E.01516
G1 X178.975 Y17.506 E.01388
G1 X179.318 Y17.786 E.01388
G1 X179.608 Y18.12 E.01388
G1 X179.838 Y18.498 E.01388
G1 X180 Y18.91 E.01388
G1 X180.091 Y19.343 E.01388
G1 X180.107 Y19.786 E.01388
G1 X180.048 Y20.225 E.01388
G1 X179.916 Y20.647 E.01388
G1 X179.714 Y21.041 E.01388
G1 X179.449 Y21.396 E.01388
G1 X179.155 Y21.674 E.01268
G1 X178.759 Y21.946 E.01506
G1 X178.354 Y22.125 E.01389
G1 X177.925 Y22.234 E.01388
G1 X177.484 Y22.269 E.01388
G1 X177.058 Y22.232 E.01341
G1 X176.615 Y22.115 E.01436
G1 X176.213 Y21.93 E.01388
G1 X175.848 Y21.68 E.01388
G1 X175.53 Y21.372 E.01388
G1 X175.269 Y21.014 E.01388
G1 X175.072 Y20.617 E.01388
G1 X174.956 Y20.23 E.01268
G1 X174.892 Y19.754 E.01506
G1 X174.913 Y19.312 E.01389
G1 X175.009 Y18.88 E.01388
G1 X175.177 Y18.47 E.01388
G1 X175.411 Y18.094 E.01388
G1 X175.705 Y17.764 E.01388
G1 X176.052 Y17.488 E.01388
G1 X176.439 Y17.274 E.01388
G1 X176.865 Y17.128 E.01412
G1 X177.398 Y17.059 E.01685
G1 X177.659 Y16.706 F10800
;WIPE_START
G1 F8640
G1 X178.133 Y17.128 E-.17043
G1 X178.59 Y17.287 E-.11164
G1 X178.975 Y17.506 E-.10223
G1 X179.318 Y17.786 E-.10223
G1 X179.608 Y18.12 E-.10222
G1 X179.838 Y18.498 E-.10222
G1 X180 Y18.91 E-.10222
G1 X180.091 Y19.343 E-.10223
G1 X180.107 Y19.786 E-.10222
G1 X180.048 Y20.225 E-.10222
G1 X179.916 Y20.647 E-.10222
G1 X179.714 Y21.041 E-.10223
G1 X179.648 Y21.13 E-.02569
;WIPE_END
G1 E-.07 F2100
G1 Z.4 F10800
G1 X141.692 Y21.925
G1 Z.2
G1 E1.4 F2100
;TYPE:Perimeter
G1 F1200
G1 X142.172 Y22.185 E.01711
G1 X142.557 Y22.494 E.01546
G1 X142.828 Y22.788 E.01254
G1 X143.148 Y23.279 E.01838
G1 X143.339 Y23.734 E.01546
G1 X143.453 Y24.214 E.01546
G1 X143.487 Y24.65 E.01372
G1 X143.487 Y84.668 E1.88183
G1 X143.437 Y85.197 E.01664
G1 X143.309 Y85.673 E.01546
G1 X143.104 Y86.121 E.01546
G1 X142.828 Y86.53 E.01546
G1 X142.488 Y86.888 E.01546
G1 X142.094 Y87.184 E.01546
G1 X141.657 Y87.412 E.01546
G1 X141.188 Y87.565 E.01546
G1 X140.7 Y87.639 E.01546
G1 X140.207 Y87.631 E.01546
G1 X139.722 Y87.542 E.01546
G1 X139.258 Y87.375 E.01546
G1 X138.828 Y87.133 E.01546
G1 X138.443 Y86.824 E.01546
G1 X138.115 Y86.456 E.01546
G1 X137.852 Y86.039 E.01546
G1 X137.661 Y85.584 E.01546
G1 X137.547 Y85.105 E.01546
G1 X137.513 Y84.668 E.01372
G1 X137.513 Y56.373 E.88717
;WIDTH:0.464672
G1 X137.491 Y56.273 E.00359
;WIDTH:0.509344
G1 X137.468 Y56.174 E.00397
;WIDTH:0.554017
G1 X137.446 Y56.074 E.00435
;WIDTH:0.598689
G1 X137.424 Y55.974 E.00473
G1 X137.447 Y55.252 E.03337
;WIDTH:0.552672
G1 X137.448 Y55.102 E.00636
;WIDTH:0.590247
G1 X137.428 Y53.182 E.0874
;WIDTH:0.600318
G1 X137.445 Y52.544 E.02957
;WIDTH:0.555239
G1 X137.468 Y52.064 E.02047
;WIDTH:0.510159
G1 X137.49 Y51.584 E.01867
;WIDTH:0.465079
G1 X137.513 Y51.104 E.01687
;WIDTH:0.419999
G1 X137.513 Y24.65 E.82944
G1 X137.563 Y24.122 E.01664
G1 X137.691 Y23.645 E.01546
G1 X137.896 Y23.197 E.01546
G1 X138.172 Y22.788 E.01546
G1 X138.512 Y22.431 E.01546
G1 X138.906 Y22.134 E.01546
G1 X139.343 Y21.906 E.01546
G1 X139.812 Y21.753 E.01546
G1 X140.3 Y21.68 E.01546
G1 X140.793 Y21.687 E.01546
G1 X141.278 Y21.776 E.01546
G1 X141.636 Y21.905 E.01192
G1 X141.563 Y22.275 F10800
;TYPE:External perimeter
G1 F1200
G1 X141.941 Y22.483 E.01352
G1 X142.279 Y22.749 E.01352
G1 X142.55 Y23.044 E.01254
G1 X142.803 Y23.431 E.01449
G1 X142.974 Y23.826 E.01352
G1 X143.077 Y24.245 E.01352
G1 X143.11 Y24.65 E.01274
G1 X143.11 Y84.668 E1.88183
G1 X143.072 Y85.104 E.01372
G1 X142.964 Y85.521 E.01352
G1 X142.788 Y85.915 E.01352
G1 X142.55 Y86.275 E.01352
G1 X142.256 Y86.59 E.01352
G1 X141.915 Y86.853 E.01352
G1 X141.534 Y87.056 E.01352
G1 X141.126 Y87.193 E.01352
G1 X140.7 Y87.262 E.01352
G1 X140.269 Y87.259 E.01352
G1 X139.844 Y87.186 E.01352
G1 X139.437 Y87.043 E.01352
G1 X139.059 Y86.836 E.01352
G1 X138.721 Y86.569 E.01352
G1 X138.431 Y86.25 E.01352
G1 X138.197 Y85.888 E.01352
G1 X138.026 Y85.492 E.01352
G1 X137.923 Y85.073 E.01352
G1 X137.89 Y84.668 E.01274
G1 X137.89 Y24.65 E1.88183
G1 X137.928 Y24.214 E.01372
G1 X138.036 Y23.797 E.01352
G1 X138.212 Y23.403 E.01352
G1 X138.45 Y23.044 E.01352
G1 X138.744 Y22.728 E.01352
G1 X139.085 Y22.465 E.01352
G1 X139.466 Y22.263 E.01352
G1 X139.874 Y22.125 E.01352
G1 X140.3 Y22.057 E.01352
G1 X140.731 Y22.059 E.01352
G1 X141.156 Y22.133 E.01352
G1 X141.506 Y22.255 E.01164
G1 X141.886 Y22.04 F10800
;WIPE_START
G1 F8640
G1 X141.941 Y22.483 E-.11323
G1 X142.279 Y22.749 E-.09954
G1 X142.55 Y23.044 E-.09237
G1 X142.803 Y23.431 E-.1067
G1 X142.974 Y23.826 E-.09954
G1 X143.077 Y24.245 E-.09954
G1 X143.11 Y24.65 E-.09385
G1 X143.11 Y27.358 E-.62523
;WIPE_END
G1 E-.07 F2100
G1 Z.4 F10800
G1 X131.67 Y44.821
G1 Z.2
G1 E1.4 F2100
;TYPE:Perimeter
G1 F1200
G1 X133.259 Y46.111 E.06418
G1 X134.585 Y47.63 E.06321
G1 X135.635 Y49.351 E.06321
G1 X136.379 Y51.225 E.06321
;WIDTH:0.465079
G1 X136.502 Y51.689 E.01687
;WIDTH:0.510159
G1 X136.625 Y52.154 E.01867
;WIDTH:0.555239
G1 X136.748 Y52.618 E.02047
;WIDTH:0.600318
G1 X136.872 Y53.083 E.02228
G1 X136.881 Y53.193 E.00514
;WIDTH:0.590247
G1 X136.942 Y55.113 E.0874
;WIDTH:0.549479
G1 X136.942 Y55.14 E.00113
;WIDTH:0.598689
G1 X136.87 Y55.939 E.03707
G1 X136.835 Y56.035 E.00473
;WIDTH:0.554017
G1 X136.8 Y56.131 E.00435
;WIDTH:0.509344
G1 X136.766 Y56.227 E.00397
;WIDTH:0.464672
G1 X136.731 Y56.323 E.00359
;WIDTH:0.419999
G1 X136.609 Y57.21 E.02807
G1 X136.047 Y59.046 E.06021
G1 X135.146 Y60.85 E.06321
G1 X133.954 Y62.476 E.06321
G1 X132.504 Y63.877 E.06321
G1 X130.839 Y65.012 E.06321
G1 X129.005 Y65.85 E.06321
G1 X127.056 Y66.366 E.06321
G1 X125.048 Y66.545 E.06321
G1 X123.039 Y66.382 E.06321
G1 X121.086 Y65.882 E.06321
G1 X119.245 Y65.059 E.06321
G1 X117.496 Y63.877 E.06621
G1 X116.046 Y62.476 E.06321
G1 X114.854 Y60.85 E.06321
G1 X113.953 Y59.046 E.06321
G1 X113.391 Y57.21 E.06021
G1 X113.269 Y56.323 E.02807
;WIDTH:0.464672
G1 X113.234 Y56.227 E.00359
;WIDTH:0.509345
G1 X113.2 Y56.131 E.00397
;WIDTH:0.554018
G1 X113.165 Y56.035 E.00435
;WIDTH:0.59869
G1 X113.13 Y55.939 E.00473
G1 X113.061 Y55.22 E.03337
;WIDTH:0.552672
G1 X113.058 Y55.113 E.00454
;WIDTH:0.590247
G1 X113.119 Y53.193 E.0874
;WIDTH:0.600319
G1 X113.128 Y53.083 E.00514
G1 X113.252 Y52.618 E.02228
;WIDTH:0.555239
G1 X113.375 Y52.154 E.02047
;WIDTH:0.510159
G1 X113.498 Y51.689 E.01867
;WIDTH:0.465079
G1 X113.621 Y51.225 E.01687
;WIDTH:0.419999
G1 X114.408 Y49.265 E.06621
G1 X115.415 Y47.63 E.06021
G1 X116.741 Y46.111 E.06321
G1 X118.384 Y44.785 E.06621
G1 X120.148 Y43.809 E.06321
G1 X121.959 Y43.169 E.06021
G1 X123.94 Y42.821 E.06306
G1 X124.92 Y42.775 E.03079
G1 X125.986 Y42.813 E.03344
G1 X128.041 Y43.169 E.0654
G1 X129.94 Y43.848 E.06321
G1 X131.62 Y44.787 E.06037
G1 X131.459 Y45.132 F10800
;TYPE:External perimeter
G1 F1200
G1 X132.953 Y46.338 E.06021
G1 X134.245 Y47.802 E.06121
G1 X135.27 Y49.463 E.06121
G1 X136.001 Y51.273 E.06121
G1 X136.415 Y53.181 E.06121
G1 X136.501 Y55.14 E.06146
G1 X136.255 Y57.068 E.06096
G1 X135.686 Y58.936 E.06121
G1 X134.793 Y60.708 E.06221
G1 X133.63 Y62.276 E.06121
G1 X132.218 Y63.624 E.06121
G1 X130.599 Y64.715 E.06121
G1 X128.85 Y65.506 E.06021
G1 X126.961 Y66.001 E.06121
G1 X125.016 Y66.169 E.06121
G1 X123.039 Y66.001 E.06221
G1 X121.15 Y65.506 E.06121
G1 X119.373 Y64.7 E.06121
G1 X117.757 Y63.604 E.06121
G1 X116.349 Y62.252 E.06121
G1 X115.19 Y60.68 E.06121
G1 X114.326 Y58.966 E.06021
G1 X113.752 Y57.1 E.06121
G1 X113.501 Y55.164 E.06121
G1 X113.581 Y53.213 E.06121
G1 X113.99 Y51.304 E.06121
G1 X114.73 Y49.463 E.06221
G1 X115.736 Y47.828 E.06021
G1 X117.024 Y46.36 E.06121
G1 X118.541 Y45.132 E.06121
G1 X120.244 Y44.177 E.06121
G1 X122.084 Y43.524 E.06121
G1 X124.003 Y43.193 E.06106
G1 X124.952 Y43.151 E.02976
G1 X125.997 Y43.193 E.0328
G1 X127.916 Y43.524 E.06106
G1 X129.726 Y44.164 E.06021
G1 X131.408 Y45.1 E.06033
G1 X131.818 Y44.957 F10800
;WIPE_START
G1 F8640
G1 X132.953 Y46.338 E-.45716
G1 X134.245 Y47.802 E-.45078
G1 X135.205 Y49.357 E-.42206
;WIPE_END
G1 E-.07 F2100
G1 Z.4 F10800
G1 X112.441 Y24.162
G1 Z.2
G1 E1.4 F2100
;TYPE:Perimeter
G1 F1200
G1 X112.487 Y24.65 E.01537
G1 X112.487 Y51.104 E.82944
;WIDTH:0.465079
G1 X112.51 Y51.584 E.01687
;WIDTH:0.510159
G1 X112.532 Y52.064 E.01867
;WIDTH:0.555239
G1 X112.555 Y52.544 E.02047
;WIDTH:0.600319
G1 X112.572 Y53.182 E.02957
;WIDTH:0.590247
G1 X112.552 Y55.102 E.0874
;WIDTH:0.59869
G1 X112.576 Y55.974 E.0403
G1 X112.554 Y56.074 E.00473
;WIDTH:0.554018
G1 X112.532 Y56.174 E.00435
;WIDTH:0.509345
G1 X112.509 Y56.273 E.00397
;WIDTH:0.464672
G1 X112.487 Y56.373 E.00359
;WIDTH:0.419999
G1 X112.487 Y63.649 E.22812
G1 X112.487 Y84.668 E.65905
G1 X112.437 Y85.197 E.01664
G1 X112.309 Y85.673 E.01546
G1 X112.104 Y86.121 E.01546
G1 X111.828 Y86.53 E.01546
G1 X111.488 Y86.888 E.01546
G1 X111.094 Y87.184 E.01546
G1 X110.657 Y87.412 E.01546
G1 X110.188 Y87.565 E.01546
G1 X109.7 Y87.639 E.01546
G1 X109.207 Y87.631 E.01546
G1 X108.722 Y87.542 E.01546
G1 X108.258 Y87.375 E.01546
G1 X107.828 Y87.133 E.01546
G1 X107.443 Y86.824 E.01546
G1 X107.115 Y86.456 E.01546
G1 X106.852 Y86.039 E.01546
G1 X106.661 Y85.584 E.01546
G1 X106.547 Y85.105 E.01546
G1 X106.513 Y84.668 E.01372
G1 X106.513 Y24.65 E1.88183
G1 X106.563 Y24.122 E.01664
G1 X106.691 Y23.645 E.01546
G1 X106.896 Y23.197 E.01546
G1 X107.172 Y22.788 E.01546
G1 X107.512 Y22.431 E.01546
G1 X107.906 Y22.134 E.01546
G1 X108.343 Y21.906 E.01546
G1 X108.812 Y21.753 E.01546
G1 X109.3 Y21.68 E.01546
G1 X109.793 Y21.687 E.01546
G1 X110.278 Y21.776 E.01546
G1 X110.742 Y21.943 E.01546
G1 X111.172 Y22.185 E.01546
G1 X111.557 Y22.494 E.01546
G1 X111.885 Y22.862 E.01546
G1 X112.148 Y23.279 E.01546
G1 X112.339 Y23.734 E.01546
G1 X112.427 Y24.104 E.01191
G1 X112.077 Y24.245 F10800
;TYPE:External perimeter
G1 F1200
G1 X112.11 Y24.65 E.01274
G1 X112.11 Y84.668 E1.88183
G1 X112.072 Y85.104 E.01372
G1 X111.964 Y85.521 E.01352
G1 X111.788 Y85.915 E.01352
G1 X111.55 Y86.275 E.01352
G1 X111.256 Y86.59 E.01352
G1 X110.915 Y86.853 E.01352
G1 X110.534 Y87.056 E.01352
G1 X110.126 Y87.193 E.01352
G1 X109.7 Y87.262 E.01352
G1 X109.269 Y87.259 E.01352
G1 X108.844 Y87.186 E.01352
G1 X108.437 Y87.043 E.01352
G1 X108.059 Y86.836 E.01352
G1 X107.721 Y86.569 E.01352
G1 X107.431 Y86.25 E.01352
G1 X107.197 Y85.888 E.01352
G1 X107.026 Y85.492 E.01352
G1 X106.923 Y85.073 E.01352
G1 X106.89 Y84.668 E.01274
G1 X106.89 Y24.65 E1.88183
G1 X106.928 Y24.214 E.01372
G1 X107.036 Y23.797 E.01352
G1 X107.212 Y23.403 E.01352
G1 X107.45 Y23.044 E.01352
G1 X107.744 Y22.728 E.01352
G1 X108.085 Y22.465 E.01352
G1 X108.466 Y22.263 E.01352
G1 X108.874 Y22.125 E.01352
G1 X109.3 Y22.057 E.01352
G1 X109.731 Y22.059 E.01352
G1 X110.156 Y22.133 E.01352
G1 X110.563 Y22.275 E.01352
G1 X110.941 Y22.483 E.01352
G1 X111.279 Y22.749 E.01352
G1 X111.569 Y23.068 E.01352
G1 X111.803 Y23.431 E.01352
G1 X111.974 Y23.826 E.01352
G1 X112.063 Y24.187 E.01164
G1 X112.451 Y24.386 F10800
;WIPE_START
G1 F8640
G1 X112.11 Y24.65 E-.10755
G1 X112.11 Y29.944 E-1.22245
;WIPE_END
G1 E-.07 F2100
G1 Z.4 F10800
G1 X72.487 Y86.685
G1 Z.2
G1 E1.4 F2100
;TYPE:Perimeter
G1 F1200
G1 X73.179 Y86.754 E.02179
G1 X73.686 Y86.919 E.01672
G1 X74.132 Y87.158 E.01588
G1 X74.531 Y87.47 E.01588
G1 X74.872 Y87.845 E.01588
G1 X75.145 Y88.272 E.01588
G1 X75.341 Y88.739 E.01588
G1 X75.456 Y89.232 E.01588
G1 X75.485 Y89.738 E.01588
G1 X75.429 Y90.241 E.01588
G1 X75.288 Y90.728 E.01588
G1 X75.068 Y91.184 E.01588
G1 X74.773 Y91.596 E.01588
G1 X74.413 Y91.952 E.01588
G1 X73.951 Y92.266 E.01751
G1 X73.45 Y92.49 E.01722
G1 X72.957 Y92.61 E.01589
G1 X72.452 Y92.645 E.01588
G1 X71.948 Y92.594 E.01588
G1 X71.46 Y92.458 E.01588
G1 X71.002 Y92.242 E.01588
G1 X70.587 Y91.952 E.01588
G1 X70.227 Y91.596 E.01588
G1 X69.932 Y91.184 E.01588
G1 X69.712 Y90.728 E.01588
G1 X69.571 Y90.241 E.01588
G1 X69.515 Y89.738 E.01588
G1 X69.544 Y89.232 E.01588
G1 X69.659 Y88.739 E.01588
G1 X69.812 Y88.358 E.01288
G1 X70.071 Y87.922 E.01588
G1 X70.399 Y87.537 E.01588
G1 X70.788 Y87.212 E.01588
G1 X71.226 Y86.958 E.01588
G1 X71.701 Y86.782 E.01588
G1 X72.428 Y86.679 E.023
G1 X72.458 Y87.051 F10800
;TYPE:External perimeter
G1 F1200
G1 X73.133 Y87.128 E.02131
G1 X73.59 Y87.287 E.01516
G1 X73.975 Y87.506 E.01388
G1 X74.318 Y87.786 E.01388
G1 X74.608 Y88.12 E.01388
G1 X74.838 Y88.498 E.01388
G1 X75 Y88.91 E.01388
G1 X75.091 Y89.343 E.01388
G1 X75.107 Y89.786 E.01388
G1 X75.048 Y90.225 E.01388
M73 P2 R89
G1 X74.916 Y90.647 E.01388
G1 X74.714 Y91.041 E.01388
G1 X74.449 Y91.396 E.01388
G1 X74.127 Y91.7 E.01388
G1 X73.791 Y91.924 E.01268
G1 X73.355 Y92.125 E.01506
G1 X72.925 Y92.234 E.01389
G1 X72.484 Y92.269 E.01388
