; generated by PrusaSlicer 2.5.0+win64 on 2023-02-19 at 19:04:19 UTC

; 

; external perimeters extrusion width = 0.45mm
; perimeters extrusion width = 0.45mm
; infill extrusion width = 0.45mm
; solid infill extrusion width = 0.45mm
; top infill extrusion width = 0.40mm
; first layer extrusion width = 0.42mm

M73 P0 R171
M107
;TYPE:Custom
M862.3 P "MK2S" ; printer model check
M862.1 P0.4 ; nozzle diameter check
M115 U3.2.3 ; tell printer latest fw version
G90 ; use absolute coordinates
M83 ; extruder relative mode
M204 S2000 T1500 ; MK2 firmware only supports the old M204 format
M104 S230 ; set extruder temp
M140 S85 ; set bed temp
M190 S85 ; wait for bed temp
M109 S230 ; wait for extruder temp
G28 W ; home all without mesh bed level
G80 ; mesh bed leveling
G1 Y-3.0 F1000.0 ; go outside print area
G92 E0.0
G1 X60.0 E9.0  F1000.0 ; intro line
G1 X100.0 E12.5 F1000.0 ; intro line
G92 E0.0
G21 ; set units to millimeters
G90 ; use absolute coordinates
M83 ; use relative distances for extrusion
M900 K0.08 ; Filament gcode LA 1.5
M900 K45 ; Filament gcode LA 1.0
M107
;LAYER_CHANGE
;Z:0.2
;HEIGHT:0.2
;BEFORE_LAYER_CHANGE
G92 E0.0
;0.2


G1 E-1.4 F2100
G1 Z.2 F10800
;AFTER_LAYER_CHANGE
;0.2
G1 Z.4
G1 X58.369 Y25.585
G1 Z.2
G1 E1.4 F2100
M204 S1000
;TYPE:Skirt/Brim
;WIDTH:0.42
G1 F600
G1 X61.298 Y22.656 E.12987
G1 X62.979 Y21.96 E.05704
G1 X187.021 Y21.96 E3.88925
G1 X188.702 Y22.656 E.05704
M73 P0 R170
G1 X191.631 Y25.585 E.12987
G1 X192.327 Y27.266 E.05704
G1 X192.327 Y47.008 E.619
G1 X191.631 Y48.689 E.05704
G1 X188.702 Y51.617 E.12987
G1 X187.021 Y52.314 E.05704
G1 X62.979 Y52.314 E3.88925
G1 X61.298 Y51.617 E.05704
G1 X58.369 Y48.689 E.12987
G1 X57.673 Y47.008 E.05704
G1 X57.673 Y27.266 E.619
G1 X58.346 Y25.64 E.05516
;WIPE_START
G1 F8640
G1 X61.298 Y22.656 E-.96924
G1 X62.742 Y22.058 E-.36076
;WIPE_END
G1 E-.07 F2100
G1 Z.4 F10800
G1 X60.822 Y27.2
G1 Z.2
G1 E1.4 F2100
G1 F600
G1 X61.287 Y26.462 E.02735
G1 X61.996 Y25.724 E.03207
G1 X62.876 Y25.117 E.03353
G1 X64.27 Y24.661 E.04597
G1 X185.553 Y24.639 E3.80276
G1 X186.465 Y24.836 E.02927
G1 X187.295 Y25.202 E.02843
G1 X188.512 Y26.225 E.04984
G1 X189.303 Y27.442 E.04551
G1 X189.664 Y28.826 E.04484
G1 X189.626 Y45.717 E.52961
G1 X189.236 Y46.981 E.04148
G1 X188.713 Y47.812 E.03077
G1 X188.004 Y48.549 E.03207
G1 X187.124 Y49.157 E.03353
G1 X185.73 Y49.612 E.04596
G1 X64.54 Y49.65 E3.79984
G1 X63.223 Y49.318 E.04258
G1 X62.039 Y48.592 E.04355
G1 X61.435 Y47.988 E.02678
G1 X60.98 Y47.397 E.0234
G1 X60.367 Y45.667 E.05754
G1 X60.374 Y28.556 E.53651
G1 X60.79 Y27.25 E.04297
G1 X61.109 Y27.451 F10800
G1 F600
G1 X61.596 Y26.679 E.0286
G1 X62.254 Y26 E.02968
G1 X63.02 Y25.466 E.02926
G1 X64.358 Y25.028 E.04415
G1 X185.495 Y25.012 E3.79814
G1 X186.331 Y25.189 E.02682
M73 P0 R169
G1 X187.117 Y25.536 E.02694
G1 X188.247 Y26.495 E.04645
G1 X188.946 Y27.569 E.04018
G1 X189.286 Y28.851 E.04159
G1 X189.257 Y45.635 E.52626
G1 X188.903 Y46.802 E.03824
G1 X188.404 Y47.594 E.02934
G1 X187.746 Y48.274 E.02968
G1 X186.98 Y48.807 E.02926
G1 X185.642 Y49.245 E.04415
G1 X64.564 Y49.273 E3.7963
G1 X63.345 Y48.96 E.03946
G1 X62.291 Y48.31 E.03885
G1 X61.711 Y47.73 E.02571
G1 X61.297 Y47.192 E.02128
G1 X60.734 Y45.574 E.05373
G1 X60.743 Y28.638 E.531
G1 X61.086 Y27.506 E.0371
G1 X61.43 Y27.65 F10800
G1 F600
G1 X61.904 Y26.898 E.02787
G1 X62.512 Y26.275 E.02728
G1 X63.164 Y25.816 E.02503
G1 X64.447 Y25.396 E.04232
G1 X185.436 Y25.385 E3.7935
G1 X186.233 Y25.554 E.02556
M73 P1 R169
G1 X186.938 Y25.869 E.0242
G1 X187.98 Y26.762 E.04303
G1 X188.613 Y27.747 E.03669
G1 X188.909 Y28.874 E.03656
G1 X188.888 Y45.554 E.52298
G1 X188.57 Y46.623 E.03498
G1 X188.096 Y47.376 E.02787
G1 X187.488 Y47.998 E.02728
G1 X186.836 Y48.458 E.02503
G1 X185.553 Y48.877 E.04232
G1 X64.588 Y48.896 E3.79278
G1 X63.517 Y48.624 E.03463
G1 X62.541 Y48.027 E.03586
G1 X61.987 Y47.472 E.0246
G1 X61.616 Y46.988 E.01914
G1 X61.101 Y45.482 E.04991
G1 X61.112 Y28.719 E.52558
G1 X61.413 Y27.707 E.0331
G1 X61.764 Y27.826 F10800
G1 F600
G1 X62.188 Y27.146 E.02513
G1 X62.77 Y26.55 E.02612
G1 X63.31 Y26.165 E.02078
G1 X64.536 Y25.764 E.04046
G1 X185.379 Y25.758 E3.78893
G1 X186.098 Y25.907 E.02304
M73 P1 R168
G1 X186.758 Y26.202 E.02266
G1 X187.712 Y27.029 E.0396
G1 X188.256 Y27.873 E.03149
G1 X188.532 Y28.899 E.03331
G1 X188.518 Y45.475 E.51971
G1 X188.236 Y46.447 E.03173
G1 X187.812 Y47.127 E.02513
G1 X187.23 Y47.723 E.02612
G1 X186.69 Y48.108 E.02078
G1 X185.464 Y48.509 E.04046
G1 X64.612 Y48.519 E3.78923
G1 X63.64 Y48.266 E.03149
G1 X62.792 Y47.745 E.03119
G1 X62.262 Y47.215 E.0235
G1 X61.935 Y46.785 E.01695
G1 X61.468 Y45.392 E.04607
G1 X61.482 Y28.798 E.52027
G1 X61.747 Y27.884 E.02985
G1 X62.099 Y28.003 F10800
G1 F600
G1 X62.497 Y27.364 E.0236
G1 X63.028 Y26.826 E.02371
G1 X63.456 Y26.514 E.0166
G1 X64.625 Y26.131 E.03857
G1 X185.36 Y26.135 E3.78555
G1 X185.963 Y26.259 E.01933
G1 X186.578 Y26.534 E.0211
G1 X187.442 Y27.294 E.03609
G1 X187.922 Y28.05 E.02809
G1 X188.155 Y28.924 E.02835
G1 X188.148 Y45.398 E.51653
G1 X187.901 Y46.271 E.02843
G1 X187.503 Y46.909 E.0236
G1 X186.972 Y47.447 E.02371
G1 X186.544 Y47.759 E.0166
G1 X185.375 Y48.142 E.03856
G1 X64.637 Y48.142 E3.78565
G1 X63.765 Y47.909 E.02831
G1 X63.044 Y47.463 E.02658
G1 X62.538 Y46.958 E.02241
G1 X62.254 Y46.582 E.01477
G1 X61.845 Y45.361 E.04038
G1 X61.852 Y28.875 E.5169
G1 X62.082 Y28.06 E.02655
G1 X62.433 Y28.178 F10800
G1 F600
G1 X62.805 Y27.582 E.02203
G1 X63.286 Y27.101 E.02132
G1 X63.606 Y26.861 E.01257
G1 X64.656 Y26.509 E.03472
G1 X185.339 Y26.512 E3.78393
G1 X185.864 Y26.624 E.01682
M73 P1 R167
G1 X186.395 Y26.865 E.01829
G1 X187.172 Y27.557 E.03263
G1 X187.566 Y28.178 E.02306
G1 X187.778 Y28.95 E.0251
G1 X187.778 Y45.323 E.51338
G1 X187.567 Y46.095 E.02508
G1 X187.195 Y46.691 E.02203
G1 X186.714 Y47.172 E.02132
G1 X186.394 Y47.412 E.01257
G1 X185.344 Y47.765 E.03472
G1 X64.663 Y47.765 E3.78385
G1 X63.892 Y47.553 E.02508
M73 P2 R167
G1 X63.295 Y47.182 E.02203
G1 X62.815 Y46.701 E.02132
G1 X62.574 Y46.38 E.01257
G1 X62.222 Y45.33 E.03472
G1 X62.222 Y28.95 E.5136
G1 X62.418 Y28.236 E.0232
G1 X62.78 Y28.339 F10800
G1 F600
G1 X63.086 Y27.834 E.01852
G1 X63.542 Y27.378 E.02022
G1 X63.807 Y27.181 E.01034
G1 X64.687 Y26.886 E.02911
G1 X185.318 Y26.889 E3.7823
G1 X185.761 Y26.987 E.01424
G1 X186.209 Y27.194 E.01548
G1 X186.9 Y27.819 E.0292
G1 X187.212 Y28.308 E.01818
G1 X187.401 Y28.977 E.02179
G1 X187.401 Y45.297 E.5117
G1 X187.212 Y45.965 E.02179
G1 X186.914 Y46.439 E.01755
G1 X186.458 Y46.895 E.02022
G1 X186.193 Y47.092 E.01034
G1 X185.313 Y47.388 E.02911
G1 X64.69 Y47.388 E3.78205
G1 X64.021 Y47.198 E.02179
G1 X63.547 Y46.9 E.01755
G1 X63.091 Y46.444 E.02022
G1 X62.895 Y46.18 E.01034
G1 X62.599 Y45.3 E.02911
G1 X62.599 Y28.977 E.5118
G1 X62.763 Y28.396 E.01891
G1 X63.124 Y28.503 F10800
G1 F600
G1 X63.142 Y28.441 E.00201
G1 X63.367 Y28.086 E.01318
G1 X63.798 Y27.655 E.01911
G1 X64.006 Y27.503 E.00808
G1 X64.718 Y27.263 E.02355
G1 X185.296 Y27.266 E3.78063
G1 X185.655 Y27.349 E.01157
M73 P2 R166
G1 X186.021 Y27.522 E.01268
G1 X186.626 Y28.08 E.0258
G1 X186.858 Y28.441 E.01347
G1 X187.024 Y29.005 E.01841
G1 X187.024 Y45.269 E.50994
G1 X186.858 Y45.832 E.01842
G1 X186.633 Y46.187 E.01318
G1 X186.202 Y46.618 E.01911
G1 X185.994 Y46.771 E.00808
G1 X185.282 Y47.011 E.02354
G1 X64.718 Y47.011 E3.7802
G1 X64.154 Y46.845 E.01842
G1 X63.8 Y46.619 E.01318
G1 X63.369 Y46.188 E.01911
G1 X63.216 Y45.98 E.00808
G1 X62.976 Y45.269 E.02354
G1 X62.976 Y29.005 E.50995
G1 X63.107 Y28.56 E.01453
G1 X63.465 Y28.671 F10800
G1 F600
G1 X63.494 Y28.578 E.00303
G1 X63.648 Y28.339 E.00892
G1 X64.054 Y27.933 E.018
G1 X64.204 Y27.825 E.00579
G1 X64.749 Y27.64 E.01806
G1 X185.274 Y27.643 E3.77898
G1 X185.512 Y27.699 E.00767
G1 X185.832 Y27.85 E.01109
G1 X186.351 Y28.338 E.02233
G1 X186.506 Y28.579 E.00898
G1 X186.647 Y29.034 E.01495
G1 X186.647 Y45.239 E.50809
G1 X186.506 Y45.695 E.01496
G1 X186.352 Y45.934 E.00892
G1 X185.946 Y46.34 E.018
G1 X185.796 Y46.448 E.00579
G1 X185.251 Y46.633 E.01806
G1 X64.748 Y46.633 E3.7783
G1 X64.292 Y46.493 E.01496
G1 X64.052 Y46.339 E.00892
G1 X63.646 Y45.933 E.018
G1 X63.538 Y45.783 E.00579
G1 X63.353 Y45.238 E.01806
G1 X63.353 Y29.034 E.50805
G1 X63.448 Y28.728 E.01005
G1 X63.803 Y28.845 F10800
G1 F600
G1 X63.843 Y28.722 E.00406
G1 X63.928 Y28.592 E.00484
G1 X64.308 Y28.212 E.01686
G1 X64.398 Y28.149 E.00345
G1 X64.781 Y28.017 E.0127
G1 X185.252 Y28.02 E3.77729
G1 X185.369 Y28.048 E.00377
M73 P3 R166
G1 X185.642 Y28.177 E.00947
G1 X186.073 Y28.594 E.0188
G1 X186.157 Y28.722 E.00479
G1 X186.27 Y29.066 E.01136
G1 X186.27 Y45.207 E.5061
G1 X186.157 Y45.552 E.01136
G1 X186.072 Y45.681 E.00484
G1 X185.692 Y46.061 E.01686
G1 X185.602 Y46.124 E.00345
G1 X185.219 Y46.256 E.0127
G1 X64.779 Y46.256 E3.77631
G1 X64.435 Y46.143 E.01136
M73 P3 R165
G1 X64.306 Y46.059 E.00484
G1 X63.925 Y45.679 E.01686
G1 X63.862 Y45.589 E.00345
G1 X63.73 Y45.206 E.0127
G1 X63.73 Y29.066 E.50606
G1 X63.784 Y28.902 E.00542
G1 X64.134 Y29.027 F10800
G1 F600
G1 X64.207 Y28.847 E.0061
G1 X64.56 Y28.493 E.01566
G1 X64.814 Y28.394 E.00856
G1 X185.2 Y28.394 E3.7746
G1 X185.45 Y28.503 E.00856
G1 X185.793 Y28.847 E.01522
G1 X185.893 Y29.101 E.00856
G1 X185.893 Y45.172 E.5039
G1 X185.793 Y45.427 E.00856
G1 X185.44 Y45.78 E.01566
G1 X185.186 Y45.879 E.00856
G1 X64.814 Y45.879 E3.77415
G1 X64.56 Y45.78 E.00856
G1 X64.207 Y45.427 E.01566
G1 X64.107 Y45.172 E.00856
G1 X64.114 Y29.084 E.50445
G1 X64.484 Y29.143 F10800
G1 F600
G1 X64.513 Y29.074 E.00235
G1 X64.787 Y28.8 E.01215
G1 X64.856 Y28.771 E.00235
G1 X185.144 Y28.771 E3.77153
G1 X185.213 Y28.8 E.00235
G1 X185.487 Y29.074 E.01215
G1 X185.516 Y29.143 E.00235
G1 X185.516 Y45.13 E.50127
G1 X185.487 Y45.2 E.00235
G1 X185.213 Y45.474 E.01215
G1 X185.144 Y45.502 E.00235
G1 X64.856 Y45.502 E3.77153
G1 X64.787 Y45.474 E.00235
M73 P3 R164
G1 X64.513 Y45.2 E.01215
G1 X64.484 Y45.13 E.00235
G1 X64.484 Y29.203 E.49939
G1 X64.861 Y29.259 F10800
G1 F600
G1 X64.972 Y29.148 E.0049
G1 X185.028 Y29.148 E3.76428
G1 X185.139 Y29.259 E.0049
G1 X185.139 Y45.015 E.49402
G1 X185.028 Y45.125 E.0049
G1 X64.972 Y45.125 E3.76428
G1 X64.861 Y45.015 E.0049
G1 X64.861 Y29.319 E.49214
; printing object FixedBaseMount.STL id:0 copy 0
G1 X65.637 Y29.924 F10800
;TYPE:Perimeter
;WIDTH:0.419999
M73 P4 R164
G1 F600
G1 X184.363 Y29.924 E3.72256
G1 X184.363 Y44.35 E.45231
G1 X65.637 Y44.35 E3.72256
G1 X65.637 Y29.984 E.45043
M73 P4 R163
G1 X65.26 Y29.547 F10800
;TYPE:External perimeter
G1 F600
G1 X184.74 Y29.547 E3.74621
G1 X184.74 Y44.727 E.47596
G1 X65.26 Y44.727 E3.74621
G1 X65.26 Y29.607 E.47408
G1 X65.66 Y29.563 F10800
;WIPE_START
G1 F8640
G1 X71.02 Y29.604 E-1.33
;WIPE_END
G1 E-.07 F2100
G1 Z.4 F10800
G1 X171.733 Y40.027
G1 Z.2
G1 E1.4 F2100
;TYPE:Perimeter
G1 F600
G1 X171.303 Y40.251 E.01521
G1 X170.758 Y40.427 E.01795
G1 X170.191 Y40.507 E.01795
G1 X169.619 Y40.491 E.01795
G1 X169.057 Y40.379 E.01796
G1 X168.523 Y40.173 E.01795
G1 X168.031 Y39.879 E.01795
G1 X167.596 Y39.507 E.01795
G1 X167.23 Y39.067 E.01795
G1 X166.944 Y38.571 E.01796
G1 X166.745 Y38.034 E.01795
G1 X166.641 Y37.475 E.01782
G1 X166.633 Y36.894 E.01822
G1 X166.721 Y36.332 E.01782
G1 X166.904 Y35.79 E.01795
G1 X167.176 Y35.286 E.01795
G1 X167.53 Y34.835 E.01796
G1 X167.954 Y34.451 E.01795
G1 X168.437 Y34.144 E.01795
G1 X168.966 Y33.923 E.01795
G1 X169.524 Y33.794 E.01796
G1 X170.095 Y33.762 E.01795
G1 X170.664 Y33.826 E.01796
G1 X171.214 Y33.986 E.01795
G1 X171.729 Y34.237 E.01795
G1 X172.194 Y34.571 E.01795
G1 X172.596 Y34.979 E.01795
G1 X172.924 Y35.448 E.01795
G1 X173.167 Y35.967 E.01795
G1 X173.319 Y36.519 E.01795
G1 X173.378 Y37.137 E.01946
G1 X173.335 Y37.66 E.01646
G1 X173.199 Y38.216 E.01795
G1 X172.971 Y38.741 E.01795
G1 X172.657 Y39.22 E.01795
G1 X172.266 Y39.639 E.01795
G1 X171.787 Y39.999 E.0188
G1 X171.559 Y39.7 F10800
;TYPE:External perimeter
G1 F600
G1 X171.104 Y39.926 E.01595
G1 X170.625 Y40.071 E.01568
G1 X170.119 Y40.135 E.01598
G1 X169.603 Y40.11 E.01621
G1 X169.106 Y40.001 E.01596
G1 X168.635 Y39.808 E.01595
G1 X168.203 Y39.539 E.01595
G1 X167.823 Y39.201 E.01596
G1 X167.505 Y38.803 E.01595
G1 X167.26 Y38.358 E.01596
G1 X167.093 Y37.877 E.01595
G1 X167.01 Y37.379 E.01582
G1 X167.013 Y36.862 E.01622
G1 X167.101 Y36.365 E.01582
G1 X167.273 Y35.886 E.01596
G1 X167.523 Y35.443 E.01596
G1 X167.845 Y35.049 E.01596
G1 X168.229 Y34.715 E.01595
G1 X168.664 Y34.451 E.01595
G1 X169.137 Y34.263 E.01596
G1 X169.635 Y34.159 E.01596
G1 X170.143 Y34.14 E.01595
G1 X170.648 Y34.207 E.01596
G1 X171.133 Y34.359 E.01595
G1 X171.587 Y34.59 E.01595
G1 X171.994 Y34.895 E.01596
G1 X172.344 Y35.264 E.01595
G1 X172.627 Y35.687 E.01596
G1 X172.834 Y36.152 E.01596
G1 X172.96 Y36.645 E.01595
G1 X173.001 Y37.137 E.01546
G1 X172.958 Y37.644 E.01598
G1 X172.823 Y38.151 E.01643
G1 X172.611 Y38.614 E.01595
G1 X172.324 Y39.034 E.01595
G1 X171.97 Y39.399 E.01596
G1 X171.608 Y39.664 E.01407
G1 X171.569 Y40.1 F10800
;WIPE_START
G1 F8640
G1 X171.104 Y39.926 E-.13117
G1 X170.625 Y40.071 E-.1155
G1 X170.119 Y40.135 E-.11768
G1 X169.603 Y40.11 E-.11934
G1 X169.106 Y40.001 E-.1175
G1 X168.635 Y39.808 E-.1175
G1 X168.203 Y39.539 E-.1175
G1 X167.823 Y39.201 E-.1175
G1 X167.505 Y38.803 E-.1175
G1 X167.26 Y38.358 E-.1175
G1 X167.093 Y37.877 E-.1175
G1 X167.076 Y37.775 E-.02381
;WIPE_END
G1 E-.07 F2100
G1 Z.4 F10800
G1 X123.976 Y40.347
G1 Z.2
G1 E1.4 F2100
;TYPE:Perimeter
G1 F600
G1 X123.523 Y40.173 E.01521
G1 X123.031 Y39.879 E.01795
G1 X122.596 Y39.507 E.01795
G1 X122.23 Y39.067 E.01795
G1 X121.944 Y38.571 E.01796
G1 X121.745 Y38.034 E.01796
G1 X121.64 Y37.471 E.01796
G1 X121.632 Y36.898 E.01795
G1 X121.721 Y36.332 E.01796
G1 X121.904 Y35.79 E.01795
G1 X122.176 Y35.286 E.01795
G1 X122.53 Y34.835 E.01795
G1 X122.954 Y34.451 E.01795
G1 X123.437 Y34.144 E.01795
G1 X123.966 Y33.923 E.01795
G1 X124.524 Y33.794 E.01796
G1 X125.095 Y33.762 E.01795
G1 X125.664 Y33.826 E.01796
G1 X126.214 Y33.986 E.01795
G1 X126.729 Y34.237 E.01795
G1 X127.194 Y34.571 E.01796
G1 X127.596 Y34.979 E.01795
G1 X127.924 Y35.448 E.01795
G1 X128.167 Y35.967 E.01795
G1 X128.319 Y36.519 E.01795
G1 X128.378 Y37.137 E.01946
G1 X128.335 Y37.66 E.01646
G1 X128.199 Y38.216 E.01795
G1 X127.971 Y38.741 E.01795
G1 X127.657 Y39.22 E.01795
G1 X127.266 Y39.639 E.01795
G1 X126.811 Y39.986 E.01795
G1 X126.303 Y40.251 E.01795
G1 X125.758 Y40.427 E.01795
G1 X125.191 Y40.507 E.01795
G1 X124.619 Y40.491 E.01795
G1 X124.032 Y40.369 E.0188
G1 X124.106 Y40.001 F10800
;TYPE:External perimeter
G1 F600
G1 X123.635 Y39.808 E.01595
G1 X123.203 Y39.539 E.01595
G1 X122.823 Y39.201 E.01596
G1 X122.505 Y38.803 E.01595
G1 X122.26 Y38.358 E.01596
G1 X122.093 Y37.877 E.01596
G1 X122.009 Y37.375 E.01596
G1 X122.012 Y36.866 E.01595
G1 X122.101 Y36.365 E.01596
G1 X122.273 Y35.886 E.01596
G1 X122.523 Y35.443 E.01596
G1 X122.845 Y35.049 E.01595
G1 X123.229 Y34.715 E.01595
G1 X123.664 Y34.451 E.01596
G1 X124.137 Y34.263 E.01595
G1 X124.635 Y34.159 E.01596
G1 X125.143 Y34.14 E.01595
G1 X125.648 Y34.207 E.01596
G1 X126.133 Y34.359 E.01595
G1 X126.587 Y34.59 E.01595
G1 X126.994 Y34.895 E.01596
G1 X127.344 Y35.264 E.01596
G1 X127.627 Y35.687 E.01595
G1 X127.834 Y36.152 E.01596
G1 X127.96 Y36.645 E.01595
G1 X128.001 Y37.137 E.01546
G1 X127.954 Y37.659 E.01646
G1 X127.823 Y38.151 E.01595
G1 X127.611 Y38.614 E.01595
G1 X127.324 Y39.034 E.01596
G1 X126.97 Y39.399 E.01595
G1 X126.559 Y39.7 E.01596
G1 X126.104 Y39.926 E.01595
G1 X125.625 Y40.071 E.01568
G1 X125.119 Y40.135 E.01598
G1 X124.603 Y40.11 E.01621
G1 X124.165 Y40.014 E.01407
G1 X123.812 Y40.272 F10800
;WIPE_START
G1 F8640
G1 X123.635 Y39.808 E-.13117
G1 X123.203 Y39.539 E-.1175
G1 X122.823 Y39.201 E-.1175
G1 X122.505 Y38.803 E-.1175
G1 X122.26 Y38.358 E-.1175
G1 X122.093 Y37.877 E-.1175
G1 X122.009 Y37.375 E-.11752
G1 X122.012 Y36.866 E-.11744
G1 X122.101 Y36.365 E-.11753
G1 X122.273 Y35.886 E-.1175
G1 X122.523 Y35.443 E-.1175
G1 X122.589 Y35.363 E-.02385
;WIPE_END
G1 E-.07 F2100
G1 Z.4 F10800
G1 X78.448 Y40.128
G1 Z.2
G1 E1.4 F2100
;TYPE:Perimeter
G1 F600
G1 X78.031 Y39.879 E.01521
G1 X77.596 Y39.507 E.01795
G1 X77.23 Y39.067 E.01795
