; generated by PrusaSlicer 2.5.0+win64 on 2023-02-18 at 17:19:08 UTC

; 

; external perimeters extrusion width = 0.45mm
; perimeters extrusion width = 0.45mm
; infill extrusion width = 0.45mm
; solid infill extrusion width = 0.45mm
; top infill extrusion width = 0.40mm
; first layer extrusion width = 0.42mm

M73 P0 R109
M107
;TYPE:Custom
M862.3 P "MK2S" ; printer model check
M862.1 P0.4 ; nozzle diameter check
M115 U3.2.3 ; tell printer latest fw version
G90 ; use absolute coordinates
M83 ; extruder relative mode
M204 S2000 T1500 ; MK2 firmware only supports the old M204 format
M104 S230 ; set extruder temp
M140 S85 ; set bed temp
M190 S85 ; wait for bed temp
M109 S230 ; wait for extruder temp
G28 W ; home all without mesh bed level
G80 ; mesh bed leveling
G1 Y-3.0 F1000.0 ; go outside print area
G92 E0.0
G1 X60.0 E9.0  F1000.0 ; intro line
G1 X100.0 E12.5 F1000.0 ; intro line
G92 E0.0
G21 ; set units to millimeters
G90 ; use absolute coordinates
M83 ; use relative distances for extrusion
M900 K0.08 ; Filament gcode LA 1.5
M900 K45 ; Filament gcode LA 1.0
M107
;LAYER_CHANGE
;Z:0.2
;HEIGHT:0.2
;BEFORE_LAYER_CHANGE
G92 E0.0
;0.2


G1 E-1.4 F2100
G1 Z.2 F10800
;AFTER_LAYER_CHANGE
;0.2
G1 Z.4
G1 X81.562 Y13.413
G1 Z.2
G1 E1.4 F2100
M204 S1000
;TYPE:Skirt/Brim
;WIDTH:0.42
G1 F1200
G1 X81.743 Y12.725 E.02231
G1 X82.07 Y12.028 E.02413
G1 X82.655 Y11.292 E.02948
G1 X83.294 Y10.801 E.02526
G1 X84.145 Y10.421 E.02924
G1 X84.793 Y10.269 E.02086
G1 X85.795 Y10.198 E.03148
G1 X164.271 Y10.201 E2.46058
G1 X165.312 Y10.287 E.03274
G1 X165.991 Y10.465 E.02203
G1 X166.523 Y10.697 E.01819
G1 X167.158 Y11.124 E.02399
G1 X167.799 Y11.827 E.02983
G1 X168.182 Y12.534 E.02521
G1 X168.384 Y13.159 E.0206
G1 X168.52 Y14.157 E.03157
G1 X168.527 Y86.919 E2.28141
G1 X168.456 Y87.927 E.0317
G1 X168.315 Y88.547 E.01992
G1 X167.924 Y89.431 E.03031
G1 X167.457 Y90.045 E.0242
G1 X166.719 Y90.64 E.02971
G1 X166.008 Y90.978 E.02469
G1 X165.322 Y91.16 E.02225
G1 X164.15 Y91.252 E.03686
G1 X85.806 Y91.251 E2.45643
G1 X84.799 Y91.181 E.03163
G1 X84.17 Y91.037 E.02024
G1 X83.3 Y90.652 E.02985
G1 X82.685 Y90.186 E.02417
G1 X82.075 Y89.43 E.03047
G1 X81.744 Y88.727 E.02435
G1 X81.565 Y88.047 E.02207
G1 X81.473 Y86.881 E.03666
G1 X81.473 Y14.575 E2.26712
G1 X81.558 Y13.473 E.03465
; printing object nema17mount.STL id:0 copy 0
;WIPE_START
G1 F8640
G1 X81.743 Y12.725 E-.17792
G1 X82.07 Y12.028 E-.17768
G1 X82.655 Y11.292 E-.21709
G1 X83.294 Y10.801 E-.18605
G1 X84.145 Y10.421 E-.21532
G1 X84.793 Y10.269 E-.15361
G1 X85.667 Y10.207 E-.20232
;WIPE_END
G1 E-.07 F2100
G1 Z.4 F10800
G1 X84.87 Y13.578
G1 Z.2
G1 E1.4 F2100
;TYPE:Perimeter
;WIDTH:0.419999
G1 F1200
G1 X84.899 Y13.543 E.00145
G1 X85.17 Y13.428 E.00921
G1 X85.525 Y13.368 E.01129
G1 X97.158 Y13.368 E.36476
G1 X97.716 Y13.493 E.01791
G1 X97.899 Y13.638 E.00731
G1 X98.034 Y14.033 E.01311
G1 X98.063 Y14.595 E.01763
G1 X98.065 Y20.828 E.19543
G1 X98.127 Y21.536 E.02229
G1 X98.302 Y22.234 E.02257
G1 X98.584 Y22.896 E.02256
G1 X98.966 Y23.506 E.02256
G1 X99.439 Y24.049 E.02257
G1 X99.99 Y24.511 E.02256
G1 X100.608 Y24.881 E.02256
G1 X101.275 Y25.15 E.02257
G1 X101.976 Y25.311 E.02256
G1 X102.641 Y25.362 E.02091
G1 X146.243 Y25.362 E1.36709
G1 X147.403 Y25.36 E.03638
G1 X148.111 Y25.297 E.02229
G1 X148.809 Y25.122 E.02256
G1 X149.472 Y24.841 E.02256
G1 X150.081 Y24.459 E.02256
G1 X150.624 Y23.986 E.02256
G1 X151.086 Y23.434 E.02256
G1 X151.456 Y22.817 E.02256
G1 X151.725 Y22.15 E.02257
G1 X151.887 Y21.448 E.02256
G1 X151.937 Y20.784 E.02089
G1 X151.944 Y14.267 E.20435
G1 X152.069 Y13.709 E.01792
G1 X152.213 Y13.526 E.00731
G1 X152.609 Y13.39 E.01311
G1 X153.17 Y13.362 E.01763
G1 X164.084 Y13.362 E.34219
G1 X164.585 Y13.385 E.01575
G1 X164.953 Y13.469 E.01184
G1 X165.139 Y13.568 E.00661
G1 X165.244 Y13.741 E.00635
G1 X165.329 Y14.115 E.01202
G1 X165.363 Y14.641 E.01652
G1 X165.363 Y86.853 E2.26415
G1 X165.324 Y87.404 E.01732
G1 X165.222 Y87.772 E.01197
G1 X165.081 Y87.92 E.00642
G1 X164.675 Y88.06 E.01349
G1 X164.13 Y88.088 E.0171
G1 X153.202 Y88.088 E.34263
G1 X152.716 Y88.064 E.01525
G1 X152.28 Y87.961 E.01405
G1 X152.118 Y87.825 E.00663
G1 X152.003 Y87.555 E.00921
G1 X151.944 Y87.2 E.0113
G1 X151.935 Y80.622 E.20625
G1 X151.873 Y79.913 E.02229
G1 X151.698 Y79.215 E.02256
G1 X151.416 Y78.553 E.02256
G1 X151.034 Y77.943 E.02256
G1 X150.561 Y77.4 E.02257
G1 X150.01 Y76.938 E.02256
G1 X149.392 Y76.568 E.02256
G1 X148.725 Y76.299 E.02256
G1 X148.024 Y76.138 E.02256
G1 X147.359 Y76.088 E.02091
G1 X103.183 Y76.088 E1.38509
G1 X102.188 Y76.121 E.03122
G1 X101.711 Y76.195 E.01514
G1 X101.191 Y76.327 E.01682
G1 X100.528 Y76.609 E.02256
G1 X99.919 Y76.991 E.02256
G1 X99.376 Y77.463 E.02257
G1 X98.914 Y78.015 E.02256
G1 X98.544 Y78.632 E.02256
G1 X98.275 Y79.3 E.02257
G1 X98.114 Y80.001 E.02256
G1 X98.063 Y80.666 E.02091
G1 X98.063 Y86.822 E.19303
G1 X98.04 Y87.308 E.01525
G1 X97.937 Y87.745 E.01406
G1 X97.801 Y87.906 E.00662
G1 X97.53 Y88.022 E.00922
G1 X97.175 Y88.081 E.0113
G1 X85.872 Y88.088 E.35441
G1 X85.321 Y88.049 E.01731
G1 X84.953 Y87.947 E.01197
G1 X84.805 Y87.806 E.00642
G1 X84.665 Y87.399 E.01349
G1 X84.637 Y86.855 E.0171
G1 X84.637 Y14.627 E2.26465
G1 X84.66 Y14.141 E.01525
G1 X84.763 Y13.705 E.01405
G1 X84.831 Y13.624 E.0033
G1 X84.565 Y13.323 F10800
;TYPE:External perimeter
G1 F1200
G1 X84.773 Y13.165 E.00817
G1 X85.047 Y13.071 E.00908
G1 X85.502 Y12.991 E.0145
G1 X97.071 Y12.991 E.36272
G1 X97.588 Y13.063 E.01636
G1 X97.892 Y13.16 E.01
G1 X98.129 Y13.333 E.00922
G1 X98.267 Y13.536 E.00771
G1 X98.409 Y13.982 E.01468
G1 X98.44 Y14.585 E.01892
G1 X98.441 Y20.798 E.1948
G1 X98.494 Y21.448 E.02044
G1 X98.651 Y22.09 E.02071
G1 X98.905 Y22.699 E.02071
G1 X99.253 Y23.261 E.02071
G1 X99.683 Y23.762 E.02071
G1 X100.187 Y24.189 E.02071
G1 X100.752 Y24.533 E.02071
G1 X101.363 Y24.783 E.02071
G1 X102.006 Y24.935 E.02071
G1 X102.641 Y24.985 E.01998
G1 X146.243 Y24.985 E1.36709
G1 X147.373 Y24.984 E.03545
G1 X148.023 Y24.931 E.02044
G1 X148.665 Y24.774 E.02071
G1 X149.275 Y24.519 E.02071
G1 X149.837 Y24.172 E.02071
G1 X150.337 Y23.741 E.02071
G1 X150.765 Y23.237 E.02071
G1 X151.108 Y22.673 E.02071
G1 X151.359 Y22.062 E.02071
G1 X151.511 Y21.419 E.02071
G1 X151.56 Y20.784 E.01997
G1 X151.567 Y14.353 E.20162
G1 X151.638 Y13.837 E.01635
G1 X151.735 Y13.533 E.01
G1 X151.908 Y13.295 E.00922
G1 X152.112 Y13.157 E.00771
G1 X152.558 Y13.015 E.01468
G1 X153.16 Y12.985 E.01892
G1 X164.098 Y12.985 E.34293
G1 X164.605 Y13.008 E.01591
G1 X165.18 Y13.141 E.01853
G1 X165.402 Y13.29 E.00836
G1 X165.559 Y13.498 E.00817
G1 X165.645 Y13.747 E.00827
G1 X165.705 Y14.089 E.01089
G1 X165.74 Y14.641 E.01735
G1 X165.74 Y86.866 E2.26456
G1 X165.691 Y87.57 E.02212
G1 X165.559 Y87.952 E.01266
G1 X165.402 Y88.159 E.00817
G1 X165.18 Y88.308 E.00836
G1 X164.737 Y88.434 E.01447
G1 X164.14 Y88.465 E.01874
G1 X153.202 Y88.465 E.34293
G1 X152.697 Y88.441 E.01586
G1 X152.12 Y88.308 E.01858
G1 X151.898 Y88.159 E.00836
G1 X151.741 Y87.952 E.00817
G1 X151.646 Y87.678 E.00908
G1 X151.567 Y87.222 E.01451
G1 X151.559 Y80.651 E.20603
G1 X151.506 Y80.001 E.02044
G1 X151.349 Y79.36 E.02071
G1 X151.095 Y78.75 E.02071
G1 X150.747 Y78.188 E.02071
G1 X150.317 Y77.687 E.02071
G1 X149.813 Y77.26 E.02071
G1 X149.248 Y76.917 E.02071
G1 X148.637 Y76.666 E.02071
G1 X147.994 Y76.514 E.02071
G1 X147.359 Y76.465 E.01998
G1 X103.183 Y76.465 E1.38509
G1 X102.543 Y76.472 E.02008
G1 X101.977 Y76.519 E.0178
G1 X101.335 Y76.675 E.02071
G1 X100.725 Y76.93 E.02071
G1 X100.163 Y77.277 E.02071
G1 X99.663 Y77.708 E.02071
G1 X99.235 Y78.212 E.02071
G1 X98.892 Y78.776 E.02071
G1 X98.641 Y79.388 E.02071
G1 X98.489 Y80.031 E.02071
G1 X98.44 Y80.666 E.01998
G1 X98.44 Y86.822 E.19303
G1 X98.416 Y87.327 E.01585
G1 X98.283 Y87.905 E.0186
G1 X98.135 Y88.126 E.00834
G1 X97.927 Y88.284 E.00817
G1 X97.653 Y88.378 E.00908
G1 X97.198 Y88.458 E.0145
G1 X85.859 Y88.465 E.35553
G1 X85.155 Y88.415 E.02212
G1 X84.773 Y88.284 E.01267
G1 X84.566 Y88.126 E.00817
G1 X84.417 Y87.905 E.00836
G1 X84.29 Y87.461 E.01447
G1 X84.26 Y86.864 E.01874
G1 X84.26 Y14.627 E2.26495
G1 X84.284 Y14.122 E.01586
M73 P0 R108
G1 X84.417 Y13.544 E.01858
G1 X84.532 Y13.373 E.00648
G1 X84.821 Y13.376 F10800
;WIPE_START
G1 F8640
G1 X84.773 Y13.165 E-.07339
G1 X85.047 Y13.071 E-.06686
G1 X85.502 Y12.991 E-.1068
G1 X90.192 Y12.991 E-1.08294
;WIPE_END
G1 E-.07 F2100
G1 Z.4 F10800
G1 X142.962 Y34.904
G1 Z.2
G1 E1.4 F2100
;TYPE:Perimeter
G1 F1200
G1 X142.982 Y35.378 E.01487
G1 X142.92 Y35.795 E.01322
G1 X142.789 Y36.196 E.01322
G1 X142.592 Y36.569 E.01322
G1 X142.334 Y36.903 E.01322
G1 X141.954 Y37.236 E.01586
G1 X141.67 Y37.418 E.01056
G1 X141.283 Y37.584 E.01322
G1 X140.873 Y37.683 E.01322
G1 X140.452 Y37.71 E.01322
G1 X140.033 Y37.667 E.01322
G1 X139.627 Y37.552 E.01322
G1 X139.246 Y37.371 E.01322
G1 X138.901 Y37.129 E.01322
G1 X138.609 Y36.834 E.013
G1 X138.412 Y36.574 E.01022
G1 X138.176 Y36.107 E.01643
G1 X138.06 Y35.701 E.01322
G1 X138.021 Y35.127 E.01806
G1 X138.109 Y34.543 E.01852
G1 X138.302 Y34.063 E.01622
G1 X138.53 Y33.708 E.01322
G1 X138.815 Y33.397 E.01322
G1 X139.148 Y33.138 E.01322
G1 X139.52 Y32.94 E.01322
G1 X139.943 Y32.803 E.01395
G1 X140.488 Y32.738 E.0172
G1 X141.053 Y32.803 E.01784
G1 X141.568 Y32.979 E.01705
G1 X141.932 Y33.192 E.01322
G1 X142.255 Y33.463 E.01322
G1 X142.593 Y33.892 E.01714
G1 X142.741 Y34.148 E.00927
G1 X142.891 Y34.543 E.01322
G1 X142.95 Y34.845 E.00967
G1 X142.595 Y34.972 F10800
;TYPE:External perimeter
G1 F1200
G1 X142.608 Y35.33 E.01122
G1 X142.559 Y35.685 E.01122
G1 X142.452 Y36.026 E.01122
G1 X142.288 Y36.345 E.01122
G1 X142.073 Y36.631 E.01122
G1 X141.743 Y36.924 E.01385
G1 X141.218 Y37.209 E.01873
G1 X140.841 Y37.307 E.01222
G1 X140.484 Y37.335 E.01122
G1 X140.128 Y37.302 E.01122
G1 X139.782 Y37.209 E.01122
G1 X139.457 Y37.059 E.01122
G1 X139.162 Y36.856 E.01122
G1 X138.91 Y36.606 E.01114
G1 X138.713 Y36.346 E.01022
G1 X138.536 Y35.997 E.01229
G1 X138.434 Y35.654 E.01122
G1 X138.398 Y35.143 E.01606
G1 X138.478 Y34.622 E.01651
G1 X138.623 Y34.26 E.01222
G1 X138.813 Y33.957 E.01122
G1 X139.051 Y33.69 E.01122
G1 X139.332 Y33.467 E.01122
G1 X139.645 Y33.295 E.01122
G1 X139.992 Y33.177 E.01146
G1 X140.488 Y33.115 E.01568
G1 X141.007 Y33.177 E.0164
G1 X141.384 Y33.308 E.0125
G1 X141.695 Y33.485 E.01122
G1 X141.972 Y33.712 E.01122
G1 X142.272 Y34.09 E.01514
G1 X142.513 Y34.591 E.01744
G1 X142.582 Y34.914 E.01034
G1 X142.927 Y35.106 F10800
;WIPE_START
G1 F8640
G1 X142.608 Y35.33 E-.09631
G1 X142.559 Y35.685 E-.08265
G1 X142.452 Y36.026 E-.08264
G1 X142.288 Y36.345 E-.08264
G1 X142.073 Y36.631 E-.08264
G1 X141.743 Y36.924 E-.10201
G1 X141.218 Y37.209 E-.13791
G1 X140.841 Y37.307 E-.09
G1 X140.484 Y37.335 E-.08264
G1 X140.128 Y37.302 E-.08264
G1 X139.782 Y37.209 E-.08264
G1 X139.457 Y37.059 E-.08264
G1 X139.162 Y36.856 E-.08264
G1 X138.91 Y36.606 E-.08203
G1 X138.713 Y36.346 E-.07523
G1 X138.708 Y36.336 E-.00273
;WIPE_END
G1 E-.07 F2100
G1 Z.4 F10800
G1 X133.505 Y41.864
G1 Z.2
G1 E1.4 F2100
;TYPE:Perimeter
G1 F1200
G1 X134.849 Y43.38 E.06353
G1 X135.949 Y45.151 E.06534
G1 X136.083 Y45.462 E.01064
G1 X136.733 Y47.081 E.0547
G1 X137.181 Y49.12 E.06546
G1 X137.277 Y51.198 E.06521
G1 X137.02 Y53.266 E.06534
G1 X136.418 Y55.261 E.06534
G1 X135.487 Y57.125 E.06534
G1 X134.254 Y58.806 E.06534
G1 X133.809 Y59.243 E.01958
G1 X132.803 Y60.208 E.04369
G1 X131.036 Y61.425 E.06728
G1 X129.138 Y62.293 E.06543
G1 X127.124 Y62.826 E.06534
G1 X124.952 Y63.01 E.06833
G1 X122.876 Y62.826 E.06534
G1 X120.952 Y62.325 E.06234
G1 X119.05 Y61.474 E.06534
G1 X117.319 Y60.314 E.06534
G1 X115.809 Y58.878 E.06534
G1 X114.563 Y57.207 E.06534
G1 X113.618 Y55.35 E.06534
G1 X113 Y53.36 E.06534
G1 X112.723 Y51.198 E.06833
G1 X112.808 Y49.212 E.06234
G1 X113.055 Y48.027 E.03795
G1 X113.239 Y47.172 E.02741
G1 X113.984 Y45.297 E.06325
G1 X115.092 Y43.46 E.06728
G1 X116.464 Y41.888 E.06543
G1 X118.08 Y40.573 E.06534
G1 X119.896 Y39.549 E.06534
G1 X121.951 Y38.823 E.06833
G1 X123.906 Y38.488 E.06219
G1 X124.943 Y38.439 E.03256
G1 X126.094 Y38.488 E.03613
G1 X128.049 Y38.823 E.06219
G1 X130.017 Y39.51 E.06534
G1 X131.84 Y40.519 E.06534
G1 X133.465 Y41.82 E.06526
G1 X133.23 Y42.116 F10800
;TYPE:External perimeter
G1 F1200
G1 X134.568 Y43.631 E.06338
G1 X135.628 Y45.348 E.06326
G1 X136.383 Y47.222 E.06334
G1 X136.816 Y49.228 E.06434
G1 X136.9 Y51.214 E.06234
G1 X136.639 Y53.249 E.06434
G1 X136.057 Y55.151 E.06234
G1 X135.15 Y56.956 E.06334
G1 X133.951 Y58.581 E.06334
G1 X132.542 Y59.936 E.06127
M73 P1 R108
G1 X130.823 Y61.114 E.06534
G1 X128.983 Y61.949 E.06337
G1 X126.997 Y62.466 E.06434
G1 X125.016 Y62.635 E.06234
G1 X123.003 Y62.466 E.06334
G1 X121.047 Y61.96 E.06334
G1 X119.205 Y61.13 E.06334
G1 X117.53 Y60.001 E.06334
G1 X116.07 Y58.605 E.06334
G1 X114.867 Y56.983 E.06334
G1 X114.4 Y56.063 E.03233
G1 X113.955 Y55.18 E.03101
G1 X113.361 Y53.249 E.06334
G1 X113.101 Y51.246 E.06334
G1 X113.184 Y49.228 E.06334
G1 X113.607 Y47.252 E.06335
G1 X114.333 Y45.438 E.06127
G1 X115.414 Y43.656 E.06534
G1 X115.88 Y43.123 E.0222
G1 X116.749 Y42.135 E.04124
G1 X118.317 Y40.866 E.06327
G1 X120.08 Y39.878 E.06334
G1 X121.983 Y39.203 E.06334
G1 X123.969 Y38.86 E.06319
G1 X124.975 Y38.816 E.03155
G1 X126.006 Y38.857 E.03237
G1 X127.986 Y39.195 E.06296
G1 X129.891 Y39.865 E.06334
G1 X131.656 Y40.848 E.06334
G1 X133.184 Y42.078 E.06149
G1 X133.614 Y42.003 F10800
;WIPE_START
G1 F8640
G1 X134.568 Y43.631 E-.48044
G1 X135.628 Y45.348 E-.46588
G1 X136.249 Y46.889 E-.38368
;WIPE_END
G1 E-.07 F2100
G1 Z.4 F10800
G1 X138.281 Y65.112
G1 Z.2
G1 E1.4 F2100
;TYPE:Perimeter
G1 F1200
G1 X138.53 Y64.708 E.01487
G1 X138.951 Y64.286 E.01869
G1 X139.432 Y63.979 E.0179
G1 X139.91 Y63.809 E.01591
G1 X140.415 Y63.743 E.01597
G1 X141.053 Y63.803 E.02009
G1 X141.545 Y63.967 E.01625
G1 X141.876 Y64.152 E.01191
G1 X142.255 Y64.463 E.01535
G1 X142.527 Y64.785 E.01322
G1 X142.741 Y65.148 E.01322
G1 X142.891 Y65.543 E.01322
G1 X142.972 Y65.956 E.01322
G1 X142.982 Y66.378 E.01322
G1 X142.866 Y66.97 E.01892
G1 X142.642 Y67.487 E.01767
G1 X142.334 Y67.903 E.01622
G1 X142.024 Y68.189 E.01322
G1 X141.67 Y68.418 E.01322
G1 X141.312 Y68.573 E.01225
G1 X140.873 Y68.683 E.01418
G1 X140.452 Y68.71 E.01323
G1 X140.033 Y68.667 E.01322
G1 X139.627 Y68.552 E.01322
G1 X139.246 Y68.371 E.01322
G1 X138.901 Y68.129 E.01322
G1 X138.602 Y67.831 E.01322
G1 X138.358 Y67.487 E.01322
G1 X138.125 Y66.941 E.01862
G1 X138.018 Y66.378 E.01796
G1 X138.04 Y65.861 E.01622
G1 X138.137 Y65.451 E.01322
G1 X138.258 Y65.167 E.00967
G1 X138.409 Y65.941 F10800
;TYPE:External perimeter
G1 F1200
G1 X138.487 Y65.591 E.01122
G1 X138.623 Y65.26 E.01122
G1 X138.813 Y64.957 E.01122
G1 X139.188 Y64.58 E.01668
G1 X139.616 Y64.308 E.01589
G1 X139.992 Y64.177 E.01246
G1 X140.488 Y64.115 E.01569
G1 X141.007 Y64.177 E.01639
G1 X141.384 Y64.308 E.0125
G1 X141.676 Y64.472 E.01052
G1 X141.972 Y64.712 E.01193
G1 X142.206 Y64.983 E.01122
G1 X142.391 Y65.289 E.01122
G1 X142.522 Y65.622 E.01122
G1 X142.595 Y65.972 E.01122
G1 X142.608 Y66.33 E.01122
G1 X142.506 Y66.86 E.01691
G1 X142.304 Y67.32 E.01574
G1 X142.073 Y67.631 E.01214
G1 X141.813 Y67.876 E.01122
G1 X141.515 Y68.075 E.01122
G1 X141.212 Y68.209 E.01039
G1 X140.841 Y68.307 E.01204
G1 X140.484 Y68.335 E.01123
G1 X140.128 Y68.302 E.01122
G1 X139.782 Y68.209 E.01122
G1 X139.457 Y68.059 E.01122
G1 X139.162 Y67.856 E.01122
G1 X138.905 Y67.607 E.01122
G1 X138.695 Y67.317 E.01122
G1 X138.485 Y66.831 E.01661
G1 X138.392 Y66.33 E.01596
G1 X138.406 Y66.001 E.01034
G1 X138.122 Y65.727 F10800
;WIPE_START
G1 F8640
G1 X138.487 Y65.591 E-.09631
G1 X138.623 Y65.26 E-.08265
G1 X138.813 Y64.957 E-.08264
G1 X139.188 Y64.58 E-.12286
G1 X139.616 Y64.308 E-.11703
G1 X139.992 Y64.177 E-.09177
G1 X140.488 Y64.115 E-.11558
G1 X141.007 Y64.177 E-.12074
G1 X141.384 Y64.308 E-.09204
G1 X141.676 Y64.472 E-.07744
G1 X141.972 Y64.712 E-.08787
G1 X142.206 Y64.983 E-.08264
G1 X142.391 Y65.289 E-.08264
G1 X142.515 Y65.602 E-.0778
;WIPE_END
G1 E-.07 F2100
G1 Z.4 F10800
G1 X111.71 Y65.098
G1 Z.2
G1 E1.4 F2100
;TYPE:Perimeter
G1 F1200
G1 X111.88 Y65.513 E.01409
G1 X111.972 Y65.956 E.01418
