; generated by PrusaSlicer 2.5.0+win64 on 2023-02-19 at 22:34:30 UTC

; 

; external perimeters extrusion width = 0.45mm
; perimeters extrusion width = 0.45mm
; infill extrusion width = 0.45mm
; solid infill extrusion width = 0.45mm
; top infill extrusion width = 0.40mm
; support material extrusion width = 0.35mm
; first layer extrusion width = 0.42mm

M73 P0 R180
M107
;TYPE:Custom
M862.3 P "MK2S" ; printer model check
M862.1 P0.4 ; nozzle diameter check
M115 U3.2.3 ; tell printer latest fw version
G90 ; use absolute coordinates
M83 ; extruder relative mode
M204 S2000 T1500 ; MK2 firmware only supports the old M204 format
M104 S230 ; set extruder temp
M140 S85 ; set bed temp
M190 S85 ; wait for bed temp
M109 S230 ; wait for extruder temp
G28 W ; home all without mesh bed level
G80 ; mesh bed leveling
G1 Y-3.0 F1000.0 ; go outside print area
G92 E0.0
G1 X60.0 E9.0  F1000.0 ; intro line
G1 X100.0 E12.5 F1000.0 ; intro line
G92 E0.0
G21 ; set units to millimeters
G90 ; use absolute coordinates
M83 ; use relative distances for extrusion
M900 K0.08 ; Filament gcode LA 1.5
M900 K45 ; Filament gcode LA 1.0
M107
;LAYER_CHANGE
;Z:0.2
;HEIGHT:0.2
;BEFORE_LAYER_CHANGE
G92 E0.0
;0.2


G1 E-1.4 F2100
G1 Z.2 F10800
;AFTER_LAYER_CHANGE
;0.2
G1 Z.4
G1 X108.144 Y11.893
G1 Z.2
G1 E1.4 F2100
M204 S1000
;TYPE:Skirt/Brim
;WIDTH:0.42
G1 F600
G1 X108.84 Y10.212 E.05704
G1 X110.475 Y8.578 E.07247
G1 X112.155 Y7.881 E.05704
G1 X137.845 Y7.881 E.80547
G1 X139.525 Y8.578 E.05704
G1 X141.16 Y10.212 E.07247
G1 X141.856 Y11.893 E.05704
G1 X141.856 Y139.093 E3.98829
G1 X141.16 Y140.774 E.05704
G1 X139.525 Y142.409 E.07247
G1 X137.845 Y143.105 E.05704
G1 X112.155 Y143.105 E.80547
G1 X110.475 Y142.409 E.05704
G1 X108.84 Y140.774 E.07247
G1 X108.144 Y139.093 E.05704
G1 X108.144 Y11.953 E3.98641
; printing object FixedBaseMount.STL id:0 copy 0
;WIPE_START
G1 F8640
G1 X108.84 Y10.212 E-.43292
G1 X110.475 Y8.578 E-.53369
G1 X111.929 Y7.975 E-.36339
;WIPE_END
G1 E-.07 F2100
G1 Z.4 F10800
G1 X139.479 Y11.893
G1 Z.2
G1 E1.4 F2100
;TYPE:Support material
G1 F600
G1 X139.479 Y139.093 E3.98829
G1 X137.845 Y140.728 E.07247
M73 P0 R179
G1 X112.155 Y140.728 E.80547
G1 X110.521 Y139.093 E.07247
G1 X110.521 Y11.893 E3.98829
G1 X112.155 Y10.258 E.07247
G1 X137.845 Y10.258 E.80547
G1 X139.439 Y11.853 E.0707
;WIPE_START
G1 F8640
G1 X137.845 Y10.258 E-.52063
G1 X134.339 Y10.258 E-.80937
;WIPE_END
G1 E-.07 F2100
G1 Z.4 F10800
G1 X112.056 Y140.149
G1 Z.2
G1 E1.4 F2100
G1 F600
G1 X112.296 Y140.388 E.01062
G1 X137.704 Y140.388 E.79665
G1 X138.077 Y140.016 E.01653
G1 X111.923 Y140.016 E.82003
G1 X111.504 Y139.597 E.01858
G1 X138.496 Y139.597 E.84631
G1 X138.915 Y139.178 E.01858
G1 X111.085 Y139.178 E.87258
G1 X110.86 Y138.953 E.00996
G1 X110.86 Y138.759 E.00609
G1 X139.14 Y138.759 E.88667
G1 X139.14 Y138.34 E.01314
G1 X110.86 Y138.34 E.88667
G1 X110.86 Y137.921 E.01314
G1 X139.14 Y137.921 E.88667
G1 X139.14 Y137.502 E.01314
G1 X110.86 Y137.502 E.88667
G1 X110.86 Y137.083 E.01314
G1 X139.14 Y137.083 E.88667
G1 X139.14 Y136.664 E.01314
G1 X110.86 Y136.664 E.88667
G1 X110.86 Y136.245 E.01314
G1 X139.14 Y136.245 E.88667
G1 X139.14 Y135.826 E.01314
G1 X110.86 Y135.826 E.88667
G1 X110.86 Y135.407 E.01314
G1 X139.14 Y135.407 E.88667
G1 X139.14 Y134.988 E.01314
M73 P1 R178
G1 X110.86 Y134.988 E.88667
G1 X110.86 Y134.569 E.01314
G1 X139.14 Y134.569 E.88667
G1 X139.14 Y134.15 E.01314
G1 X110.86 Y134.15 E.88667
G1 X110.86 Y133.731 E.01314
G1 X139.14 Y133.731 E.88667
G1 X139.14 Y133.312 E.01314
G1 X110.86 Y133.312 E.88667
G1 X110.86 Y132.893 E.01314
G1 X139.14 Y132.893 E.88667
G1 X139.14 Y132.474 E.01314
G1 X110.86 Y132.474 E.88667
G1 X110.86 Y132.055 E.01314
G1 X139.14 Y132.055 E.88667
G1 X139.14 Y131.636 E.01314
G1 X110.86 Y131.636 E.88667
G1 X110.86 Y131.217 E.01314
G1 X139.14 Y131.217 E.88667
G1 X139.14 Y130.798 E.01314
G1 X110.86 Y130.798 E.88667
G1 X110.86 Y130.379 E.01314
G1 X139.14 Y130.379 E.88667
G1 X139.14 Y129.96 E.01314
G1 X110.86 Y129.96 E.88667
G1 X110.86 Y129.541 E.01314
G1 X139.14 Y129.541 E.88667
G1 X139.14 Y129.122 E.01314
G1 X110.86 Y129.122 E.88667
G1 X110.86 Y128.703 E.01314
G1 X139.14 Y128.703 E.88667
G1 X139.14 Y128.284 E.01314
G1 X110.86 Y128.284 E.88667
G1 X110.86 Y127.865 E.01314
G1 X139.14 Y127.865 E.88667
G1 X139.14 Y127.446 E.01314
G1 X110.86 Y127.446 E.88667
G1 X110.86 Y127.027 E.01314
G1 X139.14 Y127.027 E.88667
G1 X139.14 Y126.608 E.01314
G1 X110.86 Y126.608 E.88667
G1 X110.86 Y126.189 E.01314
M73 P1 R177
G1 X139.14 Y126.189 E.88667
G1 X139.14 Y125.77 E.01314
G1 X110.86 Y125.77 E.88667
G1 X110.86 Y125.351 E.01314
G1 X139.14 Y125.351 E.88667
G1 X139.14 Y124.932 E.01314
G1 X110.86 Y124.932 E.88667
G1 X110.86 Y124.513 E.01314
G1 X139.14 Y124.513 E.88667
G1 X139.14 Y124.094 E.01314
G1 X110.86 Y124.094 E.88667
G1 X110.86 Y123.675 E.01314
G1 X139.14 Y123.675 E.88667
G1 X139.14 Y123.256 E.01314
G1 X110.86 Y123.256 E.88667
G1 X110.86 Y122.837 E.01314
G1 X139.14 Y122.837 E.88667
G1 X139.14 Y122.419 E.01314
G1 X110.86 Y122.419 E.88667
G1 X110.86 Y122 E.01314
G1 X139.14 Y122 E.88667
G1 X139.14 Y121.581 E.01314
G1 X110.86 Y121.581 E.88667
G1 X110.86 Y121.162 E.01314
G1 X139.14 Y121.162 E.88667
G1 X139.14 Y120.743 E.01314
G1 X110.86 Y120.743 E.88667
G1 X110.86 Y120.324 E.01314
G1 X139.14 Y120.324 E.88667
G1 X139.14 Y119.905 E.01314
G1 X110.86 Y119.905 E.88667
G1 X110.86 Y119.486 E.01314
G1 X139.14 Y119.486 E.88667
G1 X139.14 Y119.067 E.01314
M73 P2 R177
G1 X110.86 Y119.067 E.88667
G1 X110.86 Y118.648 E.01314
G1 X139.14 Y118.648 E.88667
G1 X139.14 Y118.229 E.01314
G1 X110.86 Y118.229 E.88667
G1 X110.86 Y117.81 E.01314
G1 X139.14 Y117.81 E.88667
G1 X139.14 Y117.391 E.01314
M73 P2 R176
G1 X110.86 Y117.391 E.88667
G1 X110.86 Y116.972 E.01314
G1 X139.14 Y116.972 E.88667
G1 X139.14 Y116.553 E.01314
G1 X110.86 Y116.553 E.88667
G1 X110.86 Y116.134 E.01314
G1 X139.14 Y116.134 E.88667
G1 X139.14 Y115.715 E.01314
G1 X110.86 Y115.715 E.88667
G1 X110.86 Y115.296 E.01314
G1 X139.14 Y115.296 E.88667
G1 X139.14 Y114.877 E.01314
G1 X110.86 Y114.877 E.88667
G1 X110.86 Y114.458 E.01314
G1 X139.14 Y114.458 E.88667
G1 X139.14 Y114.039 E.01314
G1 X110.86 Y114.039 E.88667
G1 X110.86 Y113.62 E.01314
G1 X139.14 Y113.62 E.88667
G1 X139.14 Y113.201 E.01314
G1 X110.86 Y113.201 E.88667
G1 X110.86 Y112.782 E.01314
G1 X139.14 Y112.782 E.88667
G1 X139.14 Y112.363 E.01314
G1 X110.86 Y112.363 E.88667
G1 X110.86 Y111.944 E.01314
G1 X139.14 Y111.944 E.88667
G1 X139.14 Y111.525 E.01314
G1 X110.86 Y111.525 E.88667
G1 X110.86 Y111.106 E.01314
G1 X139.14 Y111.106 E.88667
G1 X139.14 Y110.687 E.01314
G1 X110.86 Y110.687 E.88667
G1 X110.86 Y110.268 E.01314
G1 X139.14 Y110.268 E.88667
G1 X139.14 Y109.849 E.01314
G1 X110.86 Y109.849 E.88667
G1 X110.86 Y109.43 E.01314
G1 X139.14 Y109.43 E.88667
G1 X139.14 Y109.011 E.01314
G1 X110.86 Y109.011 E.88667
G1 X110.86 Y108.592 E.01314
M73 P2 R175
G1 X139.14 Y108.592 E.88667
G1 X139.14 Y108.173 E.01314
G1 X110.86 Y108.173 E.88667
G1 X110.86 Y107.754 E.01314
G1 X139.14 Y107.754 E.88667
G1 X139.14 Y107.335 E.01314
G1 X110.86 Y107.335 E.88667
G1 X110.86 Y106.916 E.01314
G1 X139.14 Y106.916 E.88667
G1 X139.14 Y106.497 E.01314
G1 X110.86 Y106.497 E.88667
G1 X110.86 Y106.078 E.01314
G1 X139.14 Y106.078 E.88667
G1 X139.14 Y105.659 E.01314
G1 X110.86 Y105.659 E.88667
G1 X110.86 Y105.24 E.01314
G1 X139.14 Y105.24 E.88667
G1 X139.14 Y104.821 E.01314
G1 X110.86 Y104.821 E.88667
G1 X110.86 Y104.402 E.01314
G1 X139.14 Y104.402 E.88667
G1 X139.14 Y103.984 E.01314
G1 X110.86 Y103.984 E.88667
G1 X110.86 Y103.565 E.01314
G1 X139.14 Y103.565 E.88667
G1 X139.14 Y103.146 E.01314
M73 P3 R175
G1 X110.86 Y103.146 E.88667
G1 X110.86 Y102.727 E.01314
G1 X139.14 Y102.727 E.88667
G1 X139.14 Y102.308 E.01314
G1 X110.86 Y102.308 E.88667
G1 X110.86 Y101.889 E.01314
G1 X139.14 Y101.889 E.88667
G1 X139.14 Y101.47 E.01314
G1 X110.86 Y101.47 E.88667
G1 X110.86 Y101.051 E.01314
G1 X139.14 Y101.051 E.88667
G1 X139.14 Y100.632 E.01314
G1 X110.86 Y100.632 E.88667
G1 X110.86 Y100.213 E.01314
G1 X139.14 Y100.213 E.88667
G1 X139.14 Y99.794 E.01314
M73 P3 R174
G1 X110.86 Y99.794 E.88667
G1 X110.86 Y99.375 E.01314
G1 X139.14 Y99.375 E.88667
G1 X139.14 Y98.956 E.01314
G1 X110.86 Y98.956 E.88667
G1 X110.86 Y98.537 E.01314
G1 X139.14 Y98.537 E.88667
G1 X139.14 Y98.118 E.01314
G1 X110.86 Y98.118 E.88667
G1 X110.86 Y97.699 E.01314
G1 X139.14 Y97.699 E.88667
G1 X139.14 Y97.28 E.01314
G1 X110.86 Y97.28 E.88667
G1 X110.86 Y96.861 E.01314
G1 X139.14 Y96.861 E.88667
G1 X139.14 Y96.442 E.01314
G1 X110.86 Y96.442 E.88667
G1 X110.86 Y96.023 E.01314
G1 X139.14 Y96.023 E.88667
G1 X139.14 Y95.604 E.01314
G1 X110.86 Y95.604 E.88667
G1 X110.86 Y95.185 E.01314
G1 X139.14 Y95.185 E.88667
G1 X139.14 Y94.766 E.01314
G1 X110.86 Y94.766 E.88667
G1 X110.86 Y94.347 E.01314
G1 X139.14 Y94.347 E.88667
G1 X139.14 Y93.928 E.01314
G1 X110.86 Y93.928 E.88667
G1 X110.86 Y93.509 E.01314
G1 X139.14 Y93.509 E.88667
G1 X139.14 Y93.09 E.01314
G1 X110.86 Y93.09 E.88667
G1 X110.86 Y92.671 E.01314
G1 X139.14 Y92.671 E.88667
G1 X139.14 Y92.252 E.01314
G1 X110.86 Y92.252 E.88667
G1 X110.86 Y91.833 E.01314
G1 X139.14 Y91.833 E.88667
G1 X139.14 Y91.414 E.01314
G1 X110.86 Y91.414 E.88667
G1 X110.86 Y90.995 E.01314
M73 P3 R173
G1 X139.14 Y90.995 E.88667
G1 X139.14 Y90.576 E.01314
G1 X110.86 Y90.576 E.88667
G1 X110.86 Y90.157 E.01314
G1 X139.14 Y90.157 E.88667
G1 X139.14 Y89.738 E.01314
G1 X110.86 Y89.738 E.88667
G1 X110.86 Y89.319 E.01314
G1 X139.14 Y89.319 E.88667
G1 X139.14 Y88.9 E.01314
G1 X110.86 Y88.9 E.88667
G1 X110.86 Y88.481 E.01314
G1 X139.14 Y88.481 E.88667
G1 X139.14 Y88.062 E.01314
G1 X110.86 Y88.062 E.88667
G1 X110.86 Y87.643 E.01314
G1 X139.14 Y87.643 E.88667
M73 P4 R173
G1 X139.14 Y87.224 E.01314
G1 X110.86 Y87.224 E.88667
G1 X110.86 Y86.805 E.01314
G1 X139.14 Y86.805 E.88667
G1 X139.14 Y86.386 E.01314
G1 X110.86 Y86.386 E.88667
G1 X110.86 Y85.968 E.01314
G1 X139.14 Y85.968 E.88667
G1 X139.14 Y85.549 E.01314
G1 X110.86 Y85.549 E.88667
G1 X110.86 Y85.13 E.01314
G1 X139.14 Y85.13 E.88667
G1 X139.14 Y84.711 E.01314
G1 X110.86 Y84.711 E.88667
G1 X110.86 Y84.292 E.01314
G1 X139.14 Y84.292 E.88667
G1 X139.14 Y83.873 E.01314
G1 X110.86 Y83.873 E.88667
G1 X110.86 Y83.454 E.01314
G1 X139.14 Y83.454 E.88667
G1 X139.14 Y83.035 E.01314
G1 X110.86 Y83.035 E.88667
G1 X110.86 Y82.616 E.01314
M73 P4 R172
G1 X139.14 Y82.616 E.88667
G1 X139.14 Y82.197 E.01314
G1 X110.86 Y82.197 E.88667
G1 X110.86 Y81.778 E.01314
G1 X139.14 Y81.778 E.88667
G1 X139.14 Y81.359 E.01314
G1 X110.86 Y81.359 E.88667
G1 X110.86 Y80.94 E.01314
G1 X139.14 Y80.94 E.88667
G1 X139.14 Y80.521 E.01314
G1 X110.86 Y80.521 E.88667
G1 X110.86 Y80.102 E.01314
G1 X139.14 Y80.102 E.88667
G1 X139.14 Y79.683 E.01314
G1 X110.86 Y79.683 E.88667
G1 X110.86 Y79.264 E.01314
G1 X139.14 Y79.264 E.88667
G1 X139.14 Y78.845 E.01314
G1 X110.86 Y78.845 E.88667
G1 X110.86 Y78.426 E.01314
G1 X139.14 Y78.426 E.88667
G1 X139.14 Y78.007 E.01314
G1 X110.86 Y78.007 E.88667
G1 X110.86 Y77.588 E.01314
G1 X139.14 Y77.588 E.88667
G1 X139.14 Y77.169 E.01314
G1 X110.86 Y77.169 E.88667
G1 X110.86 Y76.75 E.01314
G1 X139.14 Y76.75 E.88667
G1 X139.14 Y76.331 E.01314
G1 X110.86 Y76.331 E.88667
G1 X110.86 Y75.912 E.01314
G1 X139.14 Y75.912 E.88667
G1 X139.14 Y75.493 E.01314
G1 X110.86 Y75.493 E.88667
G1 X110.86 Y75.074 E.01314
G1 X139.14 Y75.074 E.88667
G1 X139.14 Y74.655 E.01314
G1 X110.86 Y74.655 E.88667
G1 X110.86 Y74.236 E.01314
G1 X139.14 Y74.236 E.88667
G1 X139.14 Y73.817 E.01314
M73 P4 R171
G1 X110.86 Y73.817 E.88667
G1 X110.86 Y73.398 E.01314
G1 X139.14 Y73.398 E.88667
G1 X139.14 Y72.979 E.01314
G1 X110.86 Y72.979 E.88667
G1 X110.86 Y72.56 E.01314
G1 X139.14 Y72.56 E.88667
G1 X139.14 Y72.141 E.01314
G1 X110.86 Y72.141 E.88667
G1 X110.86 Y71.722 E.01314
M73 P5 R171
G1 X139.14 Y71.722 E.88667
G1 X139.14 Y71.303 E.01314
G1 X110.86 Y71.303 E.88667
G1 X110.86 Y70.884 E.01314
G1 X139.14 Y70.884 E.88667
G1 X139.14 Y70.465 E.01314
G1 X110.86 Y70.465 E.88667
G1 X110.86 Y70.046 E.01314
G1 X139.14 Y70.046 E.88667
G1 X139.14 Y69.627 E.01314
G1 X110.86 Y69.627 E.88667
G1 X110.86 Y69.208 E.01314
G1 X139.14 Y69.208 E.88667
G1 X139.14 Y68.789 E.01314
G1 X110.86 Y68.789 E.88667
G1 X110.86 Y68.37 E.01314
G1 X139.14 Y68.37 E.88667
G1 X139.14 Y67.951 E.01314
G1 X110.86 Y67.951 E.88667
G1 X110.86 Y67.533 E.01314
G1 X139.14 Y67.533 E.88667
G1 X139.14 Y67.114 E.01314
G1 X110.86 Y67.114 E.88667
G1 X110.86 Y66.695 E.01314
G1 X139.14 Y66.695 E.88667
G1 X139.14 Y66.276 E.01314
G1 X110.86 Y66.276 E.88667
G1 X110.86 Y65.857 E.01314
G1 X139.14 Y65.857 E.88667
G1 X139.14 Y65.438 E.01314
G1 X110.86 Y65.438 E.88667
G1 X110.86 Y65.019 E.01314
M73 P5 R170
G1 X139.14 Y65.019 E.88667
G1 X139.14 Y64.6 E.01314
G1 X110.86 Y64.6 E.88667
G1 X110.86 Y64.181 E.01314
G1 X139.14 Y64.181 E.88667
G1 X139.14 Y63.762 E.01314
G1 X110.86 Y63.762 E.88667
G1 X110.86 Y63.343 E.01314
G1 X139.14 Y63.343 E.88667
G1 X139.14 Y62.924 E.01314
G1 X110.86 Y62.924 E.88667
G1 X110.86 Y62.505 E.01314
G1 X139.14 Y62.505 E.88667
G1 X139.14 Y62.086 E.01314
G1 X110.86 Y62.086 E.88667
G1 X110.86 Y61.667 E.01314
G1 X139.14 Y61.667 E.88667
G1 X139.14 Y61.248 E.01314
G1 X110.86 Y61.248 E.88667
G1 X110.86 Y60.829 E.01314
G1 X139.14 Y60.829 E.88667
G1 X139.14 Y60.41 E.01314
G1 X110.86 Y60.41 E.88667
G1 X110.86 Y59.991 E.01314
G1 X139.14 Y59.991 E.88667
G1 X139.14 Y59.572 E.01314
G1 X110.86 Y59.572 E.88667
G1 X110.86 Y59.153 E.01314
G1 X139.14 Y59.153 E.88667
G1 X139.14 Y58.734 E.01314
G1 X110.86 Y58.734 E.88667
G1 X110.86 Y58.315 E.01314
G1 X139.14 Y58.315 E.88667
G1 X139.14 Y57.896 E.01314
G1 X110.86 Y57.896 E.88667
G1 X110.86 Y57.477 E.01314
G1 X139.14 Y57.477 E.88667
G1 X139.14 Y57.058 E.01314
G1 X110.86 Y57.058 E.88667
G1 X110.86 Y56.639 E.01314
G1 X139.14 Y56.639 E.88667
G1 X139.14 Y56.22 E.01314
M73 P5 R169
G1 X110.86 Y56.22 E.88667
G1 X110.86 Y55.801 E.01314
M73 P6 R169
G1 X139.14 Y55.801 E.88667
G1 X139.14 Y55.382 E.01314
G1 X110.86 Y55.382 E.88667
G1 X110.86 Y54.963 E.01314
G1 X139.14 Y54.963 E.88667
G1 X139.14 Y54.544 E.01314
G1 X110.86 Y54.544 E.88667
G1 X110.86 Y54.125 E.01314
G1 X139.14 Y54.125 E.88667
G1 X139.14 Y53.706 E.01314
G1 X110.86 Y53.706 E.88667
G1 X110.86 Y53.287 E.01314
G1 X139.14 Y53.287 E.88667
G1 X139.14 Y52.868 E.01314
G1 X110.86 Y52.868 E.88667
G1 X110.86 Y52.449 E.01314
G1 X139.14 Y52.449 E.88667
G1 X139.14 Y52.03 E.01314
G1 X110.86 Y52.03 E.88667
G1 X110.86 Y51.611 E.01314
G1 X139.14 Y51.611 E.88667
G1 X139.14 Y51.192 E.01314
G1 X110.86 Y51.192 E.88667
G1 X110.86 Y50.773 E.01314
G1 X139.14 Y50.773 E.88667
G1 X139.14 Y50.354 E.01314
G1 X110.86 Y50.354 E.88667
G1 X110.86 Y49.935 E.01314
G1 X139.14 Y49.935 E.88667
G1 X139.14 Y49.517 E.01314
G1 X110.86 Y49.517 E.88667
G1 X110.86 Y49.098 E.01314
G1 X139.14 Y49.098 E.88667
G1 X139.14 Y48.679 E.01314
G1 X110.86 Y48.679 E.88667
G1 X110.86 Y48.26 E.01314
G1 X139.14 Y48.26 E.88667
G1 X139.14 Y47.841 E.01314
G1 X110.86 Y47.841 E.88667
G1 X110.86 Y47.422 E.01314
M73 P6 R168
G1 X139.14 Y47.422 E.88667
G1 X139.14 Y47.003 E.01314
G1 X110.86 Y47.003 E.88667
G1 X110.86 Y46.584 E.01314
G1 X139.14 Y46.584 E.88667
G1 X139.14 Y46.165 E.01314
G1 X110.86 Y46.165 E.88667
G1 X110.86 Y45.746 E.01314
G1 X139.14 Y45.746 E.88667
G1 X139.14 Y45.327 E.01314
G1 X110.86 Y45.327 E.88667
G1 X110.86 Y44.908 E.01314
G1 X139.14 Y44.908 E.88667
G1 X139.14 Y44.489 E.01314
G1 X110.86 Y44.489 E.88667
G1 X110.86 Y44.07 E.01314
G1 X139.14 Y44.07 E.88667
G1 X139.14 Y43.651 E.01314
G1 X110.86 Y43.651 E.88667
G1 X110.86 Y43.232 E.01314
G1 X139.14 Y43.232 E.88667
G1 X139.14 Y42.813 E.01314
G1 X110.86 Y42.813 E.88667
G1 X110.86 Y42.394 E.01314
G1 X139.14 Y42.394 E.88667
G1 X139.14 Y41.975 E.01314
G1 X110.86 Y41.975 E.88667
G1 X110.86 Y41.556 E.01314
G1 X139.14 Y41.556 E.88667
G1 X139.14 Y41.137 E.01314
G1 X110.86 Y41.137 E.88667
G1 X110.86 Y40.718 E.01314
G1 X139.14 Y40.718 E.88667
G1 X139.14 Y40.299 E.01314
G1 X110.86 Y40.299 E.88667
G1 X110.86 Y39.88 E.01314
M73 P7 R168
G1 X139.14 Y39.88 E.88667
G1 X139.14 Y39.461 E.01314
G1 X110.86 Y39.461 E.88667
G1 X110.86 Y39.042 E.01314
G1 X139.14 Y39.042 E.88667
G1 X139.14 Y38.623 E.01314
